( pcb2gcode 2.1.0 )
( Software-independent Gcode )

G94 ( Millimeters per minute feed rate. )
G21 ( Units == Millimeters. )

G90 ( Absolute coordinates. )
G00 S15000 ( RPM spindle speed. )
G01 F600.00000 ( Feedrate. )


G00 Z25.00000 (Retract to tool change height)

G00 X11.81377 Y5.27997 ( rapid move to begin. )
G01 F300.00000
( Mill infeed pass 1/1 )
G01 Z-0.05000
G04 P0 ( dwell for no time -- G64 should not smooth over this point )
G01 F600.00000
G01 X11.81377 Y5.27997
G01 X17.32656 Y5.27997
G01 X17.10499 Y5.17911
G01 X16.91734 Y5.04617
G01 X16.87665 Y5.01322
G01 X16.83964 Y4.97622
G01 X16.72074 Y4.84416
G01 X16.68783 Y4.80350
G01 X16.65930 Y4.75960
G01 X16.54670 Y4.55907
G01 X16.52796 Y4.51023
G01 X16.45948 Y4.29067
G01 X16.45130 Y4.23898
G01 X16.42999 Y4.01000
G01 X16.45130 Y3.78099
G01 X16.45948 Y3.72930
G01 X16.47304 Y3.67876
G01 X16.52796 Y3.50975
G01 X16.54670 Y3.46090
G01 X16.57045 Y3.41427
G01 X16.68783 Y3.21648
G01 X16.72074 Y3.17581
G01 X16.87665 Y3.00675
G01 X17.06110 Y2.86936
G01 X17.10499 Y2.84086
G01 X17.15163 Y2.81709
G01 X17.36281 Y2.72606
G01 X17.58719 Y2.67556
G01 X17.63888 Y2.66738
G01 X17.69115 Y2.66464
G01 X17.92110 Y2.66738
G01 X17.97279 Y2.67556
G01 X18.19717 Y2.72606
G01 X18.40835 Y2.81709
G01 X18.45498 Y2.84086
G01 X18.49887 Y2.86936
G01 X18.68333 Y3.00675
G01 X18.83923 Y3.17581
G01 X18.87215 Y3.21648
G01 X18.90067 Y3.26037
G01 X19.01327 Y3.46090
G01 X19.03202 Y3.50975
G01 X19.10050 Y3.72930
G01 X19.12724 Y3.95773
G01 X19.12998 Y4.01000
G01 X18.88000 Y4.01000
G01 X18.86003 Y3.80713
G01 X18.84919 Y3.75600
G01 X18.78487 Y3.56258
G01 X18.68416 Y3.38536
G01 X18.65343 Y3.34310
G01 X18.51604 Y3.19253
G01 X18.35193 Y3.07162
G01 X18.30667 Y3.04549
G01 X18.14434 Y2.97320
G01 X18.09463 Y2.95704
G01 X17.89496 Y2.91602
G01 X17.69115 Y2.91465
G01 X17.63916 Y2.92011
G01 X17.44007 Y2.96382
G01 X17.22999 Y3.05735
G01 X17.04393 Y3.19253
G01 X16.90654 Y3.34310
G01 X16.87581 Y3.38536
G01 X16.77510 Y3.56258
G01 X16.71079 Y3.75600
G01 X16.69994 Y3.80713
G01 X16.67998 Y4.01000
G01 X16.69994 Y4.21284
G01 X16.71079 Y4.26397
G01 X16.76570 Y4.43296
G01 X16.78696 Y4.48071
G01 X16.89006 Y4.65656
G01 X17.02544 Y4.80893
G01 X17.06428 Y4.84391
G01 X17.22999 Y4.96263
G01 X17.41564 Y5.04678
G01 X17.46534 Y5.06293
G01 X17.63916 Y5.09986
G01 X17.69115 Y5.10532
G01 X17.89496 Y5.10395
G01 X18.09463 Y5.06293
G01 X18.14434 Y5.04678
G01 X18.32999 Y4.96263
G01 X18.49570 Y4.84391
G01 X18.53453 Y4.80893
G01 X18.66991 Y4.65656
G01 X18.78487 Y4.45740
G01 X18.85594 Y4.23870
G01 X18.88000 Y4.01000
G01 X23.87999 Y4.01000
G01 X23.85123 Y4.55877
G01 X23.83264 Y4.73547
G01 X23.74623 Y5.27997
G01 X17.32656 Y5.27997
G01 X17.10499 Y5.38086
G01 X17.06110 Y5.40936
G01 X16.87665 Y5.54675
G01 X16.72074 Y5.71581
G01 X16.68783 Y5.75648
G01 X16.57045 Y5.95427
G01 X16.54670 Y6.00090
G01 X16.52796 Y6.04975
G01 X16.45948 Y6.26930
G01 X16.43273 Y6.49773
G01 X16.42999 Y6.55000
G01 X16.43273 Y6.60225
G01 X16.45948 Y6.83067
G01 X16.52796 Y7.05023
G01 X16.54670 Y7.09907
G01 X16.65930 Y7.29960
G01 X16.68783 Y7.34350
G01 X16.72074 Y7.38416
G01 X16.87665 Y7.55322
G01 X17.06110 Y7.69061
G01 X17.10499 Y7.71911
G01 X17.15163 Y7.74289
G01 X17.32656 Y7.81997
G01 X17.10499 Y7.92086
G01 X16.91734 Y8.05381
G01 X16.87665 Y8.08675
G01 X16.83964 Y8.12376
G01 X16.68783 Y8.29648
G01 X16.65930 Y8.34037
G01 X16.54670 Y8.54090
G01 X16.47304 Y8.75876
G01 X16.45948 Y8.80930
G01 X16.45130 Y8.86099
G01 X16.43273 Y9.03773
G01 X16.42999 Y9.09000
G01 X16.43273 Y9.14225
G01 X16.45948 Y9.37067
G01 X16.52796 Y9.59023
G01 X16.54670 Y9.63907
G01 X16.57045 Y9.68571
G01 X16.68783 Y9.88350
G01 X16.83964 Y10.05622
G01 X16.87665 Y10.09322
G01 X16.91734 Y10.12617
G01 X17.10499 Y10.25911
G01 X17.32656 Y10.35997
G01 X17.10499 Y10.46086
G01 X16.91734 Y10.59381
G01 X16.87342 Y10.62998
G01 X16.87744 Y10.64227
G01 X16.87342 Y10.62998
G01 X15.00073 Y10.63153
G01 X14.92253 Y10.63767
G01 X14.84503 Y10.64997
G01 X14.76873 Y10.66828
G01 X14.69410 Y10.69251
G01 X14.62161 Y10.72253
G01 X14.55171 Y10.75817
G01 X14.48481 Y10.79917
G01 X14.42133 Y10.84527
G01 X14.33286 Y10.92289
G01 X9.74578 Y15.50998
G01 X9.75365 Y15.52903
G01 X9.74578 Y15.50998
G01 X6.18655 Y15.50998
G01 X6.18254 Y15.52232
G01 X6.18655 Y15.50998
G01 X6.14263 Y15.47381
G01 X5.95498 Y15.34086
G01 X5.90834 Y15.31709
G01 X5.69717 Y15.22606
G01 X5.47279 Y15.17556
G01 X5.42110 Y15.16738
G01 X5.19115 Y15.16464
G01 X5.13888 Y15.16738
G01 X5.08719 Y15.17556
G01 X4.86280 Y15.22606
G01 X4.65163 Y15.31709
G01 X4.60499 Y15.34086
G01 X4.56110 Y15.36936
G01 X4.37665 Y15.50675
G01 X4.22074 Y15.67581
G01 X4.18782 Y15.71648
G01 X4.15930 Y15.76037
G01 X4.04670 Y15.96090
G01 X4.02796 Y16.00975
G01 X3.95948 Y16.22930
G01 X3.93273 Y16.45773
G01 X3.92999 Y16.51000
G01 X3.95130 Y16.73898
G01 X3.95948 Y16.79067
G01 X3.97304 Y16.84122
G01 X4.04670 Y17.05907
G01 X4.15930 Y17.25960
G01 X4.18782 Y17.30350
G01 X4.33967 Y17.47622
G01 X4.37665 Y17.51322
G01 X4.41734 Y17.54617
G01 X4.56110 Y17.65061
G01 X4.60499 Y17.67911
G01 X4.65224 Y17.70149
G01 X4.54505 Y17.67269
G01 X4.36623 Y17.61650
G01 X4.22537 Y17.57876
G01 X4.00746 Y17.53588
G01 X3.74297 Y17.49971
G01 X3.43692 Y17.47142
G01 X2.72745 Y17.43271
G01 X2.20424 Y17.41589
G01 X0.51427 Y17.39519
G01 X0.50686 Y17.41962
G01 X0.43000 Y18.19999
G01 X0.43000 Y19.89999
G01 X0.48120 Y20.41997
G01 X0.43000 Y20.93999
G01 X0.43000 Y22.63999
G01 X0.50686 Y23.42035
G01 X0.73447 Y24.17072
G01 X1.10411 Y24.86226
G01 X1.60157 Y25.46840
G01 X2.20772 Y25.96586
G01 X2.89926 Y26.33551
G01 X3.64962 Y26.56312
G01 X4.42999 Y26.63998
G01 X6.12999 Y26.63998
G01 X6.91035 Y26.56312
G01 X7.66072 Y26.33551
G01 X7.74588 Y26.28999
G01 X7.74400 Y26.28250
G01 X7.74588 Y26.28999
G01 X12.96891 Y26.28994
G01 X13.36652 Y25.94859
G01 X13.82344 Y25.59997
G01 X14.19212 Y25.11212
G01 X14.48671 Y24.76538
G01 X14.66439 Y24.56805
G01 X15.09286 Y24.13676
G01 X15.27058 Y23.97679
G01 X15.59461 Y23.71314
G01 X15.77231 Y23.58398
G01 X16.02516 Y23.41918
G01 X16.20284 Y23.31656
G01 X16.40637 Y23.21291
G01 X16.58409 Y23.13376
G01 X16.77980 Y23.05997
G01 X16.77886 Y23.05528
G01 X16.77980 Y23.05997
G01 X16.77906 Y23.05591
G01 X16.77980 Y23.05997
G01 X18.23349 Y23.05997
G01 X18.45498 Y22.95911
G01 X18.64263 Y22.82617
G01 X18.68333 Y22.79322
G01 X18.72033 Y22.75622
G01 X18.83923 Y22.62416
G01 X18.87215 Y22.58350
G01 X18.90067 Y22.53960
G01 X19.01327 Y22.33907
G01 X19.08693 Y22.12122
G01 X19.10050 Y22.07067
G01 X19.10867 Y22.01898
G01 X19.12998 Y21.79000
G01 X19.10867 Y21.56099
G01 X19.10050 Y21.50930
G01 X19.08693 Y21.45876
G01 X19.03202 Y21.28975
G01 X19.01327 Y21.24090
G01 X18.98952 Y21.19427
G01 X18.87215 Y20.99648
G01 X18.83923 Y20.95581
G01 X18.68333 Y20.78675
G01 X18.49887 Y20.64936
G01 X18.45498 Y20.62086
G01 X18.23347 Y20.51997
G01 X18.45498 Y20.41911
G01 X18.64263 Y20.28617
G01 X18.68333 Y20.25322
G01 X18.72033 Y20.21622
G01 X18.83923 Y20.08416
G01 X18.87215 Y20.04350
G01 X18.90067 Y19.99960
G01 X19.01327 Y19.79907
G01 X19.03202 Y19.75023
G01 X19.10050 Y19.53067
G01 X19.10867 Y19.47898
G01 X19.12998 Y19.25000
G01 X19.10867 Y19.02099
G01 X19.10050 Y18.96930
G01 X19.08693 Y18.91876
G01 X19.01327 Y18.70090
G01 X18.90067 Y18.50037
G01 X18.87215 Y18.45648
G01 X18.83923 Y18.41581
G01 X18.68333 Y18.24675
G01 X18.49887 Y18.10936
G01 X18.45498 Y18.08086
G01 X18.40835 Y18.05709
G01 X18.23349 Y17.97997
G01 X18.45498 Y17.87911
G01 X18.64263 Y17.74617
G01 X18.68333 Y17.71322
G01 X18.72033 Y17.67622
G01 X18.87215 Y17.50350
G01 X18.98952 Y17.30571
G01 X19.01327 Y17.25907
G01 X19.03202 Y17.21023
G01 X19.10050 Y16.99067
G01 X19.10867 Y16.93898
G01 X19.12998 Y16.71000
G01 X19.10867 Y16.93898
G01 X19.10050 Y16.99067
G01 X19.03202 Y17.21023
G01 X19.01327 Y17.25907
G01 X18.98952 Y17.30571
G01 X18.87215 Y17.50350
G01 X18.72033 Y17.67622
G01 X18.68333 Y17.71322
G01 X18.64263 Y17.74617
G01 X18.45498 Y17.87911
G01 X18.23349 Y17.97997
G01 X18.45498 Y18.08086
G01 X18.64263 Y18.21381
G01 X18.68333 Y18.24675
G01 X18.72033 Y18.28376
G01 X18.87215 Y18.45648
G01 X18.98952 Y18.65427
G01 X19.01327 Y18.70090
G01 X19.03202 Y18.74975
G01 X19.10050 Y18.96930
G01 X19.12724 Y19.19773
G01 X19.12998 Y19.25000
G01 X18.88000 Y19.25000
G01 X18.86003 Y19.04713
G01 X18.84919 Y18.99600
G01 X18.78487 Y18.80258
G01 X18.68416 Y18.62536
G01 X18.65343 Y18.58310
G01 X18.51604 Y18.43253
G01 X18.32999 Y18.29735
G01 X18.11990 Y18.20382
G01 X17.92082 Y18.16011
G01 X17.86882 Y18.15465
G01 X17.66501 Y18.15602
G01 X17.46534 Y18.19704
G01 X17.41564 Y18.21320
G01 X17.25331 Y18.28549
G01 X17.20804 Y18.31162
G01 X17.04393 Y18.43253
G01 X16.90654 Y18.58310
G01 X16.87581 Y18.62536
G01 X16.77510 Y18.80258
G01 X16.71079 Y18.99600
G01 X16.69994 Y19.04713
G01 X16.67998 Y19.25000
G01 X16.69994 Y19.45284
G01 X16.71079 Y19.50397
G01 X16.77510 Y19.69740
G01 X16.87581 Y19.87461
G01 X16.90654 Y19.91688
G01 X17.04393 Y20.06745
G01 X17.22999 Y20.20263
G01 X17.44007 Y20.29615
G01 X17.63916 Y20.33986
G01 X17.69115 Y20.34532
G01 X17.89496 Y20.34395
G01 X18.09463 Y20.30293
G01 X18.14434 Y20.28678
G01 X18.32999 Y20.20263
G01 X18.51604 Y20.06745
G01 X18.65343 Y19.91688
G01 X18.68416 Y19.87461
G01 X18.78487 Y19.69740
G01 X18.84919 Y19.50397
G01 X18.86003 Y19.45284
G01 X18.88000 Y19.25000
G01 X23.87999 Y19.25000
G01 X23.85123 Y19.79877
G01 X23.83264 Y19.97547
G01 X23.74623 Y20.51997
G01 X17.32656 Y20.51997
G01 X17.10499 Y20.41911
G01 X16.91734 Y20.28617
G01 X16.87665 Y20.25322
G01 X16.83964 Y20.21622
G01 X16.68783 Y20.04350
G01 X16.57045 Y19.84571
G01 X16.54670 Y19.79907
G01 X16.52796 Y19.75023
G01 X16.45948 Y19.53067
G01 X16.45130 Y19.47898
G01 X16.42999 Y19.25000
G01 X16.43273 Y19.19773
G01 X16.45948 Y18.96930
G01 X16.52796 Y18.74975
G01 X16.54670 Y18.70090
G01 X16.57045 Y18.65427
G01 X16.68783 Y18.45648
G01 X16.83964 Y18.28376
G01 X16.87665 Y18.24675
G01 X16.91734 Y18.21381
G01 X17.10499 Y18.08086
G01 X17.32656 Y17.97997
G01 X17.10499 Y17.87911
G01 X16.91734 Y17.74617
G01 X16.87342 Y17.71000
G01 X16.87744 Y17.69765
G01 X16.87342 Y17.71000
G01 X15.45417 Y17.71000
G01 X15.44630 Y17.69097
G01 X15.45417 Y17.71000
G01 X13.40711 Y19.75709
G01 X13.31862 Y19.83471
G01 X13.25514 Y19.88081
G01 X13.18821 Y19.92180
G01 X13.11834 Y19.95744
G01 X13.04582 Y19.98746
G01 X12.97120 Y20.01169
G01 X12.89489 Y20.03001
G01 X12.81742 Y20.04230
G01 X12.70000 Y20.05000
G01 X6.60446 Y20.05000
G01 X6.57913 Y20.01050
G01 X6.60446 Y20.05000
G01 X6.59193 Y20.09132
G01 X6.54573 Y20.17776
G01 X6.48353 Y20.25353
G01 X6.40779 Y20.31573
G01 X6.32132 Y20.36194
G01 X6.22752 Y20.39038
G01 X6.12999 Y20.39998
G01 X4.42999 Y20.39998
G01 X4.33245 Y20.39038
G01 X4.23865 Y20.36194
G01 X4.15221 Y20.31573
G01 X4.07645 Y20.25353
G01 X4.01424 Y20.17776
G01 X3.96804 Y20.09132
G01 X3.93959 Y19.99752
G01 X3.92999 Y19.89999
G01 X3.92999 Y18.19999
G01 X3.93959 Y18.10245
G01 X3.96804 Y18.00865
G01 X4.01424 Y17.92221
G01 X4.07645 Y17.84645
G01 X4.15221 Y17.78424
G01 X4.23865 Y17.73804
G01 X4.33245 Y17.70959
G01 X4.42999 Y17.69999
G01 X4.64660 Y17.69999
G01 X4.82984 Y17.73987
G01 X4.92458 Y17.75463
G01 X5.10235 Y17.77299
G01 X5.19112 Y17.77812
G01 X5.36882 Y17.77766
G01 X5.45767 Y17.77332
G01 X5.63542 Y17.75490
G01 X5.73011 Y17.73982
G01 X5.90771 Y17.70149
G01 X6.01490 Y17.67269
G01 X6.22336 Y17.60863
G01 X6.22315 Y17.60212
G01 X6.22336 Y17.60863
G01 X6.49935 Y17.66230
G01 X6.77532 Y17.77997
G01 X6.77431 Y17.78503
G01 X6.77532 Y17.77997
G01 X10.15997 Y17.77997
G01 X10.29912 Y17.77568
G01 X10.42119 Y17.76641
G01 X10.49962 Y17.75678
G01 X10.29912 Y17.77568
G01 X10.49965 Y17.75706
G01 X10.70432 Y17.72171
G01 X10.91517 Y17.66745
G01 X11.05733 Y17.62140
G01 X11.24133 Y17.54995
G01 X12.07867 Y17.54998
G01 X12.08644 Y17.56888
G01 X12.07867 Y17.54998
G01 X13.97930 Y15.64932
G01 X14.09662 Y15.54508
G01 X14.22357 Y15.45285
G01 X14.29047 Y15.41186
G01 X14.43027 Y15.34061
G01 X14.50277 Y15.31059
G01 X14.65202 Y15.26210
G01 X14.72829 Y15.24378
G01 X14.88328 Y15.21922
G01 X15.03998 Y15.20998
G01 X16.25564 Y15.21000
G01 X16.40637 Y15.28707
G01 X16.58409 Y15.36619
G01 X16.77975 Y15.43997
G01 X16.77883 Y15.44467
G01 X16.77975 Y15.43997
G01 X16.77901 Y15.44404
G01 X16.77975 Y15.43997
G01 X18.23347 Y15.43997
G01 X18.45498 Y15.54086
G01 X18.64263 Y15.67381
G01 X18.68333 Y15.70675
G01 X18.72033 Y15.74376
G01 X18.83923 Y15.87581
G01 X18.87215 Y15.91648
G01 X18.90067 Y15.96037
G01 X19.01327 Y16.16090
G01 X19.08693 Y16.37876
G01 X19.10050 Y16.42930
G01 X19.10867 Y16.48099
G01 X19.12998 Y16.71000
G01 X18.88000 Y16.71000
G01 X18.85594 Y16.48127
G01 X18.78487 Y16.26258
G01 X18.66991 Y16.06342
G01 X18.51604 Y15.89253
G01 X18.35193 Y15.77162
G01 X18.30667 Y15.74549
G01 X18.11990 Y15.66382
G01 X17.92082 Y15.62011
G01 X17.86882 Y15.61465
G01 X17.66501 Y15.61602
G01 X17.44007 Y15.66382
G01 X17.22999 Y15.75735
G01 X17.04393 Y15.89253
G01 X16.98135 Y15.95999
G01 X15.03998 Y15.95999
G01 X14.90337 Y15.97304
G01 X14.78978 Y16.00350
G01 X14.68234 Y16.05133
G01 X14.61544 Y16.09232
G01 X14.50962 Y16.17965
G01 X12.38933 Y18.29999
G01 X6.38000 Y18.29999
G01 X6.38000 Y18.19999
G01 X6.37517 Y18.15122
G01 X6.36095 Y18.10431
G01 X6.33786 Y18.06110
G01 X6.30677 Y18.02320
G01 X6.26887 Y17.99212
G01 X6.22567 Y17.96903
G01 X6.17875 Y17.95480
G01 X6.12999 Y17.94998
G01 X4.42999 Y17.94998
G01 X4.38122 Y17.95480
G01 X4.33431 Y17.96903
G01 X4.29110 Y17.99212
G01 X4.25320 Y18.02320
G01 X4.22211 Y18.06110
G01 X4.19903 Y18.10431
G01 X4.18480 Y18.15122
G01 X4.17998 Y18.19999
G01 X4.17998 Y19.89999
G01 X4.18480 Y19.94875
G01 X4.19903 Y19.99567
G01 X4.22211 Y20.03887
G01 X4.25320 Y20.07677
G01 X4.29110 Y20.10786
G01 X4.33431 Y20.13095
G01 X4.38122 Y20.14517
G01 X4.42999 Y20.15000
G01 X6.12999 Y20.15000
G01 X6.17875 Y20.14517
G01 X6.22567 Y20.13095
G01 X6.26887 Y20.10786
G01 X6.30677 Y20.07677
G01 X6.33786 Y20.03887
G01 X6.36095 Y19.99567
G01 X6.37517 Y19.94875
G01 X6.38000 Y19.89999
G01 X6.38000 Y19.79999
G01 X12.71961 Y19.79922
G01 X12.83655 Y19.78693
G01 X12.91285 Y19.76862
G01 X13.02266 Y19.72645
G01 X13.12451 Y19.66765
G01 X13.21587 Y19.59364
G01 X15.35062 Y17.45999
G01 X16.98137 Y17.45999
G01 X17.04393 Y17.52745
G01 X17.22999 Y17.66263
G01 X17.44007 Y17.75615
G01 X17.66501 Y17.80395
G01 X17.89496 Y17.80395
G01 X18.11990 Y17.75615
G01 X18.30667 Y17.67449
G01 X18.35193 Y17.64835
G01 X18.49570 Y17.54391
G01 X18.53453 Y17.50893
G01 X18.66991 Y17.35656
G01 X18.78487 Y17.15740
G01 X18.85594 Y16.93870
G01 X18.88000 Y16.71000
G01 X23.87999 Y16.71000
G01 X23.85123 Y17.25877
G01 X23.83264 Y17.43547
G01 X23.74623 Y17.97997
G01 X23.83264 Y18.52450
G01 X23.85123 Y18.70121
G01 X23.87999 Y19.25000
G01 X23.85123 Y19.79877
G01 X23.83264 Y19.97547
G01 X23.74623 Y20.51997
G01 X23.83264 Y21.06450
G01 X23.85123 Y21.24121
G01 X23.87999 Y21.79000
G01 X23.85123 Y22.33877
G01 X23.83264 Y22.51547
G01 X23.74623 Y23.05997
G01 X23.83264 Y23.60450
G01 X23.85123 Y23.78121
G01 X23.87999 Y24.33000
G01 X23.85123 Y24.87877
G01 X23.83264 Y25.05547
G01 X23.74623 Y25.59997
G01 X23.83264 Y26.14450
G01 X23.85123 Y26.32121
G01 X23.87999 Y26.87000
G01 X23.85123 Y27.41877
G01 X23.83264 Y27.59547
G01 X23.74623 Y28.13997
G01 X23.83264 Y28.68450
G01 X23.85123 Y28.86121
G01 X23.87999 Y29.41000
G01 X23.85123 Y29.95877
G01 X23.83264 Y30.13547
G01 X23.74623 Y30.67997
G01 X23.83264 Y31.22450
G01 X23.85123 Y31.40121
G01 X23.87999 Y31.95000
G01 X23.85123 Y32.49877
G01 X23.83264 Y32.67547
G01 X23.74623 Y33.21997
G01 X23.83264 Y33.76450
G01 X23.85123 Y33.94121
G01 X23.87999 Y34.49000
G01 X23.85123 Y35.03877
G01 X23.83264 Y35.21547
G01 X23.74623 Y35.75997
G01 X23.83264 Y36.30450
G01 X23.85123 Y36.48121
G01 X23.87999 Y37.03000
G01 X23.85123 Y37.57877
G01 X23.83264 Y37.75547
G01 X23.74623 Y38.29997
G01 X23.83264 Y38.84450
G01 X23.85123 Y39.02121
G01 X23.87999 Y39.57000
G01 X23.85123 Y40.11877
G01 X23.83264 Y40.29547
G01 X23.74623 Y40.83997
G01 X23.83264 Y41.38450
G01 X23.85123 Y41.56121
G01 X23.87999 Y42.11000
G01 X23.85123 Y42.65877
G01 X23.83264 Y42.83547
G01 X23.74623 Y43.37997
G01 X23.83264 Y43.92450
G01 X23.85123 Y44.10121
G01 X23.87999 Y44.65000
G01 X23.85123 Y45.19877
G01 X23.83264 Y45.37547
G01 X23.74623 Y45.91997
G01 X23.83264 Y46.46450
G01 X23.85123 Y46.64121
G01 X23.87999 Y47.19000
G01 X23.85123 Y47.73877
G01 X23.83264 Y47.91547
G01 X23.74669 Y48.45825
G01 X17.32656 Y48.45997
G01 X17.10499 Y48.56086
G01 X16.91734 Y48.69381
G01 X16.87665 Y48.72675
G01 X16.83964 Y48.76376
G01 X16.68783 Y48.93648
G01 X16.57045 Y49.13427
G01 X16.54670 Y49.18090
G01 X16.52796 Y49.22975
G01 X16.45948 Y49.44930
G01 X16.43273 Y49.67773
G01 X16.42999 Y49.73000
G01 X16.45130 Y49.95898
G01 X16.45948 Y50.01067
G01 X16.52796 Y50.23023
G01 X16.54670 Y50.27907
G01 X16.57045 Y50.32571
G01 X16.68783 Y50.52350
G01 X16.72074 Y50.56416
G01 X16.87665 Y50.73322
G01 X17.06110 Y50.87061
G01 X17.10499 Y50.89911
G01 X17.15224 Y50.92149
G01 X17.32984 Y50.95982
G01 X17.42455 Y50.97490
G01 X17.60233 Y50.99329
G01 X17.69113 Y50.99827
G01 X17.86882 Y50.99842
G01 X18.13540 Y50.97490
G01 X18.23014 Y50.95997
G01 X18.40771 Y50.92149
G01 X18.51490 Y50.89266
G01 X18.69371 Y50.83650
G01 X18.83458 Y50.79878
G01 X19.05251 Y50.75608
G01 X19.31698 Y50.71974
G01 X19.62302 Y50.69154
G01 X20.33252 Y50.65276
G01 X20.85571 Y50.63592
G01 X23.55654 Y50.60277
G01 X23.58403 Y50.42936
G01 X23.60259 Y50.25263
G01 X23.62998 Y49.73000
G01 X23.60259 Y49.20734
G01 X23.58403 Y49.03061
G01 X23.50216 Y48.51370
G01 X23.48776 Y48.45997
G01 X23.50216 Y48.40628
G01 X23.58403 Y47.88936
G01 X23.60259 Y47.71263
G01 X23.62998 Y47.19000
G01 X23.60259 Y46.66734
G01 X23.58403 Y46.49061
G01 X23.50216 Y45.97370
G01 X23.48776 Y45.91997
G01 X23.50216 Y45.86628
G01 X23.58403 Y45.34936
G01 X23.60259 Y45.17263
G01 X23.62998 Y44.65000
G01 X23.60259 Y44.12734
G01 X23.58403 Y43.95061
G01 X23.50216 Y43.43370
G01 X23.48776 Y43.37997
G01 X23.50216 Y43.32628
G01 X23.58403 Y42.80936
G01 X23.60259 Y42.63263
G01 X23.62998 Y42.11000
G01 X23.60259 Y41.58734
G01 X23.58403 Y41.41061
G01 X23.50216 Y40.89370
G01 X23.48776 Y40.83997
G01 X23.50216 Y40.78628
G01 X23.58403 Y40.26936
G01 X23.60259 Y40.09263
G01 X23.62998 Y39.57000
G01 X23.60259 Y39.04734
G01 X23.58403 Y38.87061
G01 X23.50216 Y38.35370
G01 X23.48776 Y38.29997
G01 X23.50216 Y38.24628
G01 X23.58403 Y37.72936
G01 X23.60259 Y37.55263
G01 X23.62998 Y37.03000
G01 X23.60259 Y36.50734
G01 X23.58403 Y36.33061
G01 X23.50216 Y35.81370
G01 X23.48776 Y35.75997
G01 X23.50216 Y35.70628
G01 X23.58403 Y35.18936
G01 X23.60259 Y35.01263
G01 X23.62998 Y34.49000
G01 X23.60259 Y33.96734
G01 X23.58403 Y33.79061
G01 X23.50216 Y33.27370
G01 X23.48776 Y33.21997
G01 X23.50216 Y33.16628
G01 X23.58403 Y32.64936
G01 X23.60259 Y32.47263
G01 X23.62998 Y31.95000
G01 X23.60259 Y31.42734
G01 X23.58403 Y31.25061
G01 X23.50216 Y30.73370
G01 X23.48776 Y30.67997
G01 X23.50216 Y30.62628
G01 X23.58403 Y30.10936
G01 X23.60259 Y29.93263
G01 X23.62998 Y29.41000
G01 X23.60259 Y28.88734
G01 X23.58403 Y28.71061
G01 X23.50216 Y28.19370
G01 X23.48776 Y28.13997
G01 X23.50216 Y28.08628
G01 X23.58403 Y27.56936
G01 X23.60259 Y27.39263
G01 X23.62998 Y26.87000
G01 X23.60259 Y26.34732
G01 X23.58403 Y26.17059
G01 X23.50216 Y25.65370
G01 X23.48776 Y25.59997
G01 X23.50216 Y25.54628
G01 X23.58403 Y25.02936
G01 X23.60259 Y24.85263
G01 X23.62998 Y24.33000
G01 X23.60259 Y23.80734
G01 X23.58403 Y23.63061
G01 X23.50216 Y23.11370
G01 X23.48776 Y23.05997
G01 X23.50216 Y23.00628
G01 X23.58403 Y22.48936
G01 X23.60259 Y22.31263
G01 X23.62998 Y21.79000
G01 X23.60259 Y21.26734
G01 X23.58403 Y21.09061
G01 X23.50216 Y20.57370
G01 X23.48776 Y20.51997
G01 X23.50216 Y20.46628
G01 X23.58403 Y19.94936
G01 X23.60259 Y19.77263
G01 X23.62998 Y19.25000
G01 X23.60259 Y18.72734
G01 X23.58403 Y18.55061
G01 X23.50216 Y18.03370
G01 X23.48776 Y17.97997
G01 X23.50216 Y17.92628
G01 X23.58403 Y17.40936
G01 X23.60259 Y17.23263
G01 X23.62998 Y16.71000
G01 X23.60259 Y16.18734
G01 X23.58403 Y16.01061
G01 X23.50216 Y15.49370
G01 X23.48776 Y15.43997
G01 X23.50216 Y15.38628
G01 X23.58403 Y14.86936
G01 X23.60259 Y14.69263
G01 X23.62998 Y14.17000
G01 X23.60259 Y13.64734
G01 X23.58403 Y13.47061
G01 X23.50216 Y12.95370
G01 X23.48776 Y12.89997
G01 X23.50216 Y12.84625
G01 X23.58403 Y12.32936
G01 X23.60259 Y12.15263
G01 X23.62998 Y11.63000
G01 X23.60259 Y11.10734
G01 X23.58403 Y10.93061
G01 X23.50216 Y10.41370
G01 X23.48776 Y10.35997
G01 X23.50216 Y10.30628
G01 X23.58403 Y9.78936
G01 X23.60259 Y9.61263
G01 X23.62998 Y9.09000
G01 X23.60259 Y8.56734
G01 X23.58403 Y8.39061
G01 X23.50216 Y7.87370
G01 X23.48776 Y7.81997
G01 X23.50216 Y7.76628
G01 X23.58403 Y7.24936
G01 X23.60259 Y7.07263
G01 X23.62998 Y6.55000
G01 X23.60259 Y6.02734
G01 X23.58403 Y5.85061
G01 X23.50216 Y5.33370
G01 X23.48776 Y5.27997
G01 X23.50216 Y5.22628
G01 X23.58403 Y4.70936
G01 X23.60259 Y4.53263
G01 X23.62998 Y4.01000
G01 X23.60259 Y3.48734
G01 X23.58403 Y3.31061
G01 X23.50216 Y2.79370
G01 X23.36670 Y2.28818
G01 X23.31179 Y2.11917
G01 X23.12424 Y1.63058
G01 X22.88662 Y1.16426
G01 X22.79777 Y1.01036
G01 X22.51273 Y0.57145
G01 X22.21194 Y0.20000
G01 X13.34803 Y0.20000
G01 X13.04724 Y0.57145
G01 X12.76220 Y1.01036
G01 X12.67336 Y1.16426
G01 X12.43574 Y1.63058
G01 X12.24818 Y2.11917
G01 X12.19327 Y2.28818
G01 X12.05781 Y2.79370
G01 X11.97595 Y3.31061
G01 X11.95738 Y3.48734
G01 X11.93000 Y4.01000
G01 X11.95738 Y4.53263
G01 X11.97595 Y4.70936
G01 X12.05781 Y5.22628
G01 X12.07221 Y5.27997
G01 X12.05781 Y5.33370
G01 X11.97595 Y5.85061
G01 X11.95738 Y6.02734
G01 X11.93000 Y6.55000
G01 X11.95738 Y7.07263
G01 X13.51201 Y7.81997
G01 X18.23347 Y7.81997
G01 X18.45498 Y7.92086
G01 X18.49887 Y7.94936
G01 X18.68333 Y8.08675
G01 X18.83923 Y8.25581
G01 X18.87215 Y8.29648
G01 X18.90067 Y8.34037
G01 X19.01327 Y8.54090
G01 X19.08693 Y8.75876
G01 X19.10050 Y8.80930
G01 X19.10867 Y8.86099
G01 X19.12998 Y9.09000
G01 X18.88000 Y9.09000
G01 X18.85594 Y8.86127
G01 X18.78487 Y8.64258
G01 X18.66991 Y8.44342
G01 X18.51604 Y8.27253
G01 X18.35193 Y8.15162
G01 X18.30667 Y8.12549
G01 X18.11990 Y8.04382
G01 X17.92082 Y8.00011
G01 X17.86882 Y7.99465
G01 X17.69115 Y7.99465
G01 X17.63916 Y8.00011
G01 X17.44007 Y8.04382
G01 X17.22999 Y8.13735
G01 X17.04393 Y8.27253
G01 X16.90654 Y8.42310
G01 X16.87581 Y8.46536
G01 X16.77510 Y8.64258
G01 X16.70403 Y8.86127
G01 X16.67998 Y9.09000
G01 X16.70403 Y9.31870
G01 X16.77510 Y9.53740
G01 X16.89006 Y9.73656
G01 X17.04393 Y9.90745
G01 X17.22999 Y10.04263
G01 X17.44007 Y10.13615
G01 X17.66501 Y10.18395
G01 X17.86882 Y10.18532
G01 X17.92082 Y10.17986
G01 X18.09463 Y10.14293
G01 X18.14434 Y10.12678
G01 X18.32999 Y10.04263
G01 X18.49570 Y9.92391
G01 X18.53453 Y9.88893
G01 X18.66991 Y9.73656
G01 X18.78487 Y9.53740
G01 X18.85594 Y9.31870
G01 X18.88000 Y9.09000
G01 X23.87999 Y9.09000
G01 X23.85123 Y9.63877
G01 X23.83264 Y9.81547
G01 X23.74623 Y10.35997
G01 X16.77980 Y10.35997
G01 X16.77886 Y10.36462
G01 X16.77980 Y10.35997
G01 X16.77906 Y10.36404
G01 X16.77980 Y10.35997
G01 X16.58409 Y10.28619
G01 X16.40622 Y10.20737
G01 X16.20302 Y10.10308
G01 X16.02534 Y10.00049
G01 X15.77231 Y9.83597
G01 X15.59479 Y9.70656
G01 X15.27081 Y9.44298
G01 X15.09311 Y9.28299
G01 X14.41369 Y8.64695
G01 X13.51201 Y7.81997
G01 X11.70125 Y6.95543
G01 X11.67999 Y6.55000
G01 X11.70874 Y6.00121
G01 X11.72733 Y5.82450
G01 X11.81377 Y5.27997
G01 X11.72733 Y4.73547
G01 X11.70874 Y4.55877
G01 X11.67999 Y4.01000
G01 X11.70874 Y3.46121
G01 X11.72733 Y3.28450
G01 X11.81329 Y2.74173
G01 X11.95553 Y2.21092
G01 X12.01042 Y2.04193
G01 X12.20737 Y1.52890
G01 X12.45685 Y1.03927
G01 X12.54569 Y0.88537
G01 X12.84498 Y0.42448
G01 X13.02680 Y0.19997
G01 X22.53318 Y0.19997
G01 X22.71499 Y0.42448
G01 X23.01428 Y0.88537
G01 X23.10313 Y1.03927
G01 X23.35261 Y1.52890
G01 X23.54956 Y2.04193
G01 X23.60445 Y2.21092
G01 X23.74669 Y2.74173
G01 X23.83264 Y3.28450
G01 X23.85123 Y3.46121
G01 X23.87999 Y4.01000
G01 X23.85123 Y4.55877
G01 X23.83264 Y4.73547
G01 X23.74623 Y5.27997
G01 X23.83264 Y5.82450
G01 X23.85123 Y6.00121
G01 X23.87999 Y6.55000
G01 X23.85123 Y7.09877
G01 X23.83264 Y7.27547
G01 X23.74623 Y7.81997
G01 X23.83264 Y8.36450
G01 X23.85123 Y8.54121
G01 X23.87999 Y9.09000
G01 X23.85123 Y9.63877
G01 X23.83264 Y9.81547
G01 X23.74623 Y10.35997
G01 X23.83264 Y10.90450
G01 X23.85123 Y11.08121
G01 X23.87999 Y11.63000
G01 X23.85123 Y12.17877
G01 X23.83264 Y12.35547
G01 X23.74623 Y12.89997
G01 X23.83264 Y13.44450
G01 X23.85123 Y13.62121
G01 X23.87999 Y14.17000
G01 X23.85123 Y14.71877
G01 X23.83264 Y14.89547
G01 X23.74623 Y15.43997
G01 X23.83264 Y15.98450
G01 X23.85123 Y16.16121
G01 X23.87999 Y16.71000
G01 X23.85123 Y17.25877
G01 X23.83264 Y17.43547
G01 X23.74623 Y17.97997
G01 X16.77980 Y17.97997
G01 X16.77886 Y17.97528
G01 X16.77980 Y17.97997
G01 X16.77906 Y17.97591
G01 X16.77980 Y17.97997
G01 X16.75364 Y17.98846
G01 X16.75267 Y17.98368
G01 X16.75364 Y17.98846
G01 X16.58409 Y18.05376
G01 X16.40637 Y18.13291
G01 X16.20286 Y18.23659
G01 X16.02534 Y18.33946
G01 X15.78072 Y18.49834
G01 X15.77442 Y18.49239
G01 X15.78072 Y18.49834
G01 X15.77495 Y18.49280
G01 X15.78072 Y18.49834
G01 X15.68082 Y18.66135
G01 X15.53792 Y18.92506
G01 X15.45676 Y19.09521
G01 X15.32313 Y19.41883
G01 X15.26103 Y19.59419
G01 X14.78844 Y19.78998
G01 X15.50065 Y19.78998
G01 X15.59479 Y19.86656
G01 X15.49357 Y19.78421
G01 X15.48135 Y19.73857
G01 X15.45679 Y19.58350
G01 X15.43820 Y19.40677
G01 X15.42999 Y19.25000
G01 X15.43538 Y19.14695
G01 X15.45633 Y19.09501
G01 X15.43817 Y19.14020
G01 X14.78844 Y19.78998
G01 X13.83497 Y20.18500
G01 X13.67109 Y20.24774
G01 X13.54003 Y20.28995
G01 X16.25564 Y20.28998
G01 X16.22631 Y20.24962
G01 X16.13746 Y20.09572
G01 X16.08993 Y20.00245
G01 X16.05242 Y19.90474
G01 X15.99750 Y19.73572
G01 X15.97040 Y19.63463
G01 X15.95404 Y19.53123
G01 X15.93548 Y19.35452
G01 X15.92999 Y19.25000
G01 X15.93548 Y19.14545
G01 X15.95404 Y18.96875
G01 X15.97040 Y18.86534
G01 X15.99750 Y18.76425
G01 X16.05242 Y18.59524
G01 X16.08993 Y18.49752
G01 X16.13746 Y18.40426
G01 X16.25100 Y18.21236
G01 X16.40637 Y18.13291
G01 X16.25562 Y18.21000
G01 X15.66128 Y18.21000
G01 X15.65341 Y18.19095
G01 X15.66128 Y18.21000
G01 X13.76065 Y20.11065
G01 X13.70300 Y20.16394
G01 X13.64333 Y20.21489
G01 X13.54003 Y20.28995
G01 X13.43309 Y20.32163
G01 X13.20561 Y20.37324
G01 X12.98481 Y20.40501
G01 X12.84704 Y20.41609
G01 X12.70000 Y20.41997
G01 X3.89120 Y20.41997
G01 X3.80639 Y20.31667
G01 X3.73708 Y20.18701
G01 X3.69440 Y20.04631
G01 X3.67998 Y19.89999
G01 X3.67998 Y18.19999
G01 X3.69440 Y18.05366
G01 X3.73708 Y17.91297
G01 X3.80639 Y17.78330
G01 X3.89966 Y17.66966
G01 X4.01330 Y17.57639
G01 X4.06679 Y17.54779
G01 X4.22537 Y17.57876
G01 X4.36623 Y17.61650
G01 X4.22532 Y17.57906
G01 X4.00746 Y17.53588
G01 X3.74294 Y17.50002
G01 X3.43692 Y17.47142
G01 X3.12890 Y17.45470
G01 X3.07688 Y17.31924
G01 X3.02196 Y17.15023
G01 X2.98135 Y16.99857
G01 X2.95679 Y16.84350
G01 X2.93820 Y16.66677
G01 X2.92999 Y16.50997
G01 X2.93820 Y16.35321
G01 X2.95679 Y16.17647
G01 X2.98135 Y16.02141
G01 X3.02196 Y15.86974
G01 X3.07688 Y15.70073
G01 X3.13317 Y15.55415
G01 X3.20444 Y15.41427
G01 X3.29329 Y15.26037
G01 X3.37881 Y15.12870
G01 X3.47762 Y15.00668
G01 X3.59651 Y14.87462
G01 X3.70754 Y14.76360
G01 X3.82956 Y14.66479
G01 X3.97332 Y14.56035
G01 X4.10500 Y14.47482
G01 X4.24487 Y14.40355
G01 X4.40723 Y14.33126
G01 X4.55379 Y14.27500
G01 X4.70545 Y14.23436
G01 X4.87926 Y14.19743
G01 X5.03436 Y14.17287
G01 X5.19115 Y14.16464
G01 X5.36885 Y14.16464
G01 X5.52562 Y14.17287
G01 X5.68071 Y14.19743
G01 X5.85452 Y14.23436
G01 X6.00619 Y14.27500
G01 X6.15277 Y14.33126
G01 X6.31510 Y14.40355
G01 X6.45498 Y14.47482
G01 X6.50913 Y14.50998
G01 X6.50751 Y14.51671
G01 X6.50913 Y14.50998
G01 X9.33155 Y14.50998
G01 X9.33943 Y14.52903
G01 X9.33155 Y14.50998
G01 X13.62575 Y10.21578
G01 X13.77191 Y10.08487
G01 X13.96233 Y9.94651
G01 X14.02921 Y9.90552
G01 X14.23894 Y9.79866
G01 X14.31143 Y9.76864
G01 X14.53528 Y9.69592
G01 X14.61158 Y9.67758
G01 X14.84406 Y9.64077
G01 X14.92227 Y9.63460
G01 X15.03995 Y9.62998
G01 X15.50068 Y9.62998
G01 X15.59479 Y9.70656
G01 X15.49357 Y9.62419
G01 X15.48135 Y9.57857
G01 X15.45679 Y9.42350
G01 X15.43820 Y9.24677
G01 X15.42999 Y9.09000
G01 X15.43820 Y8.93321
G01 X15.45679 Y8.75647
G01 X15.48135 Y8.60141
G01 X15.52197 Y8.44974
G01 X15.57688 Y8.28073
G01 X15.63317 Y8.13415
G01 X15.70444 Y7.99427
G01 X15.80652 Y7.81997
G01 X15.70444 Y7.64570
G01 X15.63317 Y7.50583
G01 X15.57688 Y7.35924
G01 X15.52197 Y7.19023
G01 X15.48135 Y7.03857
G01 X15.45679 Y6.88350
G01 X15.43820 Y6.70677
G01 X15.42999 Y6.55000
G01 X15.43820 Y6.39321
G01 X15.45679 Y6.21647
G01 X15.48135 Y6.06141
G01 X15.52197 Y5.90974
G01 X15.57688 Y5.74073
G01 X15.63317 Y5.59415
G01 X15.70444 Y5.45427
G01 X15.80652 Y5.27997
G01 X15.70444 Y5.10570
G01 X15.63317 Y4.96583
G01 X15.57688 Y4.81924
G01 X15.52197 Y4.65023
G01 X15.48135 Y4.49857
G01 X15.45679 Y4.34350
G01 X15.43820 Y4.16677
G01 X15.42999 Y4.01000
G01 X15.43820 Y3.85321
G01 X15.45679 Y3.67647
G01 X15.48135 Y3.52141
G01 X15.52197 Y3.36974
G01 X15.57688 Y3.20070
G01 X15.63317 Y3.05415
G01 X15.70444 Y2.91427
G01 X15.79329 Y2.76037
G01 X15.87881 Y2.62870
G01 X15.97762 Y2.50668
G01 X16.09651 Y2.37462
G01 X16.20754 Y2.26360
G01 X16.32956 Y2.16479
G01 X16.47330 Y2.06035
G01 X16.60500 Y1.97482
G01 X16.74487 Y1.90355
G01 X16.90721 Y1.83126
G01 X17.05379 Y1.77500
G01 X17.20545 Y1.73436
G01 X17.37926 Y1.69743
G01 X17.53436 Y1.67287
G01 X17.69115 Y1.66464
G01 X17.86882 Y1.66464
G01 X18.02562 Y1.67287
G01 X18.18071 Y1.69743
G01 X18.35452 Y1.73436
G01 X18.50619 Y1.77500
G01 X18.65277 Y1.83126
G01 X18.81510 Y1.90355
G01 X18.95498 Y1.97482
G01 X19.08668 Y2.06035
G01 X19.23042 Y2.16479
G01 X19.35244 Y2.26360
G01 X19.46346 Y2.37462
G01 X19.58236 Y2.50668
G01 X19.68116 Y2.62870
G01 X19.76669 Y2.76037
G01 X19.85554 Y2.91427
G01 X19.92681 Y3.05415
G01 X19.98309 Y3.20070
G01 X20.03801 Y3.36974
G01 X20.07862 Y3.52141
G01 X20.10319 Y3.67647
G01 X20.12178 Y3.85321
G01 X20.12998 Y4.01000
G01 X20.12178 Y4.16677
G01 X20.10319 Y4.34350
G01 X20.07862 Y4.49857
G01 X20.03801 Y4.65023
G01 X19.98309 Y4.81924
G01 X19.92681 Y4.96583
G01 X19.85554 Y5.10570
G01 X19.75345 Y5.27997
G01 X19.85554 Y5.45427
G01 X19.92681 Y5.59415
G01 X19.98309 Y5.74073
G01 X20.03801 Y5.90974
G01 X20.07862 Y6.06141
G01 X20.10319 Y6.21647
G01 X20.12178 Y6.39321
G01 X20.12998 Y6.55000
G01 X20.12178 Y6.70677
G01 X20.10319 Y6.88350
G01 X20.07862 Y7.03857
G01 X20.03801 Y7.19023
G01 X19.98309 Y7.35924
G01 X19.92681 Y7.50583
G01 X19.85554 Y7.64570
G01 X19.75345 Y7.81997
G01 X23.74623 Y7.81997
G01 X23.83264 Y7.27547
G01 X23.85123 Y7.09877
G01 X23.87999 Y6.55000
G01 X19.12998 Y6.55000
G01 X19.12724 Y6.49773
G01 X19.10050 Y6.26930
G01 X19.03202 Y6.04975
G01 X19.01327 Y6.00090
G01 X18.98952 Y5.95427
G01 X18.87215 Y5.75648
G01 X18.72033 Y5.58376
G01 X18.68333 Y5.54675
G01 X18.64263 Y5.51381
G01 X18.45498 Y5.38086
G01 X18.23347 Y5.27997
G01 X18.45498 Y5.17911
G01 X18.64263 Y5.04617
G01 X18.68333 Y5.01322
G01 X18.72033 Y4.97622
G01 X18.87215 Y4.80350
G01 X18.98952 Y4.60571
G01 X19.01327 Y4.55907
G01 X19.03202 Y4.51023
G01 X19.10050 Y4.29067
G01 X19.10867 Y4.23898
G01 X19.12998 Y4.01000
G01 X19.10867 Y4.23898
G01 X19.10050 Y4.29067
G01 X19.03202 Y4.51023
G01 X19.01327 Y4.55907
G01 X18.98952 Y4.60571
G01 X18.87215 Y4.80350
G01 X18.72033 Y4.97622
G01 X18.68333 Y5.01322
G01 X18.64263 Y5.04617
G01 X18.45498 Y5.17911
G01 X18.23347 Y5.27997
G01 X18.40835 Y5.35709
G01 X18.45498 Y5.38086
G01 X18.49887 Y5.40936
G01 X18.68333 Y5.54675
G01 X18.83923 Y5.71581
G01 X18.87215 Y5.75648
G01 X18.90067 Y5.80037
G01 X19.01327 Y6.00090
G01 X19.08693 Y6.21876
G01 X19.10050 Y6.26930
G01 X19.10867 Y6.32099
G01 X19.12998 Y6.55000
G01 X18.88000 Y6.55000
G01 X18.85594 Y6.77870
G01 X18.78487 Y6.99740
G01 X18.66991 Y7.19656
G01 X18.53453 Y7.34893
G01 X18.49570 Y7.38391
G01 X18.32999 Y7.50263
G01 X18.14434 Y7.58678
G01 X18.09463 Y7.60293
G01 X17.89496 Y7.64395
G01 X17.69115 Y7.64532
G01 X17.63916 Y7.63986
G01 X17.46534 Y7.60293
G01 X17.41564 Y7.58678
G01 X17.22999 Y7.50263
G01 X17.06428 Y7.38391
G01 X17.02544 Y7.34893
G01 X16.89006 Y7.19656
G01 X16.77510 Y6.99740
G01 X16.71079 Y6.80397
G01 X16.69994 Y6.75284
G01 X16.67998 Y6.55000
G01 X16.69994 Y6.34713
G01 X16.71079 Y6.29600
G01 X16.77510 Y6.10258
G01 X16.87581 Y5.92536
G01 X16.90654 Y5.88310
G01 X17.04393 Y5.73253
G01 X17.22999 Y5.59735
G01 X17.44007 Y5.50382
G01 X17.63916 Y5.46011
G01 X17.69115 Y5.45465
G01 X17.89496 Y5.45602
G01 X18.09463 Y5.49704
G01 X18.14434 Y5.51320
G01 X18.32999 Y5.59735
G01 X18.51604 Y5.73253
G01 X18.65343 Y5.88310
G01 X18.68416 Y5.92536
G01 X18.78487 Y6.10258
G01 X18.84919 Y6.29600
G01 X18.86003 Y6.34713
G01 X18.88000 Y6.55000
G01 X19.12998 Y6.55000
G01 X19.10867 Y6.77898
G01 X19.10050 Y6.83067
G01 X19.03202 Y7.05023
G01 X19.01327 Y7.09907
G01 X18.98952 Y7.14571
G01 X18.87215 Y7.34350
G01 X18.72033 Y7.51622
G01 X18.68333 Y7.55322
G01 X18.64263 Y7.58617
G01 X18.45498 Y7.71911
G01 X18.23347 Y7.81997
G01 X19.75345 Y7.81997
G01 X19.85554 Y7.99427
G01 X19.92681 Y8.13415
G01 X19.98309 Y8.28073
G01 X20.03801 Y8.44974
G01 X20.07862 Y8.60141
G01 X20.10319 Y8.75647
G01 X20.12178 Y8.93321
G01 X20.12998 Y9.09000
G01 X20.12178 Y9.24677
G01 X20.10319 Y9.42350
G01 X20.07862 Y9.57857
G01 X20.03801 Y9.73023
G01 X19.98309 Y9.89924
G01 X19.92681 Y10.04583
G01 X19.85554 Y10.18570
G01 X19.75345 Y10.35997
G01 X19.85554 Y10.53427
G01 X19.92681 Y10.67415
G01 X19.98309 Y10.82073
G01 X20.03801 Y10.98974
G01 X20.07862 Y11.14141
G01 X20.10319 Y11.29647
G01 X20.12178 Y11.47321
G01 X20.12998 Y11.63000
G01 X20.12178 Y11.78677
G01 X20.10319 Y11.96350
G01 X20.07862 Y12.11857
G01 X20.03801 Y12.27023
G01 X19.98309 Y12.43924
G01 X19.92681 Y12.58583
G01 X19.85554 Y12.72570
G01 X19.75345 Y12.89997
G01 X19.85554 Y13.07427
G01 X19.92681 Y13.21415
G01 X19.98309 Y13.36073
G01 X20.03801 Y13.52974
G01 X20.07862 Y13.68141
G01 X20.10319 Y13.83647
G01 X20.12178 Y14.01321
G01 X20.12998 Y14.17000
G01 X20.12178 Y14.32677
G01 X20.10319 Y14.50350
G01 X20.07862 Y14.65857
G01 X20.03801 Y14.81023
G01 X19.98309 Y14.97924
G01 X19.92681 Y15.12583
G01 X19.85554 Y15.26570
G01 X19.75345 Y15.43997
G01 X23.74623 Y15.43997
G01 X23.83264 Y14.89547
G01 X23.85123 Y14.71877
G01 X23.87999 Y14.17000
G01 X19.12998 Y14.17000
G01 X19.12724 Y14.11773
G01 X19.10050 Y13.88930
G01 X19.03202 Y13.66975
G01 X19.01327 Y13.62090
G01 X18.98952 Y13.57427
G01 X18.87215 Y13.37648
G01 X18.72033 Y13.20376
G01 X18.68333 Y13.16672
G01 X18.64263 Y13.13378
G01 X18.45498 Y13.00086
G01 X18.23349 Y12.89997
G01 X18.45498 Y12.79909
G01 X18.49887 Y12.77061
G01 X18.68333 Y12.63322
G01 X18.83923 Y12.46416
G01 X18.87215 Y12.42350
G01 X18.98952 Y12.22571
G01 X19.01327 Y12.17907
G01 X19.03202 Y12.13023
G01 X19.08693 Y11.96122
G01 X19.10050 Y11.91067
G01 X19.10867 Y11.85898
G01 X19.12998 Y11.63000
G01 X19.12724 Y11.57773
G01 X19.10050 Y11.34930
G01 X19.03202 Y11.12975
G01 X19.01327 Y11.08090
G01 X18.90067 Y10.88037
G01 X18.87215 Y10.83648
G01 X18.83923 Y10.79581
G01 X18.68333 Y10.62675
G01 X18.49887 Y10.48936
G01 X18.45498 Y10.46086
G01 X18.40835 Y10.43709
G01 X18.23347 Y10.35997
G01 X18.45498 Y10.25911
G01 X18.64263 Y10.12617
G01 X18.68333 Y10.09322
G01 X18.72033 Y10.05622
G01 X18.87215 Y9.88350
G01 X18.98952 Y9.68571
G01 X19.01327 Y9.63907
G01 X19.03202 Y9.59023
G01 X19.10050 Y9.37067
G01 X19.10867 Y9.31898
G01 X19.12998 Y9.09000
G01 X19.10867 Y9.31898
G01 X19.10050 Y9.37067
G01 X19.03202 Y9.59023
G01 X19.01327 Y9.63907
G01 X18.98952 Y9.68571
G01 X18.87215 Y9.88350
G01 X18.72033 Y10.05622
G01 X18.68333 Y10.09322
G01 X18.64263 Y10.12617
G01 X18.45498 Y10.25911
G01 X18.23347 Y10.35997
G01 X18.45498 Y10.46086
G01 X18.64263 Y10.59381
G01 X18.68333 Y10.62675
G01 X18.72033 Y10.66376
G01 X18.87215 Y10.83648
G01 X18.98952 Y11.03427
G01 X19.01327 Y11.08090
G01 X19.03202 Y11.12975
G01 X19.10050 Y11.34930
G01 X19.12724 Y11.57773
G01 X19.12998 Y11.63000
G01 X18.88000 Y11.63000
G01 X18.85594 Y11.40127
G01 X18.78487 Y11.18258
G01 X18.66991 Y10.98342
G01 X18.51604 Y10.81253
G01 X18.35193 Y10.69162
G01 X18.30667 Y10.66549
G01 X18.11990 Y10.58382
G01 X17.92082 Y10.54011
G01 X17.86882 Y10.53465
G01 X17.66501 Y10.53602
G01 X17.44007 Y10.58382
G01 X17.22999 Y10.67735
G01 X17.04393 Y10.81253
G01 X16.98137 Y10.87999
G01 X15.03995 Y10.87999
G01 X14.94213 Y10.88692
G01 X14.82710 Y10.91136
G01 X14.71729 Y10.95352
G01 X14.68234 Y10.97133
G01 X14.58371 Y11.03539
G01 X14.50962 Y11.09965
G01 X9.84933 Y15.75999
G01 X6.07863 Y15.75999
G01 X6.01604 Y15.69253
G01 X5.82999 Y15.55735
G01 X5.61990 Y15.46382
G01 X5.39496 Y15.41602
G01 X5.16501 Y15.41602
G01 X4.94007 Y15.46382
G01 X4.75331 Y15.54549
G01 X4.70804 Y15.57162
G01 X4.56428 Y15.67607
G01 X4.52544 Y15.71104
G01 X4.39006 Y15.86342
G01 X4.27510 Y16.06258
G01 X4.20403 Y16.28127
G01 X4.18135 Y16.48386
G01 X4.18135 Y16.53611
G01 X4.19994 Y16.71284
G01 X4.21079 Y16.76397
G01 X4.27510 Y16.95740
G01 X4.37581 Y17.13461
G01 X4.40654 Y17.17688
G01 X4.54393 Y17.32745
G01 X4.72999 Y17.46263
G01 X4.94007 Y17.55615
G01 X5.16501 Y17.60395
G01 X5.39496 Y17.60395
G01 X5.61990 Y17.55615
G01 X5.82999 Y17.46263
G01 X6.01604 Y17.32745
G01 X6.07863 Y17.25999
G01 X10.15997 Y17.25999
G01 X10.25782 Y17.25305
G01 X10.37285 Y17.22862
G01 X10.48266 Y17.18645
G01 X10.51761 Y17.16865
G01 X10.61623 Y17.10459
G01 X10.69033 Y17.04033
G01 X15.35062 Y12.37999
G01 X16.98135 Y12.37999
G01 X17.04393 Y12.44745
G01 X17.22999 Y12.58263
G01 X17.44007 Y12.67615
G01 X17.66501 Y12.72395
G01 X17.89496 Y12.72395
G01 X18.11990 Y12.67615
G01 X18.30667 Y12.59449
G01 X18.35193 Y12.56835
G01 X18.49570 Y12.46391
G01 X18.53453 Y12.42893
G01 X18.66991 Y12.27656
G01 X18.78487 Y12.07740
G01 X18.85594 Y11.85870
G01 X18.88000 Y11.63000
G01 X23.87999 Y11.63000
G01 X23.85123 Y12.17877
G01 X23.83264 Y12.35547
G01 X23.74623 Y12.89997
G01 X16.77980 Y12.89997
G01 X16.58409 Y12.97374
G01 X16.40637 Y13.05288
G01 X16.25562 Y13.13000
G01 X15.66128 Y13.13000
G01 X15.65341 Y13.11095
G01 X15.66128 Y13.13000
G01 X11.24133 Y17.54995
G01 X11.95603 Y17.25392
G01 X11.95880 Y17.25811
G01 X11.95603 Y17.25392
G01 X13.76995 Y15.43997
G01 X13.90081 Y15.31572
G01 X14.05758 Y15.18199
G01 X14.29220 Y15.00772
G01 X14.55202 Y14.84533
G01 X14.76517 Y14.73322
G01 X15.43817 Y14.06022
G01 X15.53792 Y13.84506
G01 X15.68082 Y13.58135
G01 X15.78072 Y13.41834
G01 X16.02534 Y13.25946
G01 X16.20302 Y13.15687
G01 X16.40637 Y13.05288
G01 X16.25100 Y13.13236
G01 X16.13746 Y13.32426
G01 X16.08993 Y13.41752
G01 X16.05242 Y13.51524
G01 X15.99750 Y13.68425
G01 X15.97040 Y13.78534
G01 X15.95404 Y13.88875
G01 X15.93548 Y14.06545
G01 X15.92999 Y14.17000
G01 X15.93548 Y14.27452
G01 X15.95404 Y14.45123
G01 X15.97040 Y14.55463
G01 X15.99750 Y14.65572
G01 X16.05242 Y14.82474
G01 X16.08993 Y14.92245
G01 X16.13746 Y15.01572
G01 X16.25097 Y15.20759
G01 X16.40622 Y15.28740
G01 X16.20302 Y15.18308
G01 X16.02532 Y15.08049
G01 X15.77236 Y14.91590
G01 X15.59479 Y14.78656
G01 X15.50068 Y14.70998
G01 X15.03998 Y14.70998
G01 X14.84406 Y14.72077
G01 X14.76517 Y14.73322
G01 X14.62316 Y14.80548
G01 X14.91762 Y14.65925
G01 X15.26103 Y14.51419
G01 X15.32313 Y14.33883
G01 X15.43815 Y14.06025
G01 X15.32313 Y14.33883
G01 X15.26103 Y14.51419
G01 X15.50068 Y14.70998
G01 X15.49357 Y14.70421
G01 X15.48135 Y14.65857
G01 X15.45679 Y14.50350
G01 X15.43820 Y14.32677
G01 X15.42999 Y14.17000
G01 X15.43538 Y14.06695
G01 X15.45631 Y14.01501
G01 X15.53792 Y13.84506
G01 X15.68082 Y13.58135
G01 X15.78072 Y13.41834
G01 X15.77442 Y13.41239
G01 X15.78072 Y13.41834
G01 X15.77495 Y13.41280
G01 X15.78072 Y13.41834
G01 X15.83977 Y13.37998
G01 X15.81465 Y13.43800
G01 X15.75973 Y13.60698
G01 X15.72588 Y13.73337
G01 X15.70540 Y13.86261
G01 X15.68684 Y14.03932
G01 X15.67998 Y14.17000
G01 X15.68684 Y14.30066
G01 X15.70540 Y14.47736
G01 X15.72588 Y14.60660
G01 X15.75973 Y14.73299
G01 X15.83573 Y14.95689
G01 X16.02516 Y15.08077
G01 X15.84048 Y14.95999
G01 X15.03998 Y14.95999
G01 X14.94188 Y14.96385
G01 X14.86367 Y14.97000
G01 X14.66995 Y15.00068
G01 X14.59365 Y15.01899
G01 X14.40708 Y15.07960
G01 X14.33462 Y15.10965
G01 X14.15984 Y15.19867
G01 X14.09294 Y15.23967
G01 X13.93426 Y15.35499
G01 X13.80251 Y15.47256
G01 X11.97511 Y17.29999
G01 X11.98288 Y17.31884
G01 X11.97511 Y17.29999
G01 X11.84493 Y17.29994
G01 X15.76484 Y13.37998
G01 X15.75697 Y13.36096
G01 X15.76484 Y13.37998
G01 X15.83977 Y13.37998
G01 X16.02534 Y13.25946
G01 X16.20302 Y13.15687
G01 X16.40622 Y13.05258
G01 X16.58409 Y12.97374
G01 X16.77980 Y12.89997
G01 X16.77886 Y12.89528
G01 X16.77980 Y12.89997
G01 X16.77906 Y12.89588
G01 X16.77980 Y12.89997
G01 X16.81386 Y12.89997
G01 X16.70939 Y12.98095
G01 X16.65387 Y13.03647
G01 X16.53497 Y13.16850
G01 X16.48557 Y13.22954
G01 X16.44279 Y13.29538
G01 X16.35394 Y13.44925
G01 X16.31831 Y13.51920
G01 X16.29019 Y13.59251
G01 X16.23527 Y13.76149
G01 X16.21495 Y13.83734
G01 X16.20266 Y13.91486
G01 X16.18409 Y14.09159
G01 X16.17998 Y14.17000
G01 X16.18409 Y14.24838
G01 X16.20266 Y14.42512
G01 X16.21495 Y14.50264
G01 X16.23527 Y14.57848
G01 X16.29019 Y14.74747
G01 X16.31831 Y14.82077
G01 X16.35394 Y14.89072
G01 X16.44279 Y15.04460
G01 X16.48557 Y15.11043
G01 X16.53497 Y15.17145
G01 X16.65387 Y15.30350
G01 X16.70939 Y15.35902
G01 X16.81383 Y15.43997
G01 X16.78630 Y15.45999
G01 X16.79026 Y15.47218
G01 X16.78630 Y15.45999
G01 X14.98112 Y15.46230
G01 X14.90289 Y15.46845
G01 X14.78666 Y15.48686
G01 X14.71036 Y15.50518
G01 X14.59845 Y15.54155
G01 X14.52596 Y15.57157
G01 X14.42108 Y15.62501
G01 X14.35420 Y15.66601
G01 X14.25898 Y15.73517
G01 X14.15608 Y15.82611
G01 X12.18222 Y17.79999
G01 X12.19002 Y17.81889
G01 X12.18222 Y17.79999
G01 X6.76250 Y17.79999
G01 X6.74741 Y17.82869
G01 X6.76250 Y17.79999
G01 X6.73768 Y17.76390
G01 X6.49935 Y17.66230
G01 X6.72846 Y17.75998
G01 X10.15997 Y17.75998
G01 X10.29706 Y17.75153
G01 X10.41329 Y17.73311
G01 X10.48959 Y17.71480
G01 X10.60150 Y17.67843
G01 X10.67399 Y17.64840
G01 X10.77887 Y17.59496
G01 X10.84575 Y17.55397
G01 X10.94097 Y17.48480
G01 X11.04387 Y17.39387
G01 X15.55773 Y12.87998
G01 X15.54985 Y12.86096
G01 X15.55773 Y12.87998
G01 X16.78630 Y12.87998
G01 X16.79029 Y12.86774
G01 X16.78630 Y12.87998
G01 X16.81386 Y12.89997
G01 X17.32656 Y12.89997
G01 X17.10499 Y13.00086
G01 X16.91734 Y13.13378
G01 X16.87665 Y13.16672
G01 X16.83964 Y13.20376
G01 X16.68783 Y13.37648
G01 X16.57045 Y13.57427
G01 X16.54670 Y13.62090
G01 X16.52796 Y13.66975
G01 X16.45948 Y13.88930
G01 X16.43273 Y14.11773
G01 X16.42999 Y14.17000
G01 X16.45130 Y14.39898
G01 X16.45948 Y14.45067
G01 X16.52796 Y14.67023
G01 X16.54670 Y14.71907
G01 X16.57045 Y14.76571
G01 X16.68783 Y14.96350
G01 X16.83964 Y15.13622
G01 X16.87665 Y15.17322
G01 X16.91734 Y15.20617
G01 X17.10499 Y15.33911
G01 X17.32656 Y15.43997
G01 X17.10499 Y15.54086
G01 X16.91734 Y15.67381
G01 X16.87342 Y15.70998
G01 X16.87744 Y15.72230
G01 X16.87342 Y15.70998
G01 X15.00073 Y15.71153
G01 X14.92253 Y15.71767
G01 X14.84503 Y15.72997
G01 X14.76873 Y15.74828
G01 X14.69410 Y15.77251
G01 X14.62161 Y15.80253
G01 X14.55171 Y15.83817
G01 X14.48481 Y15.87917
G01 X14.42133 Y15.92527
G01 X14.33284 Y16.00289
G01 X12.28578 Y18.04998
G01 X12.29365 Y18.06903
G01 X12.28578 Y18.04998
G01 X6.60446 Y18.04998
G01 X6.57913 Y18.08950
G01 X6.60446 Y18.04998
G01 X6.59193 Y18.00865
G01 X6.54573 Y17.92221
G01 X6.48353 Y17.84645
G01 X6.40779 Y17.78424
G01 X6.32132 Y17.73804
G01 X6.22752 Y17.70959
G01 X6.12999 Y17.69999
G01 X5.90771 Y17.70149
G01 X5.95498 Y17.67911
G01 X5.99887 Y17.65061
G01 X6.14263 Y17.54617
G01 X6.18655 Y17.51000
G01 X6.18307 Y17.49875
G01 X6.18655 Y17.51000
G01 X10.15997 Y17.51000
G01 X10.27742 Y17.50230
G01 X10.35492 Y17.49001
G01 X10.43122 Y17.47169
G01 X10.50585 Y17.44746
G01 X10.57834 Y17.41744
G01 X10.64824 Y17.38180
G01 X10.71514 Y17.34081
G01 X10.77862 Y17.29471
G01 X10.86709 Y17.21709
G01 X15.45417 Y12.63000
G01 X15.44630 Y12.61095
G01 X15.45417 Y12.63000
G01 X16.87342 Y12.63000
G01 X16.87744 Y12.61765
G01 X16.87342 Y12.63000
G01 X16.91734 Y12.66617
G01 X17.10499 Y12.79909
G01 X17.32656 Y12.89997
G01 X18.23349 Y12.89997
G01 X18.45498 Y12.79909
G01 X18.64263 Y12.66617
G01 X18.68333 Y12.63322
G01 X18.72033 Y12.59622
G01 X18.87215 Y12.42350
G01 X18.98952 Y12.22571
G01 X19.01327 Y12.17907
G01 X19.03202 Y12.13023
G01 X19.10050 Y11.91067
G01 X19.10867 Y11.85898
G01 X19.12998 Y11.63000
G01 X19.10867 Y11.85898
G01 X19.10050 Y11.91067
G01 X19.03202 Y12.13023
G01 X19.01327 Y12.17907
G01 X18.98952 Y12.22571
G01 X18.87215 Y12.42350
G01 X18.72033 Y12.59622
G01 X18.68333 Y12.63322
G01 X18.64263 Y12.66617
G01 X18.45498 Y12.79909
G01 X18.23349 Y12.89997
G01 X18.40835 Y12.97706
G01 X18.45498 Y13.00086
G01 X18.49887 Y13.02934
G01 X18.68333 Y13.16672
G01 X18.83923 Y13.33581
G01 X18.87215 Y13.37648
G01 X18.90067 Y13.42037
G01 X19.01327 Y13.62090
G01 X19.08693 Y13.83876
G01 X19.10050 Y13.88930
G01 X19.10867 Y13.94099
G01 X19.12998 Y14.17000
G01 X18.88000 Y14.17000
G01 X18.85594 Y14.39870
G01 X18.78487 Y14.61740
G01 X18.66991 Y14.81656
G01 X18.53453 Y14.96893
G01 X18.49570 Y15.00391
G01 X18.32999 Y15.12263
G01 X18.14434 Y15.20678
G01 X18.09463 Y15.22293
G01 X17.89496 Y15.26395
G01 X17.69115 Y15.26532
G01 X17.63916 Y15.25986
G01 X17.46534 Y15.22293
G01 X17.41564 Y15.20678
G01 X17.22999 Y15.12263
G01 X17.06428 Y15.00391
G01 X17.02544 Y14.96893
G01 X16.89006 Y14.81656
G01 X16.77510 Y14.61740
G01 X16.71079 Y14.42397
G01 X16.69994 Y14.37284
G01 X16.67998 Y14.17000
G01 X16.69994 Y13.96713
G01 X16.71079 Y13.91600
G01 X16.77510 Y13.72258
G01 X16.87581 Y13.54536
G01 X16.90654 Y13.50310
G01 X17.04393 Y13.35253
G01 X17.22999 Y13.21735
G01 X17.44007 Y13.12382
G01 X17.63916 Y13.08011
G01 X17.69115 Y13.07465
G01 X17.89496 Y13.07602
G01 X18.09463 Y13.11702
G01 X18.14434 Y13.13320
G01 X18.32999 Y13.21735
G01 X18.51604 Y13.35253
G01 X18.65343 Y13.50310
G01 X18.68416 Y13.54536
G01 X18.78487 Y13.72258
G01 X18.84919 Y13.91600
G01 X18.86003 Y13.96713
G01 X18.88000 Y14.17000
G01 X19.12998 Y14.17000
G01 X19.10867 Y14.39898
G01 X19.10050 Y14.45067
G01 X19.03202 Y14.67023
G01 X19.01327 Y14.71907
G01 X18.98952 Y14.76571
G01 X18.87215 Y14.96350
G01 X18.72033 Y15.13622
G01 X18.68333 Y15.17322
G01 X18.64263 Y15.20617
G01 X18.45498 Y15.33911
G01 X18.23347 Y15.43997
G01 X19.75345 Y15.43997
G01 X19.85554 Y15.61427
G01 X19.92681 Y15.75415
G01 X19.98309 Y15.90073
G01 X20.03801 Y16.06974
G01 X20.07862 Y16.22141
G01 X20.10319 Y16.37647
G01 X20.12178 Y16.55321
G01 X20.12998 Y16.71000
G01 X20.12178 Y16.86677
G01 X20.10319 Y17.04350
G01 X20.07862 Y17.19857
G01 X20.03801 Y17.35023
G01 X19.98309 Y17.51924
G01 X19.92681 Y17.66583
G01 X19.85554 Y17.80570
G01 X19.75345 Y17.97997
G01 X19.85554 Y18.15427
G01 X19.92681 Y18.29415
G01 X19.98309 Y18.44073
G01 X20.03801 Y18.60974
G01 X20.07862 Y18.76141
G01 X20.10319 Y18.91647
G01 X20.12178 Y19.09321
G01 X20.12998 Y19.25000
G01 X20.12178 Y19.40677
G01 X20.10319 Y19.58350
G01 X20.07862 Y19.73857
G01 X20.03801 Y19.89023
G01 X19.98309 Y20.05924
G01 X19.92681 Y20.20583
G01 X19.85554 Y20.34570
G01 X19.75345 Y20.51997
G01 X19.85554 Y20.69427
G01 X19.92681 Y20.83415
G01 X19.98309 Y20.98073
G01 X20.03801 Y21.14974
G01 X20.07862 Y21.30141
G01 X20.10319 Y21.45647
G01 X20.12178 Y21.63321
G01 X20.12998 Y21.79000
G01 X20.12178 Y21.94677
G01 X20.10319 Y22.12350
G01 X20.07862 Y22.27857
G01 X20.03801 Y22.43023
G01 X19.98309 Y22.59924
G01 X19.92681 Y22.74583
G01 X19.85554 Y22.88570
G01 X19.75345 Y23.05997
G01 X19.85554 Y23.23427
G01 X19.92681 Y23.37415
G01 X19.98309 Y23.52073
G01 X20.03801 Y23.68974
G01 X20.07862 Y23.84141
G01 X20.10319 Y23.99647
G01 X20.12178 Y24.17321
G01 X20.12998 Y24.33000
G01 X20.12178 Y24.48677
G01 X20.10319 Y24.66350
G01 X20.07862 Y24.81857
G01 X20.03801 Y24.97023
G01 X19.98309 Y25.13924
G01 X19.92681 Y25.28583
G01 X19.85554 Y25.42570
G01 X19.75345 Y25.59997
G01 X19.85554 Y25.77427
G01 X19.92681 Y25.91415
G01 X19.98309 Y26.06073
G01 X20.03801 Y26.22974
G01 X20.07862 Y26.38141
G01 X20.10319 Y26.53647
G01 X20.12178 Y26.71321
G01 X20.12998 Y26.87000
G01 X20.12178 Y27.02677
G01 X20.10319 Y27.20350
G01 X20.07862 Y27.35857
G01 X20.03801 Y27.51023
G01 X19.98309 Y27.67924
G01 X19.92681 Y27.82583
G01 X19.85554 Y27.96570
G01 X19.75345 Y28.13997
G01 X23.74623 Y28.13997
G01 X23.83264 Y27.59547
G01 X23.85123 Y27.41877
G01 X23.87999 Y26.87000
G01 X19.12998 Y26.87000
G01 X19.10867 Y26.64099
G01 X19.10050 Y26.58930
G01 X19.08693 Y26.53873
G01 X19.01327 Y26.32090
G01 X18.98952 Y26.27424
G01 X18.87215 Y26.07645
G01 X18.72033 Y25.90376
G01 X18.68333 Y25.86675
G01 X18.64263 Y25.83381
G01 X18.45498 Y25.70086
G01 X18.23347 Y25.59997
G01 X18.40835 Y25.67709
G01 X18.45498 Y25.70086
G01 X18.49887 Y25.72936
G01 X18.68333 Y25.86675
G01 X18.83923 Y26.03581
G01 X18.87215 Y26.07645
G01 X18.90067 Y26.12037
G01 X19.01327 Y26.32090
G01 X19.08693 Y26.53873
G01 X19.10050 Y26.58930
G01 X19.10867 Y26.64099
G01 X19.12998 Y26.87000
G01 X18.88000 Y26.87000
G01 X18.85594 Y27.09870
G01 X18.78487 Y27.31740
G01 X18.66991 Y27.51656
G01 X18.51604 Y27.68745
G01 X18.32999 Y27.82263
G01 X18.14434 Y27.90678
G01 X18.09463 Y27.92293
G01 X17.89496 Y27.96395
G01 X17.69115 Y27.96532
G01 X17.63916 Y27.95986
G01 X17.44007 Y27.91615
G01 X17.22999 Y27.82263
G01 X17.06428 Y27.70391
G01 X17.02544 Y27.66893
G01 X16.89006 Y27.51656
G01 X16.78696 Y27.34071
G01 X16.76570 Y27.29296
G01 X16.70403 Y27.09870
G01 X16.67998 Y26.87000
G01 X16.69994 Y26.66713
G01 X16.71079 Y26.61600
G01 X16.77510 Y26.42258
G01 X16.87581 Y26.24536
G01 X16.90654 Y26.20307
G01 X17.04393 Y26.05253
G01 X17.20804 Y25.93160
G01 X17.25331 Y25.90549
G01 X17.44007 Y25.82382
G01 X17.63916 Y25.78009
G01 X17.69115 Y25.77465
G01 X17.89496 Y25.77602
G01 X18.09463 Y25.81704
G01 X18.14434 Y25.83320
G01 X18.32999 Y25.91732
G01 X18.49570 Y26.03607
G01 X18.53453 Y26.07104
G01 X18.66991 Y26.22342
G01 X18.78487 Y26.42258
G01 X18.84919 Y26.61600
G01 X18.86003 Y26.66713
G01 X18.88000 Y26.87000
G01 X19.12998 Y26.87000
G01 X19.10867 Y27.09898
G01 X19.10050 Y27.15067
G01 X19.03202 Y27.37023
G01 X19.01327 Y27.41907
G01 X18.98952 Y27.46571
G01 X18.87215 Y27.66350
G01 X18.72033 Y27.83622
G01 X18.68333 Y27.87322
G01 X18.64263 Y27.90617
G01 X18.45498 Y28.03911
G01 X18.23347 Y28.13997
G01 X19.75345 Y28.13997
G01 X19.85554 Y28.31427
G01 X19.92681 Y28.45415
G01 X19.98309 Y28.60073
G01 X20.03801 Y28.76974
G01 X20.07862 Y28.92141
G01 X20.10319 Y29.07647
G01 X20.12178 Y29.25321
G01 X20.12998 Y29.41000
G01 X20.12178 Y29.56677
G01 X20.10319 Y29.74350
G01 X20.07862 Y29.89857
G01 X20.03801 Y30.05023
G01 X19.98309 Y30.21924
G01 X19.92681 Y30.36583
G01 X19.85554 Y30.50570
G01 X19.75345 Y30.67997
G01 X19.85554 Y30.85427
G01 X19.92681 Y30.99415
G01 X19.98309 Y31.14073
G01 X20.03801 Y31.30974
G01 X20.07862 Y31.46141
G01 X20.10319 Y31.61647
G01 X20.12178 Y31.79321
G01 X20.12998 Y31.95000
G01 X20.12178 Y32.10677
G01 X20.10319 Y32.28350
G01 X20.07862 Y32.43857
G01 X20.03801 Y32.59023
G01 X19.98309 Y32.75924
G01 X19.92681 Y32.90583
G01 X19.85554 Y33.04570
G01 X19.75345 Y33.21997
G01 X23.74623 Y33.21997
G01 X23.83264 Y32.67547
G01 X23.85123 Y32.49877
G01 X23.87999 Y31.95000
G01 X19.12998 Y31.95000
G01 X19.12724 Y31.89773
G01 X19.10050 Y31.66930
G01 X19.03202 Y31.44975
G01 X19.01327 Y31.40090
G01 X18.98952 Y31.35427
G01 X18.87215 Y31.15648
G01 X18.72033 Y30.98376
G01 X18.68333 Y30.94675
G01 X18.64263 Y30.91381
G01 X18.45498 Y30.78086
G01 X18.23347 Y30.67997
G01 X18.45498 Y30.57911
G01 X18.64263 Y30.44617
G01 X18.68333 Y30.41322
G01 X18.72033 Y30.37622
G01 X18.87215 Y30.20350
G01 X18.98952 Y30.00571
G01 X19.01327 Y29.95907
G01 X19.03202 Y29.91023
G01 X19.10050 Y29.69067
G01 X19.10867 Y29.63898
G01 X19.12998 Y29.41000
G01 X19.10867 Y29.63898
G01 X19.10050 Y29.69067
G01 X19.03202 Y29.91023
G01 X19.01327 Y29.95907
G01 X18.98952 Y30.00571
G01 X18.87215 Y30.20350
G01 X18.72033 Y30.37622
G01 X18.68333 Y30.41322
G01 X18.64263 Y30.44617
G01 X18.45498 Y30.57911
G01 X18.23347 Y30.67997
G01 X18.40835 Y30.75709
G01 X18.45498 Y30.78086
G01 X18.49887 Y30.80936
G01 X18.68333 Y30.94675
G01 X18.83923 Y31.11581
G01 X18.87215 Y31.15648
G01 X18.90067 Y31.20037
G01 X19.01327 Y31.40090
G01 X19.03202 Y31.44975
G01 X19.10050 Y31.66930
G01 X19.12724 Y31.89773
G01 X19.12998 Y31.95000
G01 X18.88000 Y31.95000
G01 X18.85594 Y32.17870
G01 X18.79427 Y32.37296
G01 X18.77301 Y32.42071
G01 X18.68416 Y32.57461
G01 X18.65343 Y32.61688
G01 X18.51604 Y32.76745
G01 X18.35193 Y32.88835
G01 X18.30667 Y32.91449
G01 X18.11990 Y32.99615
G01 X17.92082 Y33.03986
G01 X17.86882 Y33.04532
G01 X17.66501 Y33.04395
G01 X17.46534 Y33.00293
G01 X17.41564 Y32.98678
G01 X17.22999 Y32.90263
G01 X17.06428 Y32.78391
G01 X17.02544 Y32.74893
G01 X16.89006 Y32.59656
G01 X16.78696 Y32.42071
G01 X16.76570 Y32.37296
G01 X16.70403 Y32.17870
G01 X16.67998 Y31.95000
G01 X16.69994 Y31.74713
G01 X16.71079 Y31.69600
G01 X16.77510 Y31.50258
G01 X16.87581 Y31.32536
G01 X16.90654 Y31.28310
G01 X17.04393 Y31.13253
G01 X17.20804 Y31.01162
G01 X17.25331 Y30.98549
G01 X17.44007 Y30.90382
G01 X17.63916 Y30.86011
G01 X17.69115 Y30.85465
G01 X17.89496 Y30.85602
G01 X18.09463 Y30.89704
G01 X18.14434 Y30.91320
G01 X18.32999 Y30.99735
G01 X18.49570 Y31.11607
G01 X18.53453 Y31.15104
G01 X18.66991 Y31.30342
G01 X18.78487 Y31.50258
G01 X18.84919 Y31.69600
G01 X18.86003 Y31.74713
G01 X18.88000 Y31.95000
G01 X19.12998 Y31.95000
G01 X19.10867 Y32.17898
G01 X19.10050 Y32.23067
G01 X19.03202 Y32.45023
G01 X19.01327 Y32.49907
G01 X18.98952 Y32.54571
G01 X18.87215 Y32.74350
G01 X18.72033 Y32.91622
G01 X18.68333 Y32.95322
G01 X18.64263 Y32.98617
G01 X18.45498 Y33.11911
G01 X18.23347 Y33.21997
G01 X19.75345 Y33.21997
G01 X19.85554 Y33.39427
G01 X19.92681 Y33.53415
G01 X19.98309 Y33.68073
G01 X20.03801 Y33.84974
G01 X20.07862 Y34.00141
G01 X20.10319 Y34.15647
G01 X20.12178 Y34.33321
G01 X20.12998 Y34.49000
G01 X20.12178 Y34.64677
G01 X20.10319 Y34.82350
G01 X20.07862 Y34.97857
G01 X20.03801 Y35.13023
G01 X19.98309 Y35.29924
G01 X19.92681 Y35.44583
G01 X19.85554 Y35.58570
G01 X19.75345 Y35.75997
G01 X19.85554 Y35.93427
G01 X19.92681 Y36.07415
G01 X19.98309 Y36.22073
G01 X20.03801 Y36.38974
G01 X20.07862 Y36.54141
G01 X20.10319 Y36.69647
G01 X20.12178 Y36.87321
G01 X20.12998 Y37.03000
G01 X20.12178 Y37.18677
G01 X20.10319 Y37.36350
G01 X20.07862 Y37.51857
G01 X20.03801 Y37.67023
G01 X19.98309 Y37.83924
G01 X19.92681 Y37.98583
G01 X19.85554 Y38.12570
G01 X19.75345 Y38.29997
G01 X23.74623 Y38.29997
G01 X23.83264 Y37.75547
G01 X23.85123 Y37.57877
G01 X23.87999 Y37.03000
G01 X19.12998 Y37.03000
G01 X19.12724 Y36.97773
G01 X19.10050 Y36.74930
G01 X19.03202 Y36.52975
G01 X19.01327 Y36.48090
G01 X18.98952 Y36.43427
G01 X18.87215 Y36.23648
G01 X18.72033 Y36.06376
G01 X18.68333 Y36.02675
G01 X18.64263 Y35.99381
G01 X18.45498 Y35.86086
G01 X18.23347 Y35.75997
G01 X18.45498 Y35.65911
G01 X18.64263 Y35.52617
G01 X18.68333 Y35.49322
G01 X18.72033 Y35.45622
G01 X18.87215 Y35.28350
G01 X18.98952 Y35.08571
G01 X19.01327 Y35.03907
G01 X19.03202 Y34.99023
G01 X19.10050 Y34.77067
G01 X19.10867 Y34.71898
G01 X19.12998 Y34.49000
G01 X19.10867 Y34.71898
G01 X19.10050 Y34.77067
G01 X19.03202 Y34.99023
G01 X19.01327 Y35.03907
G01 X18.98952 Y35.08571
G01 X18.87215 Y35.28350
G01 X18.72033 Y35.45622
G01 X18.68333 Y35.49322
G01 X18.64263 Y35.52617
G01 X18.45498 Y35.65911
G01 X18.23347 Y35.75997
G01 X18.40835 Y35.83709
G01 X18.45498 Y35.86086
G01 X18.49887 Y35.88936
G01 X18.68333 Y36.02675
G01 X18.83923 Y36.19581
G01 X18.87215 Y36.23648
G01 X18.90067 Y36.28037
G01 X19.01327 Y36.48090
G01 X19.03202 Y36.52975
G01 X19.10050 Y36.74930
G01 X19.12724 Y36.97773
G01 X19.12998 Y37.03000
G01 X18.88000 Y37.03000
G01 X18.85594 Y37.25870
G01 X18.79427 Y37.45296
G01 X18.77301 Y37.50071
G01 X18.68416 Y37.65461
G01 X18.65343 Y37.69688
G01 X18.51604 Y37.84745
G01 X18.35193 Y37.96835
G01 X18.30667 Y37.99449
G01 X18.11990 Y38.07615
G01 X17.92082 Y38.11986
G01 X17.86882 Y38.12532
G01 X17.66501 Y38.12395
G01 X17.46534 Y38.08293
G01 X17.41564 Y38.06678
G01 X17.22999 Y37.98263
G01 X17.06428 Y37.86391
G01 X17.02544 Y37.82893
G01 X16.89006 Y37.67656
G01 X16.78696 Y37.50071
G01 X16.76570 Y37.45296
G01 X16.71079 Y37.28397
G01 X16.69994 Y37.23284
G01 X16.68135 Y37.05611
G01 X16.68135 Y37.00386
G01 X16.70403 Y36.80127
G01 X16.76570 Y36.60701
G01 X16.78696 Y36.55926
G01 X16.89006 Y36.38342
G01 X17.04393 Y36.21253
G01 X17.20804 Y36.09162
G01 X17.25331 Y36.06549
G01 X17.44007 Y35.98382
G01 X17.63916 Y35.94011
G01 X17.69115 Y35.93465
G01 X17.89496 Y35.93602
G01 X18.09463 Y35.97704
G01 X18.14434 Y35.99320
G01 X18.32999 Y36.07735
G01 X18.49570 Y36.19607
G01 X18.53453 Y36.23104
G01 X18.66991 Y36.38342
G01 X18.78487 Y36.58258
G01 X18.84919 Y36.77600
G01 X18.86003 Y36.82713
G01 X18.88000 Y37.03000
G01 X19.12998 Y37.03000
G01 X19.10867 Y37.25898
G01 X19.10050 Y37.31067
G01 X19.03202 Y37.53023
G01 X19.01327 Y37.57907
G01 X18.98952 Y37.62571
G01 X18.87215 Y37.82350
G01 X18.72033 Y37.99622
G01 X18.68333 Y38.03322
G01 X18.64263 Y38.06617
G01 X18.45498 Y38.19911
G01 X18.23347 Y38.29997
G01 X19.75345 Y38.29997
G01 X19.85554 Y38.47427
G01 X19.92681 Y38.61415
G01 X19.98309 Y38.76073
G01 X20.03801 Y38.92974
G01 X20.07862 Y39.08141
G01 X20.10319 Y39.23647
G01 X20.12178 Y39.41321
G01 X20.12998 Y39.57000
G01 X20.12178 Y39.72677
G01 X20.10319 Y39.90350
G01 X20.07862 Y40.05857
G01 X20.03801 Y40.21023
G01 X19.98309 Y40.37924
G01 X19.92681 Y40.52583
G01 X19.85554 Y40.66570
G01 X19.75345 Y40.83997
G01 X19.85554 Y41.01427
G01 X19.92681 Y41.15415
G01 X19.98309 Y41.30073
G01 X20.03801 Y41.46974
G01 X20.07862 Y41.62141
G01 X20.10319 Y41.77647
G01 X20.12178 Y41.95321
G01 X20.12998 Y42.11000
G01 X20.12178 Y42.26677
G01 X20.10319 Y42.44350
G01 X20.07862 Y42.59857
G01 X20.03801 Y42.75023
G01 X19.98309 Y42.91924
G01 X19.92681 Y43.06583
G01 X19.85554 Y43.20570
G01 X19.75345 Y43.37997
G01 X23.74623 Y43.37997
G01 X23.83264 Y42.83547
G01 X23.85123 Y42.65877
G01 X23.87999 Y42.11000
G01 X19.12998 Y42.11000
G01 X19.10867 Y42.33898
G01 X19.10050 Y42.39067
G01 X19.03202 Y42.61023
G01 X19.01327 Y42.65907
G01 X18.98952 Y42.70571
G01 X18.87215 Y42.90350
G01 X18.72033 Y43.07622
G01 X18.68333 Y43.11322
G01 X18.64263 Y43.14617
G01 X18.45498 Y43.27911
G01 X18.23347 Y43.37997
G01 X19.75345 Y43.37997
G01 X19.76669 Y43.40037
G01 X19.85554 Y43.55427
G01 X19.92681 Y43.69415
G01 X19.98309 Y43.84073
G01 X20.03801 Y44.00974
G01 X20.07862 Y44.16141
G01 X20.10319 Y44.31647
G01 X20.12178 Y44.49321
G01 X20.12998 Y44.65000
G01 X20.12178 Y44.80677
G01 X20.10319 Y44.98350
G01 X20.07862 Y45.13857
G01 X20.03801 Y45.29023
G01 X19.98309 Y45.45924
G01 X19.92681 Y45.60583
G01 X19.85554 Y45.74570
G01 X19.75345 Y45.91997
G01 X23.74623 Y45.91997
G01 X23.83264 Y45.37547
G01 X23.85123 Y45.19877
G01 X23.87999 Y44.65000
G01 X19.12998 Y44.65000
G01 X19.12724 Y44.59773
G01 X19.10050 Y44.36930
G01 X19.03202 Y44.14975
G01 X19.01327 Y44.10090
G01 X18.98952 Y44.05427
G01 X18.87215 Y43.85648
G01 X18.72033 Y43.68376
G01 X18.68333 Y43.64675
G01 X18.64263 Y43.61381
G01 X18.45498 Y43.48086
G01 X18.23347 Y43.37997
G01 X18.45498 Y43.27911
G01 X18.64263 Y43.14617
G01 X18.68333 Y43.11322
G01 X18.72033 Y43.07622
G01 X18.87215 Y42.90350
G01 X18.98952 Y42.70571
G01 X19.01327 Y42.65907
G01 X19.03202 Y42.61023
G01 X19.10050 Y42.39067
G01 X19.10867 Y42.33898
G01 X19.12998 Y42.11000
G01 X18.88000 Y42.11000
G01 X18.85594 Y42.33870
G01 X18.78487 Y42.55740
G01 X18.66991 Y42.75656
G01 X18.51604 Y42.92745
G01 X18.35193 Y43.04835
G01 X18.30667 Y43.07449
G01 X18.11990 Y43.15615
G01 X17.92082 Y43.19986
G01 X17.86882 Y43.20532
G01 X17.69115 Y43.20532
G01 X17.63916 Y43.19986
G01 X17.44007 Y43.15615
G01 X17.22999 Y43.06263
G01 X17.04393 Y42.92745
G01 X16.90654 Y42.77688
G01 X16.87581 Y42.73461
G01 X16.77510 Y42.55740
G01 X16.70403 Y42.33870
G01 X16.67998 Y42.11000
G01 X16.70403 Y41.88127
G01 X16.76570 Y41.68701
G01 X16.78696 Y41.63926
G01 X16.89006 Y41.46342
G01 X17.02544 Y41.31104
G01 X17.06428 Y41.27607
G01 X17.22999 Y41.15735
G01 X17.41564 Y41.07320
G01 X17.46534 Y41.05704
G01 X17.63916 Y41.02011
G01 X17.69115 Y41.01465
G01 X17.89496 Y41.01602
G01 X18.11990 Y41.06382
G01 X18.32999 Y41.15735
G01 X18.49570 Y41.27607
G01 X18.53453 Y41.31104
G01 X18.66991 Y41.46342
G01 X18.78487 Y41.66258
G01 X18.85594 Y41.88127
G01 X18.88000 Y42.11000
G01 X19.12998 Y42.11000
G01 X19.12724 Y42.05773
G01 X19.10050 Y41.82930
G01 X19.03202 Y41.60975
G01 X19.01327 Y41.56090
G01 X18.98952 Y41.51427
G01 X18.87215 Y41.31648
G01 X18.72033 Y41.14376
G01 X18.68333 Y41.10675
G01 X18.64263 Y41.07381
G01 X18.45498 Y40.94086
G01 X18.23347 Y40.83997
G01 X18.45498 Y40.73911
G01 X18.64263 Y40.60617
G01 X18.68333 Y40.57322
G01 X18.72033 Y40.53622
G01 X18.87215 Y40.36350
G01 X18.98952 Y40.16571
G01 X19.01327 Y40.11907
G01 X19.03202 Y40.07023
G01 X19.10050 Y39.85067
G01 X19.10867 Y39.79898
G01 X19.12998 Y39.57000
G01 X19.10867 Y39.79898
G01 X19.10050 Y39.85067
G01 X19.03202 Y40.07023
G01 X19.01327 Y40.11907
G01 X18.98952 Y40.16571
G01 X18.87215 Y40.36350
G01 X18.72033 Y40.53622
G01 X18.68333 Y40.57322
G01 X18.64263 Y40.60617
G01 X18.45498 Y40.73911
G01 X18.23347 Y40.83997
G01 X17.32656 Y40.83997
G01 X17.10499 Y40.73911
G01 X17.06110 Y40.71061
G01 X16.87665 Y40.57322
G01 X16.72074 Y40.40416
G01 X16.68783 Y40.36350
G01 X16.65930 Y40.31960
G01 X16.54670 Y40.11907
G01 X16.47304 Y39.90122
G01 X16.45948 Y39.85067
G01 X16.45130 Y39.79898
G01 X16.42999 Y39.57000
G01 X16.43273 Y39.51773
G01 X16.45948 Y39.28930
G01 X16.52796 Y39.06975
G01 X16.54670 Y39.02090
G01 X16.65930 Y38.82037
G01 X16.68783 Y38.77648
G01 X16.72074 Y38.73581
G01 X16.83964 Y38.60376
G01 X16.87665 Y38.56675
G01 X16.91734 Y38.53381
G01 X17.10499 Y38.40086
G01 X17.32656 Y38.29997
G01 X17.15163 Y38.22289
G01 X17.10499 Y38.19911
G01 X17.06110 Y38.17061
G01 X16.87665 Y38.03322
G01 X16.72074 Y37.86416
G01 X16.68783 Y37.82350
G01 X16.65930 Y37.77960
G01 X16.54670 Y37.57907
G01 X16.52796 Y37.53023
G01 X16.45948 Y37.31067
G01 X16.45130 Y37.25898
G01 X16.42999 Y37.03000
G01 X16.45130 Y36.80099
G01 X16.45948 Y36.74930
G01 X16.47304 Y36.69876
G01 X16.52796 Y36.52975
G01 X16.54670 Y36.48090
G01 X16.57045 Y36.43427
G01 X16.68783 Y36.23648
G01 X16.72074 Y36.19581
G01 X16.87665 Y36.02675
G01 X17.06110 Y35.88936
G01 X17.10499 Y35.86086
G01 X17.32656 Y35.75997
G01 X17.10499 Y35.65911
G01 X16.91734 Y35.52617
G01 X16.87665 Y35.49322
G01 X16.83964 Y35.45622
G01 X16.72074 Y35.32416
G01 X16.68783 Y35.28350
G01 X16.65930 Y35.23960
G01 X16.54670 Y35.03907
G01 X16.52796 Y34.99023
G01 X16.45948 Y34.77067
G01 X16.45130 Y34.71898
G01 X16.42999 Y34.49000
G01 X16.45130 Y34.26099
G01 X16.45948 Y34.20930
G01 X16.47304 Y34.15876
G01 X16.54670 Y33.94090
G01 X16.65930 Y33.74037
G01 X16.68783 Y33.69648
G01 X16.72074 Y33.65581
G01 X16.87665 Y33.48675
G01 X17.06110 Y33.34936
G01 X17.10499 Y33.32086
G01 X17.15163 Y33.29709
G01 X17.32656 Y33.21997
G01 X17.10499 Y33.11911
G01 X16.91734 Y32.98617
G01 X16.87665 Y32.95322
G01 X16.83964 Y32.91622
G01 X16.68783 Y32.74350
G01 X16.65930 Y32.69960
G01 X16.54670 Y32.49907
G01 X16.47304 Y32.28122
G01 X16.45948 Y32.23067
G01 X16.45130 Y32.17898
G01 X16.43273 Y32.00225
G01 X16.42999 Y31.95000
G01 X16.43273 Y31.89773
G01 X16.45948 Y31.66930
G01 X16.52796 Y31.44975
G01 X16.54670 Y31.40090
G01 X16.57045 Y31.35427
G01 X16.68783 Y31.15648
G01 X16.83964 Y30.98376
G01 X16.87665 Y30.94675
G01 X16.91734 Y30.91381
G01 X17.10499 Y30.78086
G01 X17.32656 Y30.67997
G01 X17.10499 Y30.57911
G01 X16.91734 Y30.44617
G01 X16.87665 Y30.41322
G01 X16.83964 Y30.37622
G01 X16.68783 Y30.20350
G01 X16.65930 Y30.15960
G01 X16.54670 Y29.95907
G01 X16.47304 Y29.74122
G01 X16.45948 Y29.69067
G01 X16.45130 Y29.63898
G01 X16.43273 Y29.46225
G01 X16.42999 Y29.41000
G01 X16.43273 Y29.35773
G01 X16.45948 Y29.12930
G01 X16.52796 Y28.90975
G01 X16.54670 Y28.86090
G01 X16.57045 Y28.81427
G01 X16.68783 Y28.61648
G01 X16.83964 Y28.44376
G01 X16.87665 Y28.40675
G01 X16.91734 Y28.37381
G01 X17.10499 Y28.24086
G01 X17.32656 Y28.13997
G01 X17.10499 Y28.03911
G01 X16.91734 Y27.90617
G01 X16.87665 Y27.87322
G01 X16.83964 Y27.83622
G01 X16.68783 Y27.66350
G01 X16.65930 Y27.61960
G01 X16.54670 Y27.41907
G01 X16.47304 Y27.20122
G01 X16.45948 Y27.15067
G01 X16.45130 Y27.09898
G01 X16.43273 Y26.92225
G01 X16.42999 Y26.87000
G01 X16.43273 Y26.81773
G01 X16.45948 Y26.58930
G01 X16.52796 Y26.36975
G01 X16.54670 Y26.32090
G01 X16.57045 Y26.27424
G01 X16.68783 Y26.07645
G01 X16.83964 Y25.90376
G01 X16.87665 Y25.86675
G01 X16.91734 Y25.83381
G01 X17.10499 Y25.70086
G01 X17.32656 Y25.59997
G01 X14.68407 Y25.59997
G01 X14.62583 Y25.44826
G01 X14.57091 Y25.27925
G01 X14.50320 Y25.02649
G01 X14.46581 Y24.78999
G01 X14.50320 Y25.02649
G01 X14.57091 Y25.27925
G01 X14.62583 Y25.44826
G01 X14.68407 Y25.59997
G01 X14.62583 Y25.75171
G01 X14.57091 Y25.92073
G01 X14.50320 Y26.17346
G01 X14.46225 Y26.43195
G01 X14.44368 Y26.60866
G01 X14.42999 Y26.87000
G01 X14.44368 Y27.13131
G01 X14.46225 Y27.30802
G01 X14.50320 Y27.56649
G01 X14.57091 Y27.81925
G01 X14.62583 Y27.98826
G01 X14.68407 Y28.13997
G01 X14.62583 Y28.29171
G01 X14.57091 Y28.46073
G01 X14.50320 Y28.71348
G01 X14.46225 Y28.97195
G01 X14.44368 Y29.14866
G01 X14.42999 Y29.41000
G01 X14.44368 Y29.67131
G01 X14.46225 Y29.84802
G01 X14.50320 Y30.10649
G01 X14.57091 Y30.35925
G01 X14.62583 Y30.52826
G01 X14.68407 Y30.67997
G01 X14.62583 Y30.83171
G01 X14.57091 Y31.00073
G01 X14.50320 Y31.25348
G01 X14.46225 Y31.51195
G01 X14.44368 Y31.68866
G01 X14.42999 Y31.95000
G01 X14.44368 Y32.21131
G01 X14.46225 Y32.38802
G01 X14.50320 Y32.64649
G01 X14.57091 Y32.89925
G01 X14.62583 Y33.06826
G01 X14.68407 Y33.21997
G01 X14.62583 Y33.37171
G01 X14.57091 Y33.54073
G01 X14.50320 Y33.79348
G01 X14.46225 Y34.05195
G01 X14.44368 Y34.22866
G01 X14.42999 Y34.49000
G01 X14.44368 Y34.75131
G01 X14.46225 Y34.92802
G01 X14.50320 Y35.18649
G01 X14.57091 Y35.43925
G01 X14.62583 Y35.60826
G01 X14.68407 Y35.75997
G01 X14.62583 Y35.91171
G01 X14.57091 Y36.08073
G01 X14.50320 Y36.33348
G01 X14.46225 Y36.59195
G01 X14.44368 Y36.76866
G01 X14.42999 Y37.03000
G01 X14.44368 Y37.29131
G01 X14.46225 Y37.46802
G01 X14.50320 Y37.72649
G01 X14.57091 Y37.97925
G01 X14.62583 Y38.14826
G01 X14.68407 Y38.29997
G01 X14.62583 Y38.45171
G01 X14.57091 Y38.62073
G01 X14.50320 Y38.87348
G01 X14.46225 Y39.13195
G01 X14.44368 Y39.30866
G01 X14.42999 Y39.57000
G01 X14.44368 Y39.83131
G01 X14.46225 Y40.00802
G01 X14.50320 Y40.26649
G01 X14.57091 Y40.51925
G01 X14.62583 Y40.68826
G01 X14.68407 Y40.83997
G01 X14.62583 Y40.99171
G01 X14.57091 Y41.16073
G01 X14.50320 Y41.41348
G01 X14.46225 Y41.67195
G01 X14.44368 Y41.84866
G01 X14.42999 Y42.11000
G01 X14.44368 Y42.37131
G01 X14.46225 Y42.54802
G01 X14.50320 Y42.80649
G01 X14.57091 Y43.05925
G01 X14.62583 Y43.22826
G01 X14.68407 Y43.37997
G01 X14.62583 Y43.53171
G01 X14.57091 Y43.70073
G01 X14.50320 Y43.95348
G01 X14.46225 Y44.21195
G01 X14.44368 Y44.38866
G01 X14.42999 Y44.65000
G01 X14.44368 Y44.91131
G01 X14.46225 Y45.08802
G01 X14.50320 Y45.34649
G01 X14.57091 Y45.59925
G01 X14.62583 Y45.76826
G01 X14.68407 Y45.91997
G01 X14.62583 Y46.07171
G01 X14.57091 Y46.24073
G01 X14.50320 Y46.49348
G01 X14.46225 Y46.75195
G01 X14.44368 Y46.92866
G01 X14.42999 Y47.19000
G01 X14.44368 Y47.45131
G01 X14.46225 Y47.62802
G01 X14.50320 Y47.88649
G01 X14.57091 Y48.13925
G01 X14.62583 Y48.30826
G01 X14.68407 Y48.45997
G01 X14.62583 Y48.61171
G01 X14.57091 Y48.78073
G01 X14.50320 Y49.03348
G01 X14.46225 Y49.29195
G01 X14.44368 Y49.46866
G01 X14.42999 Y49.73000
G01 X14.44368 Y49.99131
G01 X14.46225 Y50.16802
G01 X14.50320 Y50.42649
G01 X14.55882 Y50.63414
G01 X14.56842 Y50.63424
G01 X14.47803 Y50.93226
G01 X14.42999 Y51.41999
G01 X14.42999 Y53.11999
G01 X14.47803 Y53.60772
G01 X14.62029 Y54.07670
G01 X14.85130 Y54.50891
G01 X15.16223 Y54.88775
G01 X15.54107 Y55.19867
G01 X15.97327 Y55.42968
G01 X16.44226 Y55.57195
G01 X16.92999 Y55.61998
G01 X18.62999 Y55.61998
G01 X19.11772 Y55.57195
G01 X19.58670 Y55.42968
G01 X20.01891 Y55.19867
G01 X20.39775 Y54.88775
G01 X20.70867 Y54.50891
G01 X20.93968 Y54.07670
G01 X21.08195 Y53.60772
G01 X21.12998 Y53.11999
G01 X21.12998 Y51.41999
G01 X21.08195 Y50.93226
G01 X20.99158 Y50.63424
G01 X21.00118 Y50.63411
G01 X21.05678 Y50.42649
G01 X21.09772 Y50.16802
G01 X21.11629 Y49.99131
G01 X21.12998 Y49.73000
G01 X21.11629 Y49.46866
G01 X21.09772 Y49.29195
G01 X21.05678 Y49.03348
G01 X20.98906 Y48.78073
G01 X20.93415 Y48.61171
G01 X20.87590 Y48.45997
G01 X20.93415 Y48.30826
G01 X20.98906 Y48.13925
G01 X21.05678 Y47.88649
G01 X21.09772 Y47.62802
G01 X21.11629 Y47.45131
G01 X21.12998 Y47.19000
G01 X21.11629 Y46.92866
G01 X21.09772 Y46.75195
G01 X21.05678 Y46.49348
G01 X20.98906 Y46.24073
G01 X20.93415 Y46.07171
G01 X20.87590 Y45.91997
G01 X20.93415 Y45.76826
G01 X20.98906 Y45.59925
G01 X21.05678 Y45.34649
G01 X21.09772 Y45.08802
G01 X21.11629 Y44.91131
G01 X21.12998 Y44.65000
G01 X21.11629 Y44.38866
G01 X21.09772 Y44.21195
G01 X21.05678 Y43.95348
G01 X20.98906 Y43.70073
G01 X20.93415 Y43.53171
G01 X20.87590 Y43.37997
G01 X20.93415 Y43.22826
G01 X20.98906 Y43.05925
G01 X21.05678 Y42.80649
G01 X21.09772 Y42.54802
G01 X21.11629 Y42.37131
G01 X21.12998 Y42.11000
G01 X21.11629 Y41.84866
G01 X21.09772 Y41.67195
G01 X21.05678 Y41.41348
G01 X20.98906 Y41.16073
G01 X20.93415 Y40.99171
G01 X20.87590 Y40.83997
G01 X20.93415 Y40.68826
G01 X20.98906 Y40.51925
G01 X21.05678 Y40.26649
G01 X21.09772 Y40.00802
G01 X21.11629 Y39.83131
G01 X21.12998 Y39.57000
G01 X21.11629 Y39.30866
G01 X21.09772 Y39.13195
G01 X21.05678 Y38.87348
G01 X20.98906 Y38.62073
G01 X20.93415 Y38.45171
G01 X20.87590 Y38.29997
G01 X20.93415 Y38.14826
G01 X20.98906 Y37.97925
G01 X21.05678 Y37.72649
G01 X21.09772 Y37.46802
G01 X21.11629 Y37.29131
G01 X21.12998 Y37.03000
G01 X21.11629 Y36.76866
G01 X21.09772 Y36.59195
G01 X21.05678 Y36.33348
G01 X20.98906 Y36.08073
G01 X20.93415 Y35.91171
G01 X20.87590 Y35.75997
G01 X20.93415 Y35.60826
G01 X20.98906 Y35.43925
G01 X21.05678 Y35.18649
G01 X21.09772 Y34.92802
G01 X21.11629 Y34.75131
G01 X21.12998 Y34.49000
G01 X21.11629 Y34.22866
G01 X21.09772 Y34.05195
G01 X21.05678 Y33.79348
G01 X20.98906 Y33.54073
G01 X20.93415 Y33.37171
G01 X20.87590 Y33.21997
G01 X20.93415 Y33.06826
G01 X20.98906 Y32.89925
G01 X21.05678 Y32.64649
G01 X21.09772 Y32.38802
G01 X21.11629 Y32.21131
G01 X21.12998 Y31.95000
G01 X21.11629 Y31.68866
G01 X21.09772 Y31.51195
G01 X21.05678 Y31.25348
G01 X20.98906 Y31.00073
G01 X20.93415 Y30.83171
G01 X20.87590 Y30.67997
G01 X20.93415 Y30.52826
G01 X20.98906 Y30.35925
G01 X21.05678 Y30.10649
G01 X21.09772 Y29.84802
G01 X21.11629 Y29.67131
G01 X21.12998 Y29.41000
G01 X21.11629 Y29.14866
G01 X21.09772 Y28.97195
G01 X21.05678 Y28.71348
G01 X20.98906 Y28.46073
G01 X20.93415 Y28.29171
G01 X20.87590 Y28.13997
G01 X20.93415 Y27.98826
G01 X20.98906 Y27.81925
G01 X21.05678 Y27.56649
G01 X21.09772 Y27.30802
G01 X21.11629 Y27.13131
G01 X21.12998 Y26.87000
G01 X21.11629 Y26.60866
G01 X21.09772 Y26.43195
G01 X21.05678 Y26.17346
G01 X20.98906 Y25.92073
G01 X20.93415 Y25.75171
G01 X20.87590 Y25.59997
G01 X20.93415 Y25.44826
G01 X20.98906 Y25.27925
G01 X21.05678 Y25.02649
G01 X21.09772 Y24.76802
G01 X21.11629 Y24.59131
G01 X21.12998 Y24.33000
G01 X21.11629 Y24.06866
G01 X21.09772 Y23.89195
G01 X21.05678 Y23.63348
G01 X20.98906 Y23.38073
G01 X20.93415 Y23.21171
G01 X20.87590 Y23.05997
G01 X20.93415 Y22.90826
G01 X20.98906 Y22.73925
G01 X21.05678 Y22.48649
G01 X21.09772 Y22.22802
G01 X21.11629 Y22.05131
G01 X21.12998 Y21.79000
G01 X21.11629 Y21.52866
G01 X21.09772 Y21.35195
G01 X21.05678 Y21.09348
G01 X20.98906 Y20.84073
G01 X20.93415 Y20.67171
G01 X20.87590 Y20.51997
G01 X20.93415 Y20.36826
G01 X20.98906 Y20.19925
G01 X21.05678 Y19.94649
G01 X21.09772 Y19.68802
G01 X21.11629 Y19.51131
G01 X21.12998 Y19.25000
G01 X21.11629 Y18.98866
G01 X21.09772 Y18.81195
G01 X21.05678 Y18.55348
G01 X20.98906 Y18.30073
G01 X20.93415 Y18.13171
G01 X20.87590 Y17.97997
G01 X20.93415 Y17.82826
G01 X20.98906 Y17.65925
G01 X21.05678 Y17.40649
G01 X21.09772 Y17.14802
G01 X21.11629 Y16.97131
G01 X21.12998 Y16.71000
G01 X21.11629 Y16.44866
G01 X21.09772 Y16.27195
G01 X21.05678 Y16.01348
G01 X20.98906 Y15.76073
G01 X20.93415 Y15.59171
G01 X20.87590 Y15.43997
G01 X20.93415 Y15.28826
G01 X20.98906 Y15.11925
G01 X21.05678 Y14.86649
G01 X21.09772 Y14.60802
G01 X21.11629 Y14.43131
G01 X21.12998 Y14.17000
G01 X21.11629 Y13.90866
G01 X21.09772 Y13.73195
G01 X21.05678 Y13.47348
G01 X20.98906 Y13.22073
G01 X20.93415 Y13.05171
G01 X20.87590 Y12.89997
G01 X20.93415 Y12.74826
G01 X20.98906 Y12.57925
G01 X21.05678 Y12.32649
G01 X21.09772 Y12.06802
G01 X21.11629 Y11.89131
G01 X21.12998 Y11.63000
G01 X21.11629 Y11.36866
G01 X21.09772 Y11.19195
G01 X21.05678 Y10.93348
G01 X20.98906 Y10.68073
G01 X20.93415 Y10.51171
G01 X20.87590 Y10.35997
G01 X20.93415 Y10.20826
G01 X20.98906 Y10.03925
G01 X21.05678 Y9.78649
G01 X21.09772 Y9.52802
G01 X21.11629 Y9.35131
G01 X21.12998 Y9.09000
G01 X21.11629 Y8.82866
G01 X21.09772 Y8.65195
G01 X21.05678 Y8.39348
G01 X20.98906 Y8.14073
G01 X20.93415 Y7.97171
G01 X20.87590 Y7.81997
G01 X20.93415 Y7.66826
G01 X20.98906 Y7.49925
G01 X21.05678 Y7.24649
G01 X21.09772 Y6.98802
G01 X21.11629 Y6.81131
G01 X21.12998 Y6.55000
G01 X21.11629 Y6.28866
G01 X21.09772 Y6.11195
G01 X21.05678 Y5.85348
G01 X20.98906 Y5.60073
G01 X20.93415 Y5.43171
G01 X20.87590 Y5.27997
G01 X20.93415 Y5.12826
G01 X20.98906 Y4.95925
G01 X21.05678 Y4.70649
G01 X21.09772 Y4.44802
G01 X21.11629 Y4.27131
G01 X21.12998 Y4.01000
G01 X21.11629 Y3.74866
G01 X21.09772 Y3.57195
G01 X21.05678 Y3.31348
G01 X20.98906 Y3.06073
G01 X20.93415 Y2.89171
G01 X20.84037 Y2.64742
G01 X20.72157 Y2.41427
G01 X20.63272 Y2.26037
G01 X20.49021 Y2.04092
G01 X20.32551 Y1.83754
G01 X20.20661 Y1.70548
G01 X20.02158 Y1.52044
G01 X19.81822 Y1.35578
G01 X19.67446 Y1.25133
G01 X19.45498 Y1.10881
G01 X19.22183 Y0.98999
G01 X19.05950 Y0.91773
G01 X18.81520 Y0.82395
G01 X18.56242 Y0.75621
G01 X18.38861 Y0.71928
G01 X18.13016 Y0.67833
G01 X17.86882 Y0.66464
G01 X17.69115 Y0.66464
G01 X17.42981 Y0.67833
G01 X17.17137 Y0.71928
G01 X16.99755 Y0.75621
G01 X16.74477 Y0.82395
G01 X16.50047 Y0.91773
G01 X16.33814 Y0.98999
G01 X16.10500 Y1.10881
G01 X15.88552 Y1.25133
G01 X15.74175 Y1.35578
G01 X15.53840 Y1.52044
G01 X15.35336 Y1.70548
G01 X15.23446 Y1.83754
G01 X15.06977 Y2.04092
G01 X14.92725 Y2.26037
G01 X14.83840 Y2.41427
G01 X14.71960 Y2.64742
G01 X14.62583 Y2.89171
G01 X14.57091 Y3.06073
G01 X14.50320 Y3.31348
G01 X14.46225 Y3.57195
G01 X14.44368 Y3.74866
G01 X14.42999 Y4.01000
G01 X14.44368 Y4.27131
G01 X14.46225 Y4.44802
G01 X14.50320 Y4.70649
G01 X14.57091 Y4.95925
G01 X14.62583 Y5.12826
G01 X14.68407 Y5.27997
G01 X14.62583 Y5.43171
G01 X14.57091 Y5.60073
G01 X14.50320 Y5.85348
G01 X14.46225 Y6.11195
G01 X14.44368 Y6.28866
G01 X14.42999 Y6.55000
G01 X14.44368 Y6.81131
G01 X14.46225 Y6.98802
G01 X14.50320 Y7.24649
G01 X14.57091 Y7.49925
G01 X14.62583 Y7.66826
G01 X14.68407 Y7.81997
G01 X14.62583 Y7.97171
G01 X14.57091 Y8.14073
G01 X14.50320 Y8.39348
G01 X14.46225 Y8.65195
G01 X14.45842 Y8.68840
G01 X14.46223 Y8.69191
G01 X14.37813 Y8.70521
G01 X14.30183 Y8.72353
G01 X13.92875 Y8.84476
G01 X13.85626 Y8.87479
G01 X13.50670 Y9.05289
G01 X13.43983 Y9.09389
G01 X13.12245 Y9.32447
G01 X13.06279 Y9.37542
G01 X12.91862 Y9.50867
G01 X8.91733 Y13.50998
G01 X8.92518 Y13.52895
G01 X8.91733 Y13.50998
G01 X6.76105 Y13.50998
G01 X6.76008 Y13.51486
G01 X6.76105 Y13.50998
G01 X6.72183 Y13.48999
G01 X6.55947 Y13.41773
G01 X6.31520 Y13.32395
G01 X6.06242 Y13.25621
G01 X5.88861 Y13.21928
G01 X5.63016 Y13.17831
G01 X5.36885 Y13.16464
G01 X5.19115 Y13.16464
G01 X4.92981 Y13.17831
G01 X4.67136 Y13.21928
G01 X4.49755 Y13.25621
G01 X4.24477 Y13.32395
G01 X4.00047 Y13.41773
G01 X3.83814 Y13.48999
G01 X3.60500 Y13.60881
G01 X3.38552 Y13.75133
G01 X3.24173 Y13.85578
G01 X3.03840 Y14.02044
G01 X2.85336 Y14.20548
G01 X2.73446 Y14.33754
G01 X2.56977 Y14.54092
G01 X2.42725 Y14.76037
G01 X2.33840 Y14.91427
G01 X2.21960 Y15.14742
G01 X2.12583 Y15.39171
G01 X2.07091 Y15.56073
G01 X2.00320 Y15.81348
G01 X1.96225 Y16.07195
G01 X1.94368 Y16.24866
G01 X1.92999 Y16.50997
G01 X1.94368 Y16.77132
G01 X1.96225 Y16.94802
G01 X2.00320 Y17.20649
G01 X2.05882 Y17.41414
G01 X2.06842 Y17.41424
G01 X1.97802 Y17.71226
G01 X1.92999 Y18.19999
G01 X1.92999 Y19.89999
G01 X1.97802 Y20.38772
G01 X1.98783 Y20.41997
G01 X1.97802 Y20.45226
G01 X1.92999 Y20.93999
G01 X1.92999 Y22.63999
G01 X1.97802 Y23.12772
G01 X2.12029 Y23.59670
G01 X2.35130 Y24.02891
G01 X2.66222 Y24.40775
G01 X3.04107 Y24.71867
G01 X3.47327 Y24.94968
G01 X3.94226 Y25.09195
G01 X4.42999 Y25.13998
G01 X6.12999 Y25.13998
G01 X6.61772 Y25.09195
G01 X7.08670 Y24.94968
G01 X7.38548 Y24.78999
G01 X7.38360 Y24.78250
G01 X7.38548 Y24.78999
G01 X14.46581 Y24.78999
G01 X14.25339 Y25.03998
G01 X7.44555 Y25.03998
G01 X7.44367 Y25.03249
G01 X7.44555 Y25.03998
G01 X7.18236 Y25.18065
G01 X6.66648 Y25.33713
G01 X6.12999 Y25.38999
G01 X4.42999 Y25.38999
G01 X3.89349 Y25.33713
G01 X3.37762 Y25.18065
G01 X2.90218 Y24.92652
G01 X2.48544 Y24.58453
G01 X2.14346 Y24.16780
G01 X1.88933 Y23.69236
G01 X1.73284 Y23.17648
G01 X1.67998 Y22.63999
G01 X1.67998 Y20.93999
G01 X1.73121 Y20.41997
G01 X1.67998 Y19.89999
G01 X1.67998 Y18.19999
G01 X1.73284 Y17.66349
G01 X1.80939 Y17.41106
G01 X2.20424 Y17.41589
G01 X0.14351 Y17.39062
G01 X0.15776 Y13.69487
G01 X0.26220 Y13.51036
G01 X0.54724 Y13.07142
G01 X0.87660 Y12.66472
G01 X0.99550 Y12.53266
G01 X1.36558 Y12.16259
G01 X1.77231 Y11.83322
G01 X1.91605 Y11.72878
G01 X2.35499 Y11.44374
G01 X2.82130 Y11.20615
G01 X2.98364 Y11.13386
G01 X3.47223 Y10.94631
G01 X3.97777 Y10.81085
G01 X4.15158 Y10.77392
G01 X4.66849 Y10.69203
G01 X5.19115 Y10.66465
G01 X5.36885 Y10.66465
G01 X5.89148 Y10.69203
G01 X6.40839 Y10.77392
G01 X6.58218 Y10.81085
G01 X7.08774 Y10.94631
G01 X7.25363 Y11.00999
G01 X7.25284 Y11.01418
G01 X7.25363 Y11.00999
G01 X7.88180 Y11.00999
G01 X7.88970 Y11.02901
G01 X7.88180 Y11.00999
G01 X11.15085 Y7.74090
G01 X11.43917 Y7.47441
G01 X11.49881 Y7.42345
G01 X11.96995 Y7.08114
G01 X11.71204 Y6.96049
G01 X11.33645 Y7.23336
G01 X11.27679 Y7.28431
G01 X10.97410 Y7.56415
G01 X7.77824 Y10.76000
G01 X7.78614 Y10.77902
G01 X7.77824 Y10.76000
G01 X7.29902 Y10.76000
G01 X7.29823 Y10.76416
G01 X7.29902 Y10.76000
G01 X7.16498 Y10.70854
G01 X6.63420 Y10.56632
G01 X6.46036 Y10.52937
G01 X5.91762 Y10.44341
G01 X5.36885 Y10.41463
G01 X5.19115 Y10.41463
G01 X4.64236 Y10.44341
G01 X4.09961 Y10.52937
G01 X3.92580 Y10.56632
G01 X3.39499 Y10.70854
G01 X2.88196 Y10.90546
G01 X2.71963 Y10.97775
G01 X2.22999 Y11.22723
G01 X1.76911 Y11.52652
G01 X1.62535 Y11.63096
G01 X1.19830 Y11.97681
G01 X0.80970 Y12.36538
G01 X0.69080 Y12.49743
G01 X0.34498 Y12.92449
G01 X0.15961 Y13.20993
G01 X0.15273 Y15.00274
G01 X0.15560 Y14.25451
G01 X0.38986 Y13.78925
G01 X0.47871 Y13.63538
G01 X0.74950 Y13.21839
G01 X1.06238 Y12.83200
G01 X1.18128 Y12.69995
G01 X1.53286 Y12.34839
G01 X1.91925 Y12.03549
G01 X2.06301 Y11.93104
G01 X2.47998 Y11.66025
G01 X2.92298 Y11.43452
G01 X3.08531 Y11.36226
G01 X3.54950 Y11.18408
G01 X4.02974 Y11.05540
G01 X4.20355 Y11.01844
G01 X4.69463 Y10.94067
G01 X5.19115 Y10.91463
G01 X5.36885 Y10.91463
G01 X5.86534 Y10.94067
G01 X6.35643 Y11.01844
G01 X6.53024 Y11.05540
G01 X7.01048 Y11.18408
G01 X7.20824 Y11.26000
G01 X7.20748 Y11.26416
G01 X7.20824 Y11.26000
G01 X7.98535 Y11.26000
G01 X7.99325 Y11.27902
G01 X7.98535 Y11.26000
G01 X11.32764 Y7.91769
G01 X11.60153 Y7.66450
G01 X11.66119 Y7.61355
G01 X12.22568 Y7.20341
G01 X12.25918 Y7.21942
G01 X12.22233 Y7.20181
G01 X12.20602 Y7.04649
G01 X12.17999 Y6.55000
G01 X12.20602 Y6.05348
G01 X12.22459 Y5.87675
G01 X12.30236 Y5.38569
G01 X12.33068 Y5.27997
G01 X12.30236 Y5.17428
G01 X12.22459 Y4.68323
G01 X12.20602 Y4.50649
G01 X12.17999 Y4.01000
G01 X12.20602 Y3.51348
G01 X12.22459 Y3.33675
G01 X12.30236 Y2.84569
G01 X12.43104 Y2.36543
G01 X12.48595 Y2.19644
G01 X12.66414 Y1.73225
G01 X12.88987 Y1.28925
G01 X12.97871 Y1.13538
G01 X13.24950 Y0.71839
G01 X13.56238 Y0.33200
G01 X13.68125 Y0.20000
G01 X14.03431 Y0.20000
G01 X13.86708 Y0.36723
G01 X13.74818 Y0.49929
G01 X13.45174 Y0.86533
G01 X13.19517 Y1.26037
G01 X13.10632 Y1.41427
G01 X12.89251 Y1.83396
G01 X12.72372 Y2.27368
G01 X12.66881 Y2.44269
G01 X12.54689 Y2.89766
G01 X12.47320 Y3.36288
G01 X12.45464 Y3.53962
G01 X12.43000 Y4.01000
G01 X12.45464 Y4.48036
G01 X12.47320 Y4.65709
G01 X12.54689 Y5.12232
G01 X12.58915 Y5.27997
G01 X12.54689 Y5.43766
G01 X12.47320 Y5.90288
G01 X12.45464 Y6.07962
G01 X12.43000 Y6.55000
G01 X12.45464 Y7.02036
G01 X12.47320 Y7.19709
G01 X12.49482 Y7.33349
G01 X12.46172 Y7.34761
G01 X12.39482 Y7.38861
G01 X11.82355 Y7.80367
G01 X11.50442 Y8.09447
G01 X8.08891 Y11.50998
G01 X8.09678 Y11.52901
G01 X8.08891 Y11.50998
G01 X7.16288 Y11.50998
G01 X7.16209 Y11.51418
G01 X7.16288 Y11.50998
G01 X6.93323 Y11.42185
G01 X6.47824 Y11.29993
G01 X6.30443 Y11.26297
G01 X5.83921 Y11.18928
G01 X5.36885 Y11.16465
G01 X5.19115 Y11.16465
G01 X4.72077 Y11.18928
G01 X4.25554 Y11.26297
G01 X4.08173 Y11.29993
G01 X3.62674 Y11.42185
G01 X3.18701 Y11.59063
G01 X3.02468 Y11.66292
G01 X2.60500 Y11.87676
G01 X2.20995 Y12.13330
G01 X2.06619 Y12.23775
G01 X1.70015 Y12.53416
G01 X1.36708 Y12.86723
G01 X1.24818 Y12.99929
G01 X0.95174 Y13.36533
G01 X0.69520 Y13.76037
G01 X0.60635 Y13.91427
G01 X0.39253 Y14.33396
G01 X0.22372 Y14.77368
G01 X0.15273 Y15.00274
G01 X0.11179 Y25.61402
G01 X0.71768 Y26.35230
G01 X1.51326 Y27.00520
G01 X2.42090 Y27.49034
G01 X3.40576 Y27.78910
G01 X4.42999 Y27.88999
G01 X6.12999 Y27.88999
G01 X7.15421 Y27.78910
G01 X7.97547 Y27.53998
G01 X7.97507 Y27.53728
G01 X7.97547 Y27.53998
G01 X11.72149 Y27.53998
G01 X11.72733 Y27.59547
G01 X11.81374 Y28.13997
G01 X18.23347 Y28.13997
G01 X18.45498 Y28.24086
G01 X18.64263 Y28.37381
G01 X18.68333 Y28.40675
G01 X18.72033 Y28.44376
G01 X18.87215 Y28.61648
G01 X18.98952 Y28.81427
G01 X19.01327 Y28.86090
G01 X19.03202 Y28.90975
G01 X19.10050 Y29.12930
G01 X19.12724 Y29.35773
G01 X19.12998 Y29.41000
G01 X18.88000 Y29.41000
G01 X18.85594 Y29.18127
G01 X18.78487 Y28.96258
G01 X18.66991 Y28.76342
G01 X18.51604 Y28.59253
G01 X18.32999 Y28.45735
G01 X18.14434 Y28.37320
G01 X18.09463 Y28.35704
G01 X17.89496 Y28.31602
G01 X17.66501 Y28.31602
G01 X17.44007 Y28.36382
G01 X17.22999 Y28.45735
G01 X17.06428 Y28.57607
G01 X17.02544 Y28.61104
G01 X16.90654 Y28.74310
G01 X16.87581 Y28.78536
G01 X16.77510 Y28.96258
G01 X16.70403 Y29.18127
G01 X16.67998 Y29.41000
G01 X16.70403 Y29.63870
G01 X16.77510 Y29.85740
G01 X16.89006 Y30.05656
G01 X17.04393 Y30.22745
G01 X17.22999 Y30.36263
G01 X17.44007 Y30.45615
G01 X17.63916 Y30.49986
G01 X17.69115 Y30.50532
G01 X17.89496 Y30.50395
G01 X18.11990 Y30.45615
G01 X18.32999 Y30.36263
G01 X18.51604 Y30.22745
G01 X18.66991 Y30.05656
G01 X18.78487 Y29.85740
G01 X18.85594 Y29.63870
G01 X18.88000 Y29.41000
G01 X23.87999 Y29.41000
G01 X23.85123 Y29.95877
G01 X23.83264 Y30.13547
G01 X23.74623 Y30.67997
G01 X11.81374 Y30.67997
G01 X11.72733 Y31.22450
G01 X11.70874 Y31.40121
G01 X11.67999 Y31.95000
G01 X11.70874 Y32.49877
G01 X11.72733 Y32.67547
G01 X11.81377 Y33.21997
G01 X18.23347 Y33.21997
G01 X18.45498 Y33.32086
G01 X18.64263 Y33.45381
G01 X18.68333 Y33.48675
G01 X18.72033 Y33.52376
G01 X18.87215 Y33.69648
G01 X18.90067 Y33.74037
G01 X19.01327 Y33.94090
G01 X19.03202 Y33.98975
G01 X19.10050 Y34.20930
G01 X19.12724 Y34.43773
G01 X19.12998 Y34.49000
G01 X18.88000 Y34.49000
G01 X18.86003 Y34.28713
G01 X18.84919 Y34.23600
G01 X18.78487 Y34.04258
G01 X18.66991 Y33.84342
G01 X18.53453 Y33.69104
G01 X18.49570 Y33.65607
G01 X18.32999 Y33.53735
G01 X18.11990 Y33.44382
G01 X17.92082 Y33.40011
G01 X17.86882 Y33.39465
G01 X17.66501 Y33.39602
G01 X17.44007 Y33.44382
G01 X17.22999 Y33.53735
G01 X17.06428 Y33.65607
G01 X17.02544 Y33.69104
G01 X16.90654 Y33.82310
G01 X16.87581 Y33.86536
G01 X16.77510 Y34.04258
G01 X16.71079 Y34.23600
G01 X16.69994 Y34.28713
G01 X16.68135 Y34.46386
G01 X16.68135 Y34.51611
G01 X16.70403 Y34.71870
G01 X16.76570 Y34.91296
G01 X16.78696 Y34.96071
G01 X16.89006 Y35.13656
G01 X17.04393 Y35.30745
G01 X17.22999 Y35.44263
G01 X17.44007 Y35.53615
G01 X17.66501 Y35.58395
G01 X17.86882 Y35.58532
G01 X17.92082 Y35.57986
G01 X18.09463 Y35.54293
G01 X18.14434 Y35.52678
G01 X18.32999 Y35.44263
G01 X18.49570 Y35.32391
G01 X18.53453 Y35.28893
G01 X18.66991 Y35.13656
G01 X18.78487 Y34.93740
G01 X18.85594 Y34.71870
G01 X18.88000 Y34.49000
G01 X23.87999 Y34.49000
G01 X23.85123 Y35.03877
G01 X23.83264 Y35.21547
G01 X23.74623 Y35.75997
G01 X11.81329 Y35.76173
G01 X11.72733 Y36.30450
G01 X11.70874 Y36.48121
G01 X11.67999 Y37.03000
G01 X11.70874 Y37.57877
G01 X11.72733 Y37.75547
G01 X11.81377 Y38.29997
G01 X18.23347 Y38.29997
G01 X18.45498 Y38.40086
G01 X18.49887 Y38.42936
G01 X18.68333 Y38.56675
G01 X18.83923 Y38.73581
G01 X18.87215 Y38.77648
G01 X18.90067 Y38.82037
G01 X19.01327 Y39.02090
G01 X19.03202 Y39.06975
G01 X19.10050 Y39.28930
G01 X19.12724 Y39.51773
G01 X19.12998 Y39.57000
G01 X18.88000 Y39.57000
G01 X18.86003 Y39.36713
G01 X18.84919 Y39.31600
G01 X18.78487 Y39.12258
G01 X18.66991 Y38.92342
G01 X18.53453 Y38.77104
G01 X18.49570 Y38.73607
G01 X18.32999 Y38.61735
G01 X18.11990 Y38.52382
G01 X17.92082 Y38.48011
G01 X17.86882 Y38.47465
G01 X17.66501 Y38.47602
G01 X17.44007 Y38.52382
G01 X17.22999 Y38.61735
G01 X17.06428 Y38.73607
G01 X17.02544 Y38.77104
G01 X16.90654 Y38.90310
G01 X16.87581 Y38.94536
G01 X16.77510 Y39.12258
G01 X16.71079 Y39.31600
G01 X16.69994 Y39.36713
G01 X16.68135 Y39.54386
G01 X16.68135 Y39.59611
G01 X16.70403 Y39.79870
G01 X16.76570 Y39.99296
G01 X16.78696 Y40.04071
G01 X16.89006 Y40.21656
G01 X17.04393 Y40.38745
G01 X17.22999 Y40.52263
G01 X17.44007 Y40.61615
G01 X17.66501 Y40.66395
G01 X17.86882 Y40.66532
G01 X17.92082 Y40.65986
G01 X18.09463 Y40.62293
G01 X18.14434 Y40.60678
G01 X18.32999 Y40.52263
G01 X18.49570 Y40.40391
G01 X18.53453 Y40.36893
G01 X18.66991 Y40.21656
G01 X18.78487 Y40.01740
G01 X18.85594 Y39.79870
G01 X18.88000 Y39.57000
G01 X23.87999 Y39.57000
G01 X23.85123 Y40.11877
G01 X23.83264 Y40.29547
G01 X23.74623 Y40.83997
G01 X11.81329 Y40.84173
G01 X11.72733 Y41.38450
G01 X11.70874 Y41.56121
G01 X11.67999 Y42.11000
G01 X11.70874 Y42.65877
G01 X11.72733 Y42.83547
G01 X11.81377 Y43.37997
G01 X18.23347 Y43.37997
G01 X18.45498 Y43.48086
G01 X18.49887 Y43.50936
G01 X18.68333 Y43.64675
G01 X18.83923 Y43.81581
G01 X18.87215 Y43.85648
G01 X18.98952 Y44.05427
G01 X19.01327 Y44.10090
G01 X19.03202 Y44.14975
G01 X19.10050 Y44.36930
G01 X19.12724 Y44.59773
G01 X19.12998 Y44.65000
G01 X18.88000 Y44.65000
G01 X18.86003 Y44.85284
G01 X18.84919 Y44.90397
G01 X18.78487 Y45.09740
G01 X18.66991 Y45.29656
G01 X18.53453 Y45.44893
G01 X18.49570 Y45.48391
G01 X18.32999 Y45.60263
G01 X18.11990 Y45.69615
G01 X17.89496 Y45.74395
G01 X17.66501 Y45.74395
G01 X17.44007 Y45.69615
G01 X17.25331 Y45.61449
G01 X17.20804 Y45.58835
G01 X17.04393 Y45.46745
G01 X16.90654 Y45.31688
G01 X16.87581 Y45.27461
G01 X16.77510 Y45.09740
G01 X16.71079 Y44.90397
G01 X16.69994 Y44.85284
G01 X16.68135 Y44.67611
G01 X16.68135 Y44.62386
G01 X16.70403 Y44.42127
G01 X16.76570 Y44.22701
G01 X16.78696 Y44.17926
G01 X16.89006 Y44.00342
G01 X17.02544 Y43.85104
G01 X17.06428 Y43.81607
G01 X17.22999 Y43.69735
G01 X17.44007 Y43.60382
G01 X17.63916 Y43.56011
G01 X17.69115 Y43.55465
G01 X17.89496 Y43.55602
G01 X18.09463 Y43.59704
G01 X18.14434 Y43.61320
G01 X18.32999 Y43.69735
G01 X18.51604 Y43.83253
G01 X18.65343 Y43.98310
G01 X18.68416 Y44.02536
G01 X18.78487 Y44.20258
G01 X18.84919 Y44.39600
G01 X18.86003 Y44.44713
G01 X18.88000 Y44.65000
G01 X19.12998 Y44.65000
G01 X19.10867 Y44.87898
G01 X19.10050 Y44.93067
G01 X19.03202 Y45.15023
G01 X19.01327 Y45.19907
G01 X18.98952 Y45.24571
G01 X18.87215 Y45.44350
G01 X18.72033 Y45.61622
G01 X18.68333 Y45.65322
G01 X18.64263 Y45.68617
G01 X18.45498 Y45.81911
G01 X18.23347 Y45.91997
G01 X19.75345 Y45.91997
G01 X19.85554 Y46.09427
G01 X19.92681 Y46.23415
G01 X19.98309 Y46.38073
G01 X20.03801 Y46.54974
G01 X20.07862 Y46.70141
G01 X20.10319 Y46.85647
G01 X20.12178 Y47.03321
G01 X20.12998 Y47.19000
G01 X20.12178 Y47.34677
G01 X20.10319 Y47.52350
G01 X20.07862 Y47.67857
G01 X20.03801 Y47.83023
G01 X19.98309 Y47.99924
G01 X19.92681 Y48.14583
G01 X19.85554 Y48.28570
G01 X19.75345 Y48.45997
G01 X19.85554 Y48.63427
G01 X19.92681 Y48.77415
G01 X19.98309 Y48.92073
G01 X20.03801 Y49.08974
G01 X20.07862 Y49.24141
G01 X20.10319 Y49.39647
G01 X20.12178 Y49.57321
G01 X20.12998 Y49.73000
G01 X20.12178 Y49.88677
G01 X20.10319 Y50.06350
G01 X20.07862 Y50.21857
G01 X20.03801 Y50.37023
G01 X19.98309 Y50.53924
G01 X19.93108 Y50.67470
G01 X20.33252 Y50.65276
G01 X20.85571 Y50.63592
G01 X21.25061 Y50.63106
G01 X21.32714 Y50.88346
G01 X21.37999 Y51.41999
G01 X21.37999 Y53.11999
G01 X21.32714 Y53.65648
G01 X21.17065 Y54.17236
G01 X20.91652 Y54.64780
G01 X20.57453 Y55.06453
G01 X20.15780 Y55.40652
G01 X19.68236 Y55.66065
G01 X19.16648 Y55.81714
G01 X18.62999 Y55.86999
G01 X16.92999 Y55.86999
G01 X16.39349 Y55.81714
G01 X15.87762 Y55.66065
G01 X15.40218 Y55.40652
G01 X14.98544 Y55.06453
G01 X14.64346 Y54.64780
G01 X14.38933 Y54.17236
G01 X14.23284 Y53.65648
G01 X14.17998 Y53.11999
G01 X14.17998 Y51.41999
G01 X14.23284 Y50.88346
G01 X14.30939 Y50.63106
G01 X14.70424 Y50.63589
G01 X13.01646 Y50.61521
G01 X12.97048 Y50.32482
G01 X12.95187 Y50.14811
G01 X12.93000 Y49.73000
G01 X12.95187 Y49.31186
G01 X12.97048 Y49.13516
G01 X13.03597 Y48.72162
G01 X13.10607 Y48.45997
G01 X13.03597 Y48.19835
G01 X12.97048 Y47.78482
G01 X12.95187 Y47.60811
G01 X12.93000 Y47.19000
G01 X12.95187 Y46.77186
G01 X12.97048 Y46.59516
G01 X13.03597 Y46.18162
G01 X13.10607 Y45.91997
G01 X13.03597 Y45.65835
G01 X12.97048 Y45.24482
G01 X12.95187 Y45.06811
G01 X12.93000 Y44.65000
G01 X12.95187 Y44.23186
G01 X12.97048 Y44.05516
G01 X13.03597 Y43.64162
G01 X13.10607 Y43.37997
G01 X13.03597 Y43.11835
G01 X12.97048 Y42.70482
G01 X12.95187 Y42.52811
G01 X12.93000 Y42.11000
G01 X12.95187 Y41.69186
G01 X12.97048 Y41.51516
G01 X13.03597 Y41.10162
G01 X13.10607 Y40.83997
G01 X13.03597 Y40.57835
G01 X12.97048 Y40.16482
G01 X12.95187 Y39.98811
G01 X12.93000 Y39.57000
G01 X12.95187 Y39.15186
G01 X12.97048 Y38.97516
G01 X13.03597 Y38.56162
G01 X13.10607 Y38.29997
G01 X13.03597 Y38.03835
G01 X12.97048 Y37.62482
G01 X12.95187 Y37.44811
G01 X12.93000 Y37.03000
G01 X12.95187 Y36.61186
G01 X12.97048 Y36.43516
G01 X13.03597 Y36.02162
G01 X13.10607 Y35.75997
G01 X13.03597 Y35.49835
G01 X12.97048 Y35.08482
G01 X12.95187 Y34.90811
G01 X12.93000 Y34.49000
G01 X12.95187 Y34.07186
G01 X12.97048 Y33.89516
G01 X13.03597 Y33.48162
G01 X13.10607 Y33.21997
G01 X13.03597 Y32.95835
G01 X12.97048 Y32.54482
G01 X12.95187 Y32.36811
G01 X12.93000 Y31.95000
G01 X12.95187 Y31.53186
G01 X12.97048 Y31.35516
G01 X13.03597 Y30.94162
G01 X13.10607 Y30.67997
G01 X13.03597 Y30.41835
G01 X12.97048 Y30.00482
G01 X12.95187 Y29.82811
G01 X12.93000 Y29.41000
G01 X12.95187 Y28.99186
G01 X12.97048 Y28.81516
G01 X13.03597 Y28.40162
G01 X13.10607 Y28.13997
G01 X13.03597 Y27.87835
G01 X12.97048 Y27.46482
G01 X12.95187 Y27.28811
G01 X12.93000 Y26.87000
G01 X12.95187 Y26.45186
G01 X12.96891 Y26.28994
G01 X12.98364 Y26.27671
G01 X12.80594 Y26.43673
G01 X12.32474 Y26.89530
G01 X11.84351 Y27.40444
G01 X11.72149 Y27.53998
G01 X11.72733 Y27.59547
G01 X11.81374 Y28.13997
G01 X11.72733 Y28.68450
G01 X11.70874 Y28.86121
G01 X11.67999 Y29.41000
G01 X11.70874 Y29.95877
G01 X11.72733 Y30.13547
G01 X11.81374 Y30.67997
G01 X11.72733 Y31.22450
G01 X11.70874 Y31.40121
G01 X11.67999 Y31.95000
G01 X11.70874 Y32.49877
G01 X11.72733 Y32.67547
G01 X11.81377 Y33.21997
G01 X11.72733 Y33.76450
G01 X11.70874 Y33.94121
G01 X11.67999 Y34.49000
G01 X11.70874 Y35.03877
G01 X11.72733 Y35.21547
G01 X11.81377 Y35.75997
G01 X11.72733 Y36.30450
G01 X11.70874 Y36.48121
G01 X11.67999 Y37.03000
G01 X11.70874 Y37.57877
G01 X11.72733 Y37.75547
G01 X11.81377 Y38.29997
G01 X11.72733 Y38.84450
G01 X11.70874 Y39.02121
G01 X11.67999 Y39.57000
G01 X11.70874 Y40.11877
G01 X11.72733 Y40.29547
G01 X11.81377 Y40.83997
G01 X11.72733 Y41.38450
G01 X11.70874 Y41.56121
G01 X11.67999 Y42.11000
G01 X11.70874 Y42.65877
G01 X11.72733 Y42.83547
G01 X11.81377 Y43.37997
G01 X11.72733 Y43.92450
G01 X11.70874 Y44.10121
G01 X11.67999 Y44.65000
G01 X11.70874 Y45.19877
G01 X11.72733 Y45.37547
G01 X11.81329 Y45.91825
G01 X18.23347 Y45.91997
G01 X18.40835 Y45.99709
G01 X18.45498 Y46.02086
G01 X18.49887 Y46.04936
G01 X18.68333 Y46.18675
G01 X18.83923 Y46.35581
G01 X18.87215 Y46.39648
G01 X18.90067 Y46.44037
G01 X19.01327 Y46.64090
G01 X19.03202 Y46.68975
G01 X19.10050 Y46.90930
G01 X19.12724 Y47.13773
G01 X19.12998 Y47.19000
G01 X19.10867 Y47.41898
G01 X19.10050 Y47.47067
G01 X19.08693 Y47.52122
G01 X19.03202 Y47.69023
G01 X19.01327 Y47.73907
G01 X18.98952 Y47.78571
G01 X18.87215 Y47.98350
G01 X18.72033 Y48.15622
G01 X18.68333 Y48.19322
G01 X18.64263 Y48.22617
G01 X18.45498 Y48.35911
G01 X18.23347 Y48.45997
G01 X18.45498 Y48.56086
G01 X18.64263 Y48.69381
G01 X18.68333 Y48.72675
G01 X18.72033 Y48.76376
G01 X18.87215 Y48.93648
G01 X18.98952 Y49.13427
G01 X19.01327 Y49.18090
G01 X19.03202 Y49.22975
G01 X19.10050 Y49.44930
G01 X19.12724 Y49.67773
G01 X19.12998 Y49.73000
G01 X19.12724 Y49.78225
G01 X19.10867 Y49.95898
G01 X19.10050 Y50.01067
G01 X19.08693 Y50.06122
G01 X19.01327 Y50.27907
G01 X18.90067 Y50.47960
G01 X18.87215 Y50.52350
G01 X18.83923 Y50.56416
G01 X18.68333 Y50.73322
G01 X18.49887 Y50.87061
G01 X18.45498 Y50.89911
G01 X18.40771 Y50.92149
G01 X18.62999 Y50.91999
G01 X18.72752 Y50.92959
G01 X18.82132 Y50.95804
G01 X18.90776 Y51.00424
G01 X18.98353 Y51.06645
G01 X19.04573 Y51.14219
G01 X19.09194 Y51.22865
G01 X19.12038 Y51.32245
G01 X19.12998 Y51.41999
G01 X19.12998 Y53.11999
G01 X19.12038 Y53.21752
G01 X19.09194 Y53.31132
G01 X19.04573 Y53.39778
G01 X18.98353 Y53.47355
G01 X18.90776 Y53.53573
G01 X18.82132 Y53.58194
G01 X18.72752 Y53.61038
G01 X18.62999 Y53.61998
G01 X16.92999 Y53.61998
G01 X16.83245 Y53.61038
G01 X16.73865 Y53.58194
G01 X16.65221 Y53.53573
G01 X16.57645 Y53.47355
G01 X16.51424 Y53.39778
G01 X16.46804 Y53.31132
G01 X16.43959 Y53.21752
G01 X16.42999 Y53.11999
G01 X16.42999 Y51.41999
G01 X16.43959 Y51.32245
G01 X16.46804 Y51.22865
G01 X16.51424 Y51.14219
G01 X16.57645 Y51.06645
G01 X16.65221 Y51.00424
G01 X16.73865 Y50.95804
G01 X16.83245 Y50.92959
G01 X16.92999 Y50.91999
G01 X17.15224 Y50.92149
G01 X17.04505 Y50.89266
G01 X16.86623 Y50.83650
G01 X16.72537 Y50.79876
G01 X16.50746 Y50.75588
G01 X16.24297 Y50.71971
G01 X15.93693 Y50.69141
G01 X15.22745 Y50.65271
G01 X14.70424 Y50.63589
G01 X14.29951 Y50.63094
G01 X14.25865 Y50.47846
G01 X14.21364 Y50.19416
G01 X14.19504 Y50.01745
G01 X14.17998 Y49.73000
G01 X14.19504 Y49.44252
G01 X14.21364 Y49.26581
G01 X14.25865 Y48.98151
G01 X14.33314 Y48.70346
G01 X14.38806 Y48.53447
G01 X14.41666 Y48.45997
G01 X14.38806 Y48.38550
G01 X14.33314 Y48.21652
G01 X14.25865 Y47.93846
G01 X14.21364 Y47.65416
G01 X14.19504 Y47.47745
G01 X14.17998 Y47.19000
G01 X14.19504 Y46.90252
G01 X14.21364 Y46.72581
G01 X14.25865 Y46.44151
G01 X14.33314 Y46.16346
G01 X14.38806 Y45.99447
G01 X14.41666 Y45.91997
G01 X14.38806 Y45.84550
G01 X14.33314 Y45.67652
G01 X14.25865 Y45.39846
G01 X14.21364 Y45.11416
G01 X14.19504 Y44.93745
G01 X14.17998 Y44.65000
G01 X14.19504 Y44.36252
G01 X14.21364 Y44.18581
G01 X14.25865 Y43.90151
G01 X14.33314 Y43.62346
G01 X14.38806 Y43.45447
G01 X14.41666 Y43.37997
G01 X14.38806 Y43.30550
G01 X14.33314 Y43.13652
G01 X14.25865 Y42.85846
G01 X14.21364 Y42.57416
G01 X14.19504 Y42.39745
G01 X14.17998 Y42.11000
G01 X14.19504 Y41.82252
G01 X14.21364 Y41.64581
G01 X14.25865 Y41.36151
G01 X14.33314 Y41.08346
G01 X14.38806 Y40.91447
G01 X14.41666 Y40.83997
G01 X14.38806 Y40.76550
G01 X14.33314 Y40.59652
G01 X14.25865 Y40.31846
G01 X14.21364 Y40.03416
G01 X14.19504 Y39.85745
G01 X14.17998 Y39.57000
G01 X14.19504 Y39.28252
G01 X14.21364 Y39.10581
G01 X14.25865 Y38.82151
G01 X14.33314 Y38.54346
G01 X14.38806 Y38.37447
G01 X14.41666 Y38.29997
G01 X14.38806 Y38.22550
G01 X14.33314 Y38.05652
G01 X14.25865 Y37.77846
G01 X14.21364 Y37.49416
G01 X14.19504 Y37.31745
G01 X14.17998 Y37.03000
G01 X14.19504 Y36.74252
G01 X14.21364 Y36.56581
G01 X14.25865 Y36.28151
G01 X14.33314 Y36.00346
G01 X14.38806 Y35.83447
G01 X14.41666 Y35.75997
G01 X14.38806 Y35.68550
G01 X14.33314 Y35.51652
G01 X14.25865 Y35.23846
G01 X14.21364 Y34.95416
G01 X14.19504 Y34.77745
G01 X14.17998 Y34.49000
G01 X14.19504 Y34.20252
G01 X14.21364 Y34.02581
G01 X14.25865 Y33.74151
G01 X14.33314 Y33.46346
G01 X14.38806 Y33.29447
G01 X14.41666 Y33.21997
G01 X14.38806 Y33.14550
G01 X14.33314 Y32.97652
G01 X14.25865 Y32.69846
G01 X14.21364 Y32.41416
G01 X14.19504 Y32.23745
G01 X14.17998 Y31.95000
G01 X14.19504 Y31.66252
G01 X14.21364 Y31.48581
G01 X14.25865 Y31.20151
G01 X14.33314 Y30.92346
G01 X14.38806 Y30.75447
G01 X14.41666 Y30.67997
G01 X14.38806 Y30.60550
G01 X14.33314 Y30.43652
G01 X14.25865 Y30.15846
G01 X14.21364 Y29.87416
G01 X14.19504 Y29.69745
G01 X14.17998 Y29.41000
G01 X14.19504 Y29.12252
G01 X14.21364 Y28.94581
G01 X14.25865 Y28.66151
G01 X14.33314 Y28.38346
G01 X14.38806 Y28.21447
G01 X14.41666 Y28.13997
G01 X14.38806 Y28.06550
G01 X14.33314 Y27.89652
G01 X14.25865 Y27.61846
G01 X14.21364 Y27.33416
G01 X14.19504 Y27.15745
G01 X14.17998 Y26.87000
G01 X14.19504 Y26.58252
G01 X14.21364 Y26.40579
G01 X14.25865 Y26.12149
G01 X14.33314 Y25.84343
G01 X14.38806 Y25.67447
G01 X14.41666 Y25.59997
G01 X14.38806 Y25.52550
G01 X14.33314 Y25.35652
G01 X14.25865 Y25.07846
G01 X14.25270 Y25.04082
G01 X14.19212 Y25.11212
G01 X13.82344 Y25.59997
G01 X18.23347 Y25.59997
G01 X18.45498 Y25.49911
G01 X18.64263 Y25.36617
G01 X18.68333 Y25.33322
G01 X18.72033 Y25.29622
G01 X18.87215 Y25.12350
G01 X18.98952 Y24.92571
G01 X19.01327 Y24.87907
G01 X19.03202 Y24.83023
G01 X19.10050 Y24.61067
G01 X19.10867 Y24.55898
G01 X19.12998 Y24.33000
G01 X19.12724 Y24.27773
G01 X19.10050 Y24.04930
G01 X19.03202 Y23.82975
G01 X19.01327 Y23.78090
G01 X18.98952 Y23.73427
G01 X18.87215 Y23.53648
G01 X18.72033 Y23.36376
G01 X18.68333 Y23.32675
G01 X18.64263 Y23.29381
G01 X18.45498 Y23.16086
G01 X18.23349 Y23.05997
G01 X23.74623 Y23.05997
G01 X23.83264 Y22.51547
G01 X23.85123 Y22.33877
G01 X23.87999 Y21.79000
G01 X18.88000 Y21.79000
G01 X18.85594 Y22.01870
G01 X18.78487 Y22.23740
G01 X18.66991 Y22.43656
G01 X18.53453 Y22.58893
G01 X18.49570 Y22.62391
G01 X18.35193 Y22.72835
G01 X18.30667 Y22.75449
G01 X18.11990 Y22.83615
G01 X17.89496 Y22.88395
G01 X17.66501 Y22.88395
G01 X17.44007 Y22.83615
G01 X17.22999 Y22.74263
G01 X17.04393 Y22.60745
G01 X16.98135 Y22.53999
G01 X6.38000 Y22.53999
G01 X6.38000 Y22.63999
G01 X6.37517 Y22.68875
G01 X6.36095 Y22.73567
G01 X6.33786 Y22.77887
G01 X6.30677 Y22.81677
G01 X6.26887 Y22.84786
G01 X6.22567 Y22.87095
G01 X6.17875 Y22.88517
G01 X6.12999 Y22.89000
G01 X4.42999 Y22.89000
G01 X4.38122 Y22.88517
G01 X4.33431 Y22.87095
G01 X4.29110 Y22.84786
G01 X4.25320 Y22.81677
G01 X4.22211 Y22.77887
G01 X4.19903 Y22.73567
G01 X4.18480 Y22.68875
G01 X4.17998 Y22.63999
G01 X4.17998 Y20.93999
G01 X4.18480 Y20.89122
G01 X4.19903 Y20.84431
G01 X4.22211 Y20.80110
G01 X4.25320 Y20.76320
G01 X4.29110 Y20.73211
G01 X4.33431 Y20.70903
G01 X4.38122 Y20.69480
G01 X4.42999 Y20.68998
G01 X6.12999 Y20.68998
G01 X6.17875 Y20.69480
G01 X6.22567 Y20.70903
G01 X6.26887 Y20.73211
G01 X6.30677 Y20.76320
G01 X6.33786 Y20.80110
G01 X6.36095 Y20.84431
G01 X6.37517 Y20.89122
G01 X6.38000 Y20.93999
G01 X6.38000 Y21.03999
G01 X16.98135 Y21.03999
G01 X17.04393 Y20.97253
G01 X17.22999 Y20.83735
G01 X17.44007 Y20.74382
G01 X17.66501 Y20.69602
G01 X17.86882 Y20.69465
G01 X17.92082 Y20.70011
G01 X18.11990 Y20.74382
G01 X18.30667 Y20.82549
G01 X18.35193 Y20.85162
G01 X18.51604 Y20.97253
G01 X18.66991 Y21.14342
G01 X18.78487 Y21.34258
G01 X18.85594 Y21.56127
G01 X18.88000 Y21.79000
G01 X19.12998 Y21.79000
G01 X19.10867 Y22.01898
G01 X19.10050 Y22.07067
G01 X19.03202 Y22.29023
G01 X19.01327 Y22.33907
G01 X18.98952 Y22.38571
G01 X18.87215 Y22.58350
G01 X18.72033 Y22.75622
G01 X18.68333 Y22.79322
G01 X18.64263 Y22.82617
G01 X18.45498 Y22.95911
G01 X18.23349 Y23.05997
G01 X18.45498 Y23.16086
G01 X18.64263 Y23.29381
G01 X18.68333 Y23.32675
G01 X18.72033 Y23.36376
G01 X18.87215 Y23.53648
G01 X18.98952 Y23.73427
G01 X19.01327 Y23.78090
G01 X19.03202 Y23.82975
G01 X19.10050 Y24.04930
G01 X19.12724 Y24.27773
G01 X19.12998 Y24.33000
G01 X18.88000 Y24.33000
G01 X18.86003 Y24.12713
G01 X18.84919 Y24.07600
G01 X18.78487 Y23.88258
G01 X18.68416 Y23.70536
G01 X18.65343 Y23.66310
G01 X18.51604 Y23.51253
G01 X18.32999 Y23.37735
G01 X18.11990 Y23.28382
G01 X17.92082 Y23.24011
G01 X17.86882 Y23.23465
G01 X17.66501 Y23.23602
G01 X17.46534 Y23.27704
G01 X17.41564 Y23.29320
G01 X17.25331 Y23.36549
G01 X17.20804 Y23.39162
G01 X17.04393 Y23.51253
G01 X16.90654 Y23.66310
G01 X16.87581 Y23.70536
G01 X16.77510 Y23.88258
G01 X16.71079 Y24.07600
G01 X16.69994 Y24.12713
G01 X16.67998 Y24.33000
G01 X16.69994 Y24.53284
G01 X16.71079 Y24.58397
G01 X16.77510 Y24.77740
G01 X16.87581 Y24.95461
