( pcb2gcode 2.1.0 )
( Software-independent Gcode )

G94 ( Millimeters per minute feed rate. )
G21 ( Units == Millimeters. )

G90 ( Absolute coordinates. )
G00 S15000 ( RPM spindle speed. )
G01 F600.00000 ( Feedrate. )


G00 Z5.00000 ( retract )

G00 X8.96849 Y25.59997 ( rapid move to begin. )
G01 F300.00000
( Mill infeed pass 1/1 )
G01 Z-0.05000
G04 P0 ( dwell for no time -- G64 should not smooth over this point )
G01 F600.00000
G01 X8.96849 Y25.59997
G01 X8.33768 Y25.08230
G01 X7.68477 Y24.28674
G01 X7.19963 Y23.37907
G01 X6.90088 Y22.39421
G01 X6.79999 Y21.36999
G01 X6.79999 Y19.66999
G01 X6.90088 Y18.64576
G01 X7.19963 Y17.66090
G01 X7.68477 Y16.75326
G01 X7.72028 Y16.70997
G01 X7.68477 Y16.66674
G01 X7.19963 Y15.75907
G01 X6.90088 Y14.77421
G01 X6.79999 Y13.74999
G01 X6.79999 Y12.04999
G01 X6.88076 Y11.22980
G01 X7.12343 Y11.23277
G01 X7.09595 Y11.05936
G01 X7.07738 Y10.88263
G01 X7.05000 Y10.36000
G01 X7.07738 Y9.83734
G01 X7.09595 Y9.66061
G01 X7.17781 Y9.14370
G01 X7.31327 Y8.63818
G01 X7.36818 Y8.46917
G01 X7.55574 Y7.98058
G01 X7.79336 Y7.51426
G01 X7.88220 Y7.36036
G01 X8.16724 Y6.92145
G01 X8.49660 Y6.51472
G01 X8.61550 Y6.38266
G01 X8.98558 Y6.01259
G01 X9.39231 Y5.68322
G01 X9.53605 Y5.57878
G01 X9.97499 Y5.29374
G01 X10.44130 Y5.05615
G01 X10.60364 Y4.98386
G01 X11.09223 Y4.79631
G01 X11.59777 Y4.66085
G01 X11.77158 Y4.62392
G01 X12.28849 Y4.54203
G01 X12.81115 Y4.51465
G01 X12.98885 Y4.51465
G01 X13.51148 Y4.54203
G01 X14.02839 Y4.62392
G01 X14.20221 Y4.66085
G01 X14.70774 Y4.79631
G01 X14.87363 Y4.85999
G01 X14.87284 Y4.86418
G01 X14.87363 Y4.85999
G01 X19.57172 Y4.85999
G01 X19.94482 Y5.25475
G01 X20.05526 Y5.35998
G01 X20.05000 Y5.28000
G01 X20.07464 Y4.80962
G01 X20.09320 Y4.63288
G01 X20.16689 Y4.16766
G01 X20.20915 Y4.00997
G01 X20.16689 Y3.85232
G01 X20.09320 Y3.38709
G01 X20.07464 Y3.21036
G01 X20.05000 Y2.74000
G01 X20.07464 Y2.26962
G01 X20.09320 Y2.09288
G01 X20.16689 Y1.62766
G01 X20.28881 Y1.17269
G01 X20.34372 Y1.00368
G01 X20.51251 Y0.56396
G01 X20.69798 Y0.20000
G01 X20.98286 Y0.20000
G01 X20.94286 Y0.26927
G01 X20.74090 Y0.66563
G01 X20.58149 Y1.08095
G01 X20.52658 Y1.24993
G01 X20.41144 Y1.67963
G01 X20.34184 Y2.11902
G01 X20.32328 Y2.29575
G01 X20.29998 Y2.74000
G01 X20.32328 Y3.18425
G01 X20.34184 Y3.36095
G01 X20.41144 Y3.80035
G01 X20.46762 Y4.00997
G01 X20.41144 Y4.21963
G01 X20.34184 Y4.65902
G01 X20.32328 Y4.83575
G01 X20.29998 Y5.28000
G01 X20.31726 Y5.60967
G01 X20.42602 Y5.71330
G01 X20.05526 Y5.35998
G01 X14.78288 Y5.35998
G01 X14.78209 Y5.36418
G01 X14.78288 Y5.35998
G01 X14.55323 Y5.27185
G01 X14.09824 Y5.14993
G01 X13.92443 Y5.11297
G01 X13.45921 Y5.03928
G01 X12.98885 Y5.01465
G01 X12.81115 Y5.01465
G01 X12.34077 Y5.03928
G01 X11.87554 Y5.11297
G01 X11.70173 Y5.14993
G01 X11.24674 Y5.27185
G01 X10.80701 Y5.44063
G01 X10.64468 Y5.51292
G01 X10.22500 Y5.72676
G01 X9.82995 Y5.98330
G01 X9.68619 Y6.08774
G01 X9.32015 Y6.38414
G01 X8.98708 Y6.71723
G01 X8.86818 Y6.84929
G01 X8.57174 Y7.21533
G01 X8.31520 Y7.61037
G01 X8.22635 Y7.76427
G01 X8.01253 Y8.18396
G01 X7.84372 Y8.62368
G01 X7.78881 Y8.79269
G01 X7.66689 Y9.24766
G01 X7.59320 Y9.71288
G01 X7.57464 Y9.88962
G01 X7.55000 Y10.36000
G01 X7.57464 Y10.83036
G01 X7.59320 Y11.00709
G01 X7.62993 Y11.23897
G01 X7.55000 Y12.04999
G01 X7.55000 Y13.74999
G01 X7.63646 Y14.62789
G01 X7.89254 Y15.47205
G01 X8.30837 Y16.25006
G01 X8.68583 Y16.70997
G01 X8.30837 Y17.16992
G01 X7.89254 Y17.94792
G01 X7.63646 Y18.79209
G01 X7.55000 Y19.66999
G01 X7.55000 Y21.36999
G01 X7.63646 Y22.24789
G01 X7.89254 Y23.09205
G01 X8.30837 Y23.87006
G01 X8.86800 Y24.55197
G01 X9.54992 Y25.11161
G01 X10.32792 Y25.52746
G01 X10.56709 Y25.59997
G01 X10.32792 Y25.67252
G01 X9.54992 Y26.08837
G01 X8.86800 Y26.64800
G01 X8.30837 Y27.32992
G01 X7.89254 Y28.10792
G01 X7.63646 Y28.95209
G01 X7.55000 Y29.82999
G01 X7.55000 Y31.52999
G01 X7.62996 Y32.34093
G01 X7.59320 Y32.57288
G01 X7.57464 Y32.74962
G01 X7.55000 Y33.22000
G01 X7.57464 Y33.69036
G01 X7.59320 Y33.86709
G01 X7.66689 Y34.33232
G01 X7.70915 Y34.48997
G01 X7.66689 Y34.64766
G01 X7.59320 Y35.11288
G01 X7.57464 Y35.28962
G01 X7.55000 Y35.76000
G01 X7.57464 Y36.23036
G01 X7.59320 Y36.40709
G01 X7.66689 Y36.87232
G01 X7.70915 Y37.02997
G01 X7.66689 Y37.18766
G01 X7.65063 Y37.29035
G01 X7.64771 Y37.28880
G01 X7.63044 Y37.30445
G01 X6.82445 Y38.11044
G01 X6.58459 Y38.36990
G01 X6.53364 Y38.42956
G01 X6.11861 Y39.00084
G01 X6.07761 Y39.06774
G01 X5.75704 Y39.69690
G01 X5.72699 Y39.76939
G01 X5.50880 Y40.44097
G01 X5.49049 Y40.51727
G01 X5.38002 Y41.21470
G01 X5.35998 Y41.64599
G01 X5.35998 Y62.49998
G01 X5.38165 Y62.94105
G01 X5.39125 Y63.03858
G01 X5.56336 Y63.90378
G01 X5.59181 Y63.99759
G01 X5.92940 Y64.81257
G01 X5.97560 Y64.89903
G01 X6.46567 Y65.63251
G01 X6.52785 Y65.70828
G01 X6.82445 Y66.03548
G01 X9.56892 Y68.78000
G01 X9.21537 Y68.77997
G01 X6.64764 Y66.21226
G01 X6.33463 Y65.86687
G01 X6.27245 Y65.79111
G01 X5.75513 Y65.01686
G01 X5.70890 Y64.93043
G01 X5.35257 Y64.07015
G01 X5.32412 Y63.97635
G01 X5.14246 Y63.06309
G01 X5.13286 Y62.96553
G01 X5.11000 Y62.49998
G01 X5.11000 Y41.64599
G01 X5.12463 Y41.27330
G01 X5.13077 Y41.19509
G01 X5.24739 Y40.45890
G01 X5.26570 Y40.38260
G01 X5.49603 Y39.67373
G01 X5.52605 Y39.60124
G01 X5.86445 Y38.93711
G01 X5.90545 Y38.87023
G01 X6.34355 Y38.26721
G01 X6.39448 Y38.20754
G01 X6.64769 Y37.93368
G01 X7.41675 Y37.16459
G01 X7.57745 Y37.25146
G01 X7.41771 Y37.16508
G01 X7.45068 Y37.02997
G01 X7.42236 Y36.92428
G01 X7.34459 Y36.43323
G01 X7.32602 Y36.25649
G01 X7.29999 Y35.76000
G01 X7.32602 Y35.26348
G01 X7.34459 Y35.08675
G01 X7.42236 Y34.59569
G01 X7.45068 Y34.48997
G01 X7.42236 Y34.38428
G01 X7.34459 Y33.89323
G01 X7.32602 Y33.71649
G01 X7.29999 Y33.22000
G01 X7.32602 Y32.72348
G01 X7.34459 Y32.54675
G01 X7.37669 Y32.34406
G01 X7.13047 Y32.34708
G01 X7.05000 Y31.52999
G01 X7.05000 Y29.82999
G01 X7.14606 Y28.85453
G01 X7.43059 Y27.91658
G01 X7.89264 Y27.05214
G01 X8.51446 Y26.29446
G01 X9.27214 Y25.67264
G01 X9.40808 Y25.59997
G01 X9.27214 Y25.52730
G01 X8.51446 Y24.90551
G01 X7.89264 Y24.14783
G01 X7.43059 Y23.28339
G01 X7.14606 Y22.34545
G01 X7.05000 Y21.36999
G01 X7.05000 Y19.66999
G01 X7.14606 Y18.69453
G01 X7.43059 Y17.75658
G01 X7.89264 Y16.89214
G01 X8.04212 Y16.70997
G01 X7.89264 Y16.52783
G01 X7.43059 Y15.66339
G01 X7.14606 Y14.72545
G01 X7.05000 Y13.74999
G01 X7.05000 Y12.04999
G01 X7.13047 Y11.23287
G01 X8.13646 Y11.24521
G01 X8.09048 Y10.95482
G01 X8.07189 Y10.77811
G01 X8.05000 Y10.36000
G01 X8.07189 Y9.94186
G01 X8.09048 Y9.76516
G01 X8.15597 Y9.35162
G01 X8.26435 Y8.94720
G01 X8.31924 Y8.77819
G01 X8.46930 Y8.38731
G01 X8.65937 Y8.01426
G01 X8.74822 Y7.86036
G01 X8.97626 Y7.50923
G01 X9.23973 Y7.18386
G01 X9.35866 Y7.05180
G01 X9.65469 Y6.75574
G01 X9.98009 Y6.49224
G01 X10.12386 Y6.38780
G01 X10.47499 Y6.15975
G01 X10.84804 Y5.96969
G01 X11.01037 Y5.89740
G01 X11.40125 Y5.74736
G01 X11.80567 Y5.63900
G01 X11.97950 Y5.60205
G01 X12.39302 Y5.53656
G01 X12.81115 Y5.51464
G01 X12.98885 Y5.51464
G01 X13.40696 Y5.53656
G01 X13.82050 Y5.60205
G01 X13.99431 Y5.63900
G01 X14.39873 Y5.74736
G01 X14.69212 Y5.85998
G01 X14.69133 Y5.86417
G01 X14.69212 Y5.85998
G01 X20.58891 Y5.85998
G01 X20.60369 Y5.87329
G01 X20.58891 Y5.85998
G01 X20.57189 Y5.69811
G01 X20.55000 Y5.28000
G01 X20.57189 Y4.86186
G01 X20.59048 Y4.68516
G01 X20.65597 Y4.27162
G01 X20.72607 Y4.00997
G01 X20.65597 Y3.74835
G01 X20.59048 Y3.33482
G01 X20.57189 Y3.15811
G01 X20.55000 Y2.74000
G01 X20.57189 Y2.32186
G01 X20.59048 Y2.14516
G01 X20.65597 Y1.73162
G01 X20.76435 Y1.32720
G01 X20.81924 Y1.15819
G01 X20.96930 Y0.76731
G01 X21.15937 Y0.39426
G01 X21.24822 Y0.24036
G01 X21.27446 Y0.19997
G01 X21.57212 Y0.19997
G01 X21.46473 Y0.36538
G01 X21.37588 Y0.51925
G01 X21.19767 Y0.86901
G01 X21.05701 Y1.23546
G01 X21.00209 Y1.40444
G01 X20.90052 Y1.78359
G01 X20.83910 Y2.17127
G01 X20.82053 Y2.34800
G01 X20.79998 Y2.74000
G01 X20.82053 Y3.13197
G01 X20.83910 Y3.30868
G01 X20.90052 Y3.69639
G01 X20.98454 Y4.00997
G01 X20.90052 Y4.32359
G01 X20.83910 Y4.71127
G01 X20.82053 Y4.88800
G01 X20.79998 Y5.28000
G01 X20.82053 Y5.67197
G01 X20.83910 Y5.84871
G01 X20.88058 Y6.11058
G01 X20.98655 Y6.20136
G01 X20.60369 Y5.87329
G01 X20.42602 Y5.71330
G01 X19.94482 Y5.25475
G01 X19.46364 Y4.74561
G01 X19.34149 Y4.60997
G01 X14.91902 Y4.61000
G01 X14.91823 Y4.61416
G01 X14.91902 Y4.61000
G01 X14.78498 Y4.55854
G01 X14.25420 Y4.41632
G01 X14.08036 Y4.37937
G01 X13.53762 Y4.29341
G01 X12.98885 Y4.26463
G01 X12.81115 Y4.26463
G01 X12.26236 Y4.29341
G01 X11.71961 Y4.37937
G01 X11.54580 Y4.41632
G01 X11.01499 Y4.55854
G01 X10.50196 Y4.75546
G01 X10.33963 Y4.82775
G01 X9.84999 Y5.07723
G01 X9.38911 Y5.37652
G01 X9.24535 Y5.48096
G01 X8.81830 Y5.82681
G01 X8.42973 Y6.21538
G01 X8.31080 Y6.34743
G01 X7.96498 Y6.77448
G01 X7.66569 Y7.23537
G01 X7.57685 Y7.38927
G01 X7.32737 Y7.87890
G01 X7.13041 Y8.39193
G01 X7.07553 Y8.56092
G01 X6.93329 Y9.09173
G01 X6.84733 Y9.63450
G01 X6.82874 Y9.81121
G01 X6.79999 Y10.36000
G01 X6.82874 Y10.90877
G01 X6.84733 Y11.08547
G01 X6.87017 Y11.22967
G01 X8.38972 Y11.24831
G01 X8.33910 Y10.92871
G01 X8.32053 Y10.75197
G01 X8.29998 Y10.36000
G01 X8.32053 Y9.96800
G01 X8.33910 Y9.79127
G01 X8.40052 Y9.40359
G01 X8.50209 Y9.02444
G01 X8.55701 Y8.85546
G01 X8.69767 Y8.48901
G01 X8.87588 Y8.13925
G01 X8.96473 Y7.98538
G01 X9.17852 Y7.65617
G01 X9.42553 Y7.35114
G01 X9.54443 Y7.21909
G01 X9.82198 Y6.94152
G01 X10.12703 Y6.69450
G01 X10.27079 Y6.59006
G01 X10.59998 Y6.37624
G01 X10.94974 Y6.19808
G01 X11.11207 Y6.12579
G01 X11.47851 Y5.98513
G01 X11.85766 Y5.88353
G01 X12.03147 Y5.84660
G01 X12.41915 Y5.78518
G01 X12.81115 Y5.76463
G01 X12.98885 Y5.76463
G01 X13.38082 Y5.78518
G01 X13.76850 Y5.84660
G01 X13.94231 Y5.88353
G01 X14.32146 Y5.98513
G01 X14.64673 Y6.11000
G01 X14.64594 Y6.11416
G01 X14.64673 Y6.11000
G01 X20.87989 Y6.11000
G01 X20.98655 Y6.20136
G01 X21.19252 Y6.35996
G01 X14.59926 Y6.35996
G01 X14.59847 Y6.36422
G01 X14.59926 Y6.35996
G01 X14.58623 Y6.35419
G01 X14.24422 Y6.22290
G01 X13.89035 Y6.12808
G01 X13.71653 Y6.09112
G01 X13.35468 Y6.03382
G01 X12.98885 Y6.01464
G01 X12.81115 Y6.01464
G01 X12.44529 Y6.03382
G01 X12.08344 Y6.09112
G01 X11.90963 Y6.12808
G01 X11.55576 Y6.22290
G01 X11.21374 Y6.35419
G01 X11.05141 Y6.42645
G01 X10.72500 Y6.59277
G01 X10.41773 Y6.79232
G01 X10.27397 Y6.89676
G01 X9.98926 Y7.12732
G01 X9.73023 Y7.38635
G01 X9.61131 Y7.51843
G01 X9.38075 Y7.80313
G01 X9.18124 Y8.11037
G01 X9.09239 Y8.26427
G01 X8.92607 Y8.59069
G01 X8.79478 Y8.93270
G01 X8.73986 Y9.10171
G01 X8.64504 Y9.45558
G01 X8.58774 Y9.81740
G01 X8.56917 Y9.99414
G01 X8.55000 Y10.36000
G01 X8.56917 Y10.72584
G01 X8.58774 Y10.90257
G01 X8.64298 Y11.25141
G01 X8.13427 Y11.24519
G01 X8.12686 Y11.26962
G01 X8.05000 Y12.04999
G01 X8.05000 Y13.74999
G01 X8.12686 Y14.53035
G01 X8.35447 Y15.28072
G01 X8.72411 Y15.97226
G01 X9.22157 Y16.57840
G01 X9.38190 Y16.70997
G01 X9.22157 Y16.84157
G01 X8.72411 Y17.44772
G01 X8.35447 Y18.13926
G01 X8.12686 Y18.88962
G01 X8.05000 Y19.66999
G01 X8.05000 Y21.36999
G01 X8.12686 Y22.15035
G01 X8.35447 Y22.90072
G01 X8.72411 Y23.59226
G01 X9.22157 Y24.19840
G01 X9.82772 Y24.69586
G01 X10.51926 Y25.06551
G01 X11.26962 Y25.29312
G01 X12.04999 Y25.36998
G01 X13.74999 Y25.36998
G01 X14.53035 Y25.29312
G01 X15.28072 Y25.06551
G01 X15.36588 Y25.01999
G01 X15.36400 Y25.01250
G01 X15.36588 Y25.01999
G01 X20.58891 Y25.01997
G01 X20.57189 Y25.18186
G01 X20.55000 Y25.59997
G01 X20.57189 Y26.01811
G01 X20.58899 Y26.18069
G01 X20.60293 Y26.19334
G01 X20.59208 Y26.18351
G01 X20.52000 Y26.17998
G01 X15.36588 Y26.17998
G01 X15.36400 Y26.18745
G01 X15.36588 Y26.17998
G01 X15.28072 Y26.13444
G01 X14.53035 Y25.90686
G01 X13.74999 Y25.83000
G01 X12.04999 Y25.83000
G01 X11.26962 Y25.90686
G01 X10.51926 Y26.13444
G01 X9.82772 Y26.50411
G01 X9.22157 Y27.00157
G01 X8.72411 Y27.60772
G01 X8.35447 Y28.29926
G01 X8.12686 Y29.04962
G01 X8.05000 Y29.82999
G01 X8.05000 Y31.52999
G01 X8.12686 Y32.31035
G01 X8.13425 Y32.33476
G01 X8.38972 Y32.33163
G01 X8.33910 Y32.65127
G01 X8.32053 Y32.82800
G01 X8.29998 Y33.22000
G01 X8.32053 Y33.61197
G01 X8.33910 Y33.78871
G01 X8.40052 Y34.17639
G01 X8.48454 Y34.48997
G01 X8.40052 Y34.80359
G01 X8.33910 Y35.19127
G01 X8.32053 Y35.36800
G01 X8.29998 Y35.76000
G01 X8.32053 Y36.15197
G01 X8.33910 Y36.32871
G01 X8.40052 Y36.71639
G01 X8.48454 Y37.02997
G01 X8.40052 Y37.34359
G01 X8.35081 Y37.66254
G01 X8.16077 Y37.83477
G01 X7.35477 Y38.64077
G01 X7.15490 Y38.85700
G01 X7.10395 Y38.91666
G01 X6.75808 Y39.39271
G01 X6.71708 Y39.45961
G01 X6.44992 Y39.98392
G01 X6.41988 Y40.05641
G01 X6.23806 Y40.61605
G01 X6.21975 Y40.69235
G01 X6.12770 Y41.27355
G01 X6.12155 Y41.35176
G01 X6.11000 Y41.64599
G01 X6.11000 Y62.49998
G01 X6.12805 Y62.86751
G01 X6.13766 Y62.96508
G01 X6.28106 Y63.68608
G01 X6.30951 Y63.77986
G01 X6.59084 Y64.45903
G01 X6.63705 Y64.54549
G01 X7.04545 Y65.15671
G01 X7.10763 Y65.23248
G01 X7.35477 Y65.50515
G01 X10.62957 Y68.78000
G01 X9.92248 Y68.78000
G01 X7.00123 Y65.85872
G01 X6.72112 Y65.54968
G01 X6.65894 Y65.47391
G01 X6.19608 Y64.78118
G01 X6.14987 Y64.69474
G01 X5.83105 Y63.92502
G01 X5.80260 Y63.83122
G01 X5.64007 Y63.01407
G01 X5.63044 Y62.91654
G01 X5.61000 Y62.49998
G01 X5.61000 Y41.64599
G01 X5.62925 Y41.23431
G01 X5.73357 Y40.57561
G01 X5.75188 Y40.49933
G01 X5.95798 Y39.86507
G01 X5.98800 Y39.79258
G01 X6.29077 Y39.19837
G01 X6.33176 Y39.13147
G01 X6.72376 Y38.59192
G01 X6.77471 Y38.53228
G01 X7.00123 Y38.28722
G01 X7.80722 Y37.48123
G01 X7.88378 Y37.41428
G01 X7.18729 Y37.04052
G01 X6.47090 Y37.75690
G01 X6.20441 Y38.04519
G01 X6.15345 Y38.10485
G01 X5.69227 Y38.73960
G01 X5.65127 Y38.80650
G01 X5.29509 Y39.50556
G01 X5.26506 Y39.57805
G01 X5.02262 Y40.32425
G01 X5.00428 Y40.40053
G01 X4.88155 Y41.17546
G01 X4.87540 Y41.25369
G01 X4.85999 Y41.64599
G01 X4.85999 Y62.49998
G01 X4.88406 Y62.99004
G01 X4.89367 Y63.08758
G01 X5.08490 Y64.04892
G01 X5.11335 Y64.14272
G01 X5.48843 Y65.04828
G01 X5.53463 Y65.13472
G01 X6.07919 Y65.94970
G01 X6.14136 Y66.02547
G01 X6.47088 Y66.38905
G01 X8.86183 Y68.78000
G01 X10.27603 Y68.77997
G01 X7.17799 Y65.68194
G01 X6.91439 Y65.39108
G01 X6.85221 Y65.31531
G01 X6.41655 Y64.66332
G01 X6.37035 Y64.57688
G01 X6.07030 Y63.85245
G01 X6.04182 Y63.75865
G01 X5.88886 Y62.98959
G01 X5.87924 Y62.89203
G01 X5.85998 Y62.49998
G01 X5.85998 Y41.64599
G01 X5.87847 Y41.25392
G01 X5.97667 Y40.63398
G01 X5.99498 Y40.55768
G01 X6.18894 Y39.96073
G01 X6.21896 Y39.88826
G01 X6.50392 Y39.32898
G01 X6.54492 Y39.26210
G01 X6.91385 Y38.75430
G01 X7.17801 Y38.46401
G01 X7.98401 Y37.65801
G01 X8.11644 Y37.53797
G01 X8.51527 Y37.74996
G01 X7.88378 Y37.41428
G01 X7.91144 Y37.23963
G01 X7.96762 Y37.02997
G01 X7.91144 Y36.82035
G01 X7.84184 Y36.38095
G01 X7.82328 Y36.20425
G01 X7.79998 Y35.76000
G01 X7.82328 Y35.31575
G01 X7.84184 Y35.13902
G01 X7.91144 Y34.69963
G01 X7.96762 Y34.48997
G01 X7.91144 Y34.28035
G01 X7.84184 Y33.84095
G01 X7.82328 Y33.66425
G01 X7.79998 Y33.22000
G01 X7.82328 Y32.77575
G01 X7.84184 Y32.59902
G01 X7.88322 Y32.33783
G01 X8.91134 Y32.32521
G01 X8.90090 Y32.32536
G01 X8.88959 Y32.36755
G01 X8.83636 Y32.70354
G01 X8.81779 Y32.88027
G01 X8.79998 Y33.22000
G01 X8.81779 Y33.55970
G01 X8.83636 Y33.73643
G01 X8.88959 Y34.07242
G01 X8.97763 Y34.40102
G01 X9.00654 Y34.48997
G01 X8.97763 Y34.57895
G01 X8.88959 Y34.90755
G01 X8.83636 Y35.24354
G01 X8.81779 Y35.42027
G01 X8.79998 Y35.76000
G01 X8.81779 Y36.09970
G01 X8.83636 Y36.27643
G01 X8.88959 Y36.61242
G01 X8.97763 Y36.94102
G01 X9.00654 Y37.02997
G01 X8.97763 Y37.11895
G01 X8.88959 Y37.44755
G01 X8.83636 Y37.78354
G01 X8.82254 Y37.91514
G01 X8.75066 Y37.97414
G01 X8.51433 Y38.18834
G01 X7.70834 Y38.99433
G01 X7.48416 Y39.24137
G01 X7.18439 Y39.65397
G01 X7.14339 Y39.72088
G01 X6.91187 Y40.17526
G01 X6.88185 Y40.24775
G01 X6.72427 Y40.73279
G01 X6.70593 Y40.80906
G01 X6.62615 Y41.31277
G01 X6.61998 Y41.39098
G01 X6.60999 Y41.64599
G01 X6.60999 Y62.49998
G01 X6.62562 Y62.81852
G01 X6.63524 Y62.91605
G01 X6.75952 Y63.54092
G01 X6.78800 Y63.63472
G01 X7.03179 Y64.22334
G01 X7.07801 Y64.30978
G01 X7.43196 Y64.83952
G01 X7.49414 Y64.91529
G01 X7.70832 Y65.15161
G01 X11.33668 Y68.77997
G01 X10.98314 Y68.77997
G01 X7.53156 Y65.32839
G01 X7.30090 Y65.07389
G01 X7.23872 Y64.99812
G01 X6.85752 Y64.42763
G01 X6.81131 Y64.34120
G01 X6.54875 Y63.70729
G01 X6.52031 Y63.61351
G01 X6.38645 Y62.94056
G01 X6.37682 Y62.84303
G01 X6.35996 Y62.49998
G01 X6.35996 Y41.64599
G01 X6.37075 Y41.37137
G01 X6.37692 Y41.29316
G01 X6.46283 Y40.75069
G01 X6.48117 Y40.67442
G01 X6.65089 Y40.15209
G01 X6.68091 Y40.07960
G01 X6.93024 Y39.59024
G01 X6.97123 Y39.52334
G01 X7.29407 Y39.07902
G01 X7.53156 Y38.81755
G01 X8.33755 Y38.01156
G01 X8.58502 Y37.78728
G01 X8.60702 Y37.79906
G01 X8.58462 Y37.78705
G01 X8.64504 Y37.39558
G01 X8.74367 Y37.02997
G01 X8.64504 Y36.66439
G01 X8.58774 Y36.30257
G01 X8.56917 Y36.12584
G01 X8.55000 Y35.76000
G01 X8.56917 Y35.39414
G01 X8.58774 Y35.21740
G01 X8.64504 Y34.85558
G01 X8.74367 Y34.48997
G01 X8.64504 Y34.12439
G01 X8.58774 Y33.76257
G01 X8.56917 Y33.58584
G01 X8.55000 Y33.22000
G01 X8.56917 Y32.85414
G01 X8.58774 Y32.67740
G01 X8.64298 Y32.32854
G01 X8.39328 Y32.33158
G01 X8.37204 Y32.26158
G01 X8.29998 Y31.52999
G01 X8.29998 Y29.82999
G01 X8.37204 Y29.09839
G01 X8.58543 Y28.39491
G01 X8.93199 Y27.74660
G01 X9.39833 Y27.17833
G01 X9.96660 Y26.71199
G01 X10.61491 Y26.36543
G01 X11.31839 Y26.15204
G01 X12.04999 Y26.07998
G01 X13.74999 Y26.07998
G01 X14.48158 Y26.15204
G01 X15.18506 Y26.36543
G01 X15.30581 Y26.43000
G01 X15.30393 Y26.43746
G01 X15.30581 Y26.43000
G01 X20.52000 Y26.43000
G01 X20.87946 Y26.44760
G01 X20.88393 Y26.45174
G01 X20.83910 Y26.16871
G01 X20.82053 Y25.99197
G01 X20.79998 Y25.59997
G01 X20.82053 Y25.20800
G01 X20.83910 Y25.03127
G01 X20.88058 Y24.76937
G01 X15.30581 Y24.76998
G01 X15.30393 Y24.76249
G01 X15.30581 Y24.76998
G01 X15.18506 Y24.83455
G01 X14.48158 Y25.04793
G01 X13.74999 Y25.11999
G01 X12.04999 Y25.11999
G01 X11.31839 Y25.04793
G01 X10.61491 Y24.83455
G01 X9.96660 Y24.48799
G01 X9.39833 Y24.02164
G01 X8.93199 Y23.45337
G01 X8.58543 Y22.80506
G01 X8.37204 Y22.10158
G01 X8.29998 Y21.36999
G01 X8.29998 Y19.66999
G01 X8.37204 Y18.93839
G01 X8.58543 Y18.23491
G01 X8.93199 Y17.58660
G01 X9.39833 Y17.01833
G01 X9.77407 Y16.70997
G01 X9.39833 Y16.40164
G01 X8.93199 Y15.83337
G01 X8.58543 Y15.18506
G01 X8.37204 Y14.48158
G01 X8.29998 Y13.74999
G01 X8.29998 Y12.04999
G01 X8.37204 Y11.31839
G01 X8.39330 Y11.24836
G01 X8.90087 Y11.25456
G01 X8.65231 Y11.25154
G01 X8.61723 Y11.36716
G01 X8.55000 Y12.04999
G01 X8.55000 Y13.74999
G01 X8.61723 Y14.43281
G01 X8.81642 Y15.08938
G01 X9.13983 Y15.69448
G01 X9.57511 Y16.22486
G01 X10.10549 Y16.66014
G01 X10.19879 Y16.70997
G01 X10.10549 Y16.75983
G01 X9.57511 Y17.19511
G01 X9.13983 Y17.72549
G01 X8.81642 Y18.33060
G01 X8.61723 Y18.98716
G01 X8.55000 Y19.66999
G01 X8.55000 Y21.36999
G01 X8.61723 Y22.05281
G01 X8.81642 Y22.70938
G01 X9.13983 Y23.31448
G01 X9.57511 Y23.84486
G01 X10.10549 Y24.28014
G01 X10.71060 Y24.60356
G01 X11.36716 Y24.80274
G01 X12.04999 Y24.86998
G01 X13.74999 Y24.86998
G01 X14.43281 Y24.80274
G01 X15.08938 Y24.60356
G01 X15.24574 Y24.51999
G01 X15.24386 Y24.51250
G01 X15.24574 Y24.51999
G01 X21.19249 Y24.51999
G01 X21.14504 Y24.69558
G01 X21.08774 Y25.05740
G01 X21.06917 Y25.23414
G01 X21.05000 Y25.59997
G01 X21.06917 Y25.96584
G01 X21.08774 Y26.14254
G01 X21.14504 Y26.50439
G01 X21.20930 Y26.74424
G01 X21.34949 Y26.86997
G01 X21.52823 Y27.18674
G01 X21.45256 Y27.05247
G01 X21.50654 Y26.86997
G01 X21.47763 Y26.78102
G01 X21.38959 Y26.45242
G01 X21.33636 Y26.11643
G01 X21.31779 Y25.93967
G01 X21.29998 Y25.59997
G01 X21.31779 Y25.26027
G01 X21.33636 Y25.08354
G01 X21.38959 Y24.74755
G01 X21.47763 Y24.41895
G01 X21.50654 Y24.32997
G01 X21.48703 Y24.26998
G01 X15.18567 Y24.26998
G01 X15.18382 Y24.26249
G01 X15.18567 Y24.26998
G01 X14.99370 Y24.37260
G01 X14.38402 Y24.55753
G01 X13.74999 Y24.61999
G01 X12.04999 Y24.61999
G01 X11.41595 Y24.55753
G01 X10.80628 Y24.37260
G01 X10.24438 Y24.07227
G01 X9.75190 Y23.66808
G01 X9.34771 Y23.17560
G01 X9.04738 Y22.61370
G01 X8.86244 Y22.00402
G01 X8.79998 Y21.36999
G01 X8.79998 Y19.66999
G01 X8.86244 Y19.03595
G01 X9.04738 Y18.42628
G01 X9.34771 Y17.86438
G01 X9.75190 Y17.37190
G01 X10.24438 Y16.96771
G01 X10.72657 Y16.70997
G01 X10.24438 Y16.45227
G01 X9.75190 Y16.04808
G01 X9.34771 Y15.55559
G01 X9.04738 Y14.99370
G01 X8.86244 Y14.38402
G01 X8.79998 Y13.74999
G01 X8.79998 Y12.04999
G01 X8.86244 Y11.41595
G01 X8.91134 Y11.25471
G01 X9.16021 Y11.25774
G01 X9.13412 Y11.16046
G01 X9.08500 Y10.85030
G01 X9.06643 Y10.67356
G01 X9.04999 Y10.36000
G01 X9.06643 Y10.04641
G01 X9.08500 Y9.86968
G01 X9.13412 Y9.55952
G01 X9.21540 Y9.25622
G01 X9.27031 Y9.08721
G01 X9.38284 Y8.79404
G01 X9.52541 Y8.51426
G01 X9.61426 Y8.36036
G01 X9.78527 Y8.09701
G01 X9.98289 Y7.85297
G01 X10.10178 Y7.72091
G01 X10.32383 Y7.49887
G01 X10.56787 Y7.30126
G01 X10.71164 Y7.19681
G01 X10.97498 Y7.02579
G01 X11.25477 Y6.88322
G01 X11.41712 Y6.81096
G01 X11.71026 Y6.69841
G01 X12.01359 Y6.61716
G01 X12.18740 Y6.58020
G01 X12.49756 Y6.53108
G01 X12.81115 Y6.51464
G01 X12.98885 Y6.51464
G01 X13.30241 Y6.53108
G01 X13.61257 Y6.58020
G01 X13.78638 Y6.61716
G01 X14.08971 Y6.69841
G01 X14.38285 Y6.81096
G01 X14.49299 Y6.85998
G01 X14.49212 Y6.86450
G01 X14.49299 Y6.85998
G01 X21.67636 Y6.85998
G01 X21.81212 Y7.03786
G01 X21.87341 Y7.10999
G01 X21.87865 Y7.07151
G01 X21.95314 Y6.79346
G01 X22.00806 Y6.62445
G01 X22.03666 Y6.54997
G01 X22.00806 Y6.47548
G01 X21.95314 Y6.30652
G01 X21.87865 Y6.02846
G01 X21.83364 Y5.74416
G01 X21.81504 Y5.56745
G01 X21.79998 Y5.28000
G01 X21.81504 Y4.99252
G01 X21.83364 Y4.81581
G01 X21.87865 Y4.53151
G01 X21.95314 Y4.25346
G01 X22.00806 Y4.08447
G01 X22.03666 Y4.00997
G01 X22.00806 Y3.93550
G01 X21.95314 Y3.76652
G01 X21.87865 Y3.48846
G01 X21.83364 Y3.20416
G01 X21.81504 Y3.02745
G01 X21.79998 Y2.74000
G01 X21.81504 Y2.45252
G01 X21.83364 Y2.27581
G01 X21.87865 Y1.99151
G01 X21.95314 Y1.71346
G01 X22.00806 Y1.54447
G01 X22.11123 Y1.27574
G01 X22.24192 Y1.01925
G01 X22.33077 Y0.86538
G01 X22.48753 Y0.62395
G01 X22.66869 Y0.40025
G01 X22.78758 Y0.26820
G01 X22.85578 Y0.20000
G01 X22.51258 Y0.20000
G01 X22.28527 Y0.47701
G01 X22.11426 Y0.74036
G01 X22.02541 Y0.89426
G01 X21.88284 Y1.17404
G01 X21.77031 Y1.46721
G01 X21.71540 Y1.63622
G01 X21.63412 Y1.93952
G01 X21.58500 Y2.24968
G01 X21.56643 Y2.42641
G01 X21.54999 Y2.74000
G01 X21.56643 Y3.05356
G01 X21.58500 Y3.23030
G01 X21.63412 Y3.54046
G01 X21.71540 Y3.84376
G01 X21.76940 Y4.00997
G01 X21.71540 Y4.17622
G01 X21.63412 Y4.47952
G01 X21.58500 Y4.78968
G01 X21.56643 Y4.96641
G01 X21.54999 Y5.28000
G01 X21.56643 Y5.59356
G01 X21.58500 Y5.77030
G01 X21.63412 Y6.08046
G01 X21.71540 Y6.38376
G01 X21.76940 Y6.54997
G01 X21.71540 Y6.71622
G01 X21.67674 Y6.86049
G01 X21.81212 Y7.03786
G01 X22.08581 Y7.35998
G01 X21.87341 Y7.10999
G01 X14.43985 Y7.10999
G01 X14.43893 Y7.11464
G01 X14.43985 Y7.10999
G01 X14.28118 Y7.03933
G01 X14.01244 Y6.93618
G01 X13.73442 Y6.86168
G01 X13.56060 Y6.82473
G01 X13.27628 Y6.77972
G01 X12.98885 Y6.76465
G01 X12.81115 Y6.76465
G01 X12.52367 Y6.77972
G01 X12.23937 Y6.82473
G01 X12.06556 Y6.86168
G01 X11.78753 Y6.93618
G01 X11.51880 Y7.03933
G01 X11.35647 Y7.11162
G01 X11.09998 Y7.24230
G01 X10.85858 Y7.39907
G01 X10.71481 Y7.50352
G01 X10.49111 Y7.68467
G01 X10.28758 Y7.88820
G01 X10.16869 Y8.02025
G01 X9.98753 Y8.24395
G01 X9.83077 Y8.48538
G01 X9.74192 Y8.63925
G01 X9.61123 Y8.89574
G01 X9.50806 Y9.16447
G01 X9.45317 Y9.33346
G01 X9.37865 Y9.61151
G01 X9.33364 Y9.89581
G01 X9.31504 Y10.07252
G01 X9.29998 Y10.36000
G01 X9.31504 Y10.64745
G01 X9.33364 Y10.82416
G01 X9.37865 Y11.10846
G01 X9.41951 Y11.26094
G01 X6.88076 Y11.22980
G01 X6.79999 Y12.04999
G01 X6.79999 Y13.74999
G01 X6.90088 Y14.77421
G01 X7.19963 Y15.75907
G01 X7.68477 Y16.66674
G01 X7.72028 Y16.70997
G01 X11.64394 Y16.70997
G01 X11.46472 Y16.72763
G01 X10.90193 Y16.89834
G01 X10.38327 Y17.17558
G01 X9.92866 Y17.54866
G01 X9.55558 Y18.00327
G01 X9.27834 Y18.52193
G01 X9.10763 Y19.08472
G01 X9.04999 Y19.66999
G01 X9.04999 Y21.36999
G01 X9.10763 Y21.95525
G01 X9.27834 Y22.51804
G01 X9.55558 Y23.03671
G01 X9.92866 Y23.49132
G01 X10.38327 Y23.86439
G01 X10.90193 Y24.14163
G01 X11.46472 Y24.31235
G01 X12.04999 Y24.36998
G01 X13.74999 Y24.36998
G01 X14.33525 Y24.31235
G01 X14.89804 Y24.14163
G01 X15.12562 Y24.01999
G01 X15.12374 Y24.01250
G01 X15.12562 Y24.01999
G01 X21.67674 Y24.01946
G01 X21.71540 Y24.16376
G01 X21.76940 Y24.32997
G01 X21.71540 Y24.49622
G01 X21.63412 Y24.79952
G01 X21.58500 Y25.10968
G01 X21.56643 Y25.28641
G01 X21.54999 Y25.59997
G01 X21.56643 Y25.91356
G01 X21.58500 Y26.09030
G01 X21.63412 Y26.40046
G01 X21.71540 Y26.70376
G01 X21.76940 Y26.86997
G01 X21.71540 Y27.03622
G01 X21.63412 Y27.33952
G01 X21.63102 Y27.36469
G01 X21.45256 Y27.05247
G01 X21.25157 Y27.00205
G01 X20.93608 Y26.95524
G01 X20.83854 Y26.94564
G01 X20.52000 Y26.92999
G01 X15.18567 Y26.92999
G01 X15.18379 Y26.93746
G01 X15.18567 Y26.92999
G01 X14.99370 Y26.82738
G01 X14.38402 Y26.64244
G01 X13.74999 Y26.57998
G01 X12.04999 Y26.57998
G01 X11.41595 Y26.64244
G01 X10.80628 Y26.82738
G01 X10.24438 Y27.12771
G01 X9.75190 Y27.53190
G01 X9.34771 Y28.02438
G01 X9.04738 Y28.58628
G01 X8.86244 Y29.19595
G01 X8.79998 Y29.82999
G01 X8.79998 Y31.52999
G01 X8.86244 Y32.16402
G01 X8.91134 Y32.32523
G01 X9.42939 Y32.31886
G01 X9.35284 Y32.06648
G01 X9.29998 Y31.52999
G01 X9.29998 Y29.82999
G01 X9.35284 Y29.29349
G01 X9.50933 Y28.77762
G01 X9.76346 Y28.30218
G01 X10.10544 Y27.88544
G01 X10.52218 Y27.54346
G01 X10.99762 Y27.28933
G01 X11.51349 Y27.13284
G01 X12.04999 Y27.07998
G01 X13.74999 Y27.07998
G01 X14.28648 Y27.13284
G01 X14.80236 Y27.28933
G01 X15.06553 Y27.42999
G01 X15.06365 Y27.43749
G01 X15.06553 Y27.42999
G01 X20.52000 Y27.42999
G01 X20.78954 Y27.44323
G01 X20.88708 Y27.45283
G01 X21.15403 Y27.49243
G01 X21.41581 Y27.55801
G01 X21.50961 Y27.58646
G01 X21.76371 Y27.67739
G01 X21.83183 Y27.70960
G01 X21.91852 Y27.86352
G01 X21.63102 Y27.36466
G01 X21.48837 Y27.31877
G01 X21.20280 Y27.24724
G01 X20.91159 Y27.20403
G01 X20.81403 Y27.19443
G01 X20.52000 Y27.17998
G01 X15.12560 Y27.17998
G01 X15.12372 Y27.18747
G01 X15.12560 Y27.17998
G01 X14.89804 Y27.05834
G01 X14.33525 Y26.88763
G01 X13.74999 Y26.82999
G01 X12.04999 Y26.82999
G01 X11.46472 Y26.88763
G01 X10.90193 Y27.05834
G01 X10.38327 Y27.33558
G01 X9.92866 Y27.70866
G01 X9.55558 Y28.16327
G01 X9.27834 Y28.68193
G01 X9.10763 Y29.24472
G01 X9.04999 Y29.82999
G01 X9.04999 Y31.52999
G01 X9.10763 Y32.11525
G01 X9.17037 Y32.32206
G01 X9.16021 Y32.32219
G01 X9.13412 Y32.41952
G01 X9.08500 Y32.72968
G01 X9.06643 Y32.90641
G01 X9.04999 Y33.22000
G01 X9.06643 Y33.53356
G01 X9.08500 Y33.71030
G01 X9.13412 Y34.02046
G01 X9.21540 Y34.32376
G01 X9.26940 Y34.48997
G01 X9.21540 Y34.65622
G01 X9.13412 Y34.95952
G01 X9.08500 Y35.26968
G01 X9.06643 Y35.44641
G01 X9.04999 Y35.76000
G01 X9.06643 Y36.07356
G01 X9.08500 Y36.25030
G01 X9.13412 Y36.56046
G01 X9.21540 Y36.86376
G01 X9.26940 Y37.02997
G01 X9.21540 Y37.19622
G01 X9.13412 Y37.49952
G01 X9.08500 Y37.80968
G01 X9.06328 Y38.04633
G01 X9.31497 Y38.18397
G01 X8.82254 Y37.91514
G01 X8.11693 Y37.53820
G01 X8.15597 Y37.29162
G01 X8.22607 Y37.02997
G01 X8.15597 Y36.76835
G01 X8.09048 Y36.35482
G01 X8.07189 Y36.17811
G01 X8.05000 Y35.76000
G01 X8.07189 Y35.34186
G01 X8.09048 Y35.16516
G01 X8.15597 Y34.75162
G01 X8.22607 Y34.48997
G01 X8.15597 Y34.22835
G01 X8.09048 Y33.81482
G01 X8.07189 Y33.63811
G01 X8.05000 Y33.22000
G01 X8.07189 Y32.80186
G01 X8.09048 Y32.62516
G01 X8.13646 Y32.33476
G01 X8.65231 Y32.32841
G01 X8.61723 Y32.21281
G01 X8.55000 Y31.52999
G01 X8.55000 Y29.82999
G01 X8.61723 Y29.14716
G01 X8.81642 Y28.49060
G01 X9.13983 Y27.88549
G01 X9.57511 Y27.35511
G01 X10.10549 Y26.91983
G01 X10.71060 Y26.59639
G01 X11.36716 Y26.39723
G01 X12.04999 Y26.32997
G01 X13.74999 Y26.32997
G01 X14.43281 Y26.39723
G01 X15.08938 Y26.59639
G01 X15.24574 Y26.67998
G01 X15.24386 Y26.68748
G01 X15.24574 Y26.67998
G01 X20.52000 Y26.67998
G01 X20.86305 Y26.69685
G01 X20.96059 Y26.70645
G01 X21.20809 Y26.74313
G01 X20.42602 Y26.03330
G01 X19.96999 Y25.59997
G01 X8.96849 Y25.59997
G01 X8.33768 Y26.11765
G01 X7.68477 Y26.91326
G01 X7.19963 Y27.82090
G01 X6.90088 Y28.80576
G01 X6.79999 Y29.82999
G01 X6.79999 Y31.52999
G01 X6.88076 Y32.35015
G01 X9.67885 Y32.31581
G01 X9.62320 Y32.52348
G01 X9.58225 Y32.78195
G01 X9.56368 Y32.95866
G01 X9.54999 Y33.22000
G01 X9.56368 Y33.48131
G01 X9.58225 Y33.65802
G01 X9.62320 Y33.91649
G01 X9.69091 Y34.16925
G01 X9.74583 Y34.33826
G01 X9.80407 Y34.48997
G01 X9.74583 Y34.64171
G01 X9.69091 Y34.81073
G01 X9.62320 Y35.06348
G01 X9.58225 Y35.32195
G01 X9.56368 Y35.49866
G01 X9.54999 Y35.76000
G01 X9.56368 Y36.02131
G01 X9.58225 Y36.19802
G01 X9.62320 Y36.45649
G01 X9.69091 Y36.70925
G01 X9.74583 Y36.87826
G01 X9.80407 Y37.02997
G01 X9.74583 Y37.18171
G01 X9.69091 Y37.35073
G01 X9.62320 Y37.60348
G01 X9.58225 Y37.86195
G01 X9.56368 Y38.03866
G01 X9.54999 Y38.30000
G01 X9.55065 Y38.31288
G01 X9.84593 Y38.47437
G01 X9.31497 Y38.18397
G01 X9.14362 Y38.29848
G01 X9.06785 Y38.36065
G01 X8.86788 Y38.54188
G01 X8.06188 Y39.34788
G01 X7.86437 Y39.56611
G01 X7.61073 Y39.91521
G01 X7.56973 Y39.98211
G01 X7.37382 Y40.36659
G01 X7.34380 Y40.43909
G01 X7.21045 Y40.84950
G01 X7.19214 Y40.92578
G01 X7.12462 Y41.35199
G01 X7.10999 Y41.64599
G01 X7.10999 Y62.49998
G01 X7.12323 Y62.76952
G01 X7.13283 Y62.86706
G01 X7.23801 Y63.39578
G01 X7.26646 Y63.48959
G01 X7.47276 Y63.98763
G01 X7.51896 Y64.07409
G01 X7.81848 Y64.52232
G01 X7.88065 Y64.59809
G01 X8.06188 Y64.79804
G01 X11.80188 Y68.53806
G01 X11.96045 Y68.68465
G01 X12.02009 Y68.73560
G01 X12.08118 Y68.77997
G01 X11.69556 Y68.78000
G01 X11.62510 Y68.71485
G01 X7.88510 Y64.97483
G01 X7.68739 Y64.75669
G01 X7.62521 Y64.68092
G01 X7.29849 Y64.19192
G01 X7.25228 Y64.10549
G01 X7.02721 Y63.56215
G01 X6.99877 Y63.46835
G01 X6.88403 Y62.89157
G01 X6.87443 Y62.79401
G01 X6.85998 Y62.49998
G01 X6.85998 Y41.64599
G01 X6.87540 Y41.33238
G01 X6.94903 Y40.86743
G01 X6.96735 Y40.79113
G01 X7.11281 Y40.34343
G01 X7.14284 Y40.27094
G01 X7.35655 Y39.85148
G01 X7.39755 Y39.78458
G01 X7.67425 Y39.40373
G01 X7.72521 Y39.34409
G01 X7.88513 Y39.17112
G01 X8.69112 Y38.36513
G01 X8.90925 Y38.16741
G01 X8.98502 Y38.10523
G01 X9.06869 Y38.04930
G01 X9.30633 Y38.17922
G01 X9.31504 Y38.01252
G01 X9.33364 Y37.83581
G01 X9.37865 Y37.55151
G01 X9.45317 Y37.27346
G01 X9.50806 Y37.10447
G01 X9.53666 Y37.02997
G01 X9.50806 Y36.95550
G01 X9.45317 Y36.78652
G01 X9.37865 Y36.50846
G01 X9.33364 Y36.22416
G01 X9.31504 Y36.04745
G01 X9.29998 Y35.76000
G01 X9.31504 Y35.47252
G01 X9.33364 Y35.29581
G01 X9.37865 Y35.01151
G01 X9.45317 Y34.73346
G01 X9.50806 Y34.56447
G01 X9.53666 Y34.48997
G01 X9.50806 Y34.41550
G01 X9.45317 Y34.24652
G01 X9.37865 Y33.96846
G01 X9.33364 Y33.68416
G01 X9.31504 Y33.50745
G01 X9.29998 Y33.22000
G01 X9.31504 Y32.93252
G01 X9.33364 Y32.75581
G01 X9.37865 Y32.47151
G01 X9.41951 Y32.31901
G01 X9.68842 Y32.31568
G01 X9.59802 Y32.01772
G01 X9.54999 Y31.52999
G01 X9.54999 Y29.82999
G01 X9.59802 Y29.34226
G01 X9.74029 Y28.87327
G01 X9.97130 Y28.44107
G01 X10.28222 Y28.06222
G01 X10.66107 Y27.75130
G01 X11.09327 Y27.52029
G01 X11.56226 Y27.37802
G01 X12.04999 Y27.32999
G01 X13.74999 Y27.32999
G01 X14.23772 Y27.37802
G01 X14.70670 Y27.52029
G01 X15.00546 Y27.67998
G01 X15.00358 Y27.68747
G01 X15.00546 Y27.67998
G01 X20.52000 Y27.67998
G01 X20.76503 Y27.69202
G01 X20.86257 Y27.70162
G01 X21.10527 Y27.73764
G01 X21.34324 Y27.79725
G01 X21.43704 Y27.82570
G01 X21.66803 Y27.90835
G01 X21.88982 Y28.01325
G01 X21.97626 Y28.05946
G01 X22.05782 Y28.11391
G01 X22.21166 Y28.38569
G01 X21.83036 Y27.70693
G01 X21.87865 Y27.39151
G01 X21.95314 Y27.11346
G01 X22.00806 Y26.94447
G01 X22.03666 Y26.86997
G01 X22.00806 Y26.79550
G01 X21.95314 Y26.62652
G01 X21.87865 Y26.34846
G01 X21.83364 Y26.06416
G01 X21.81504 Y25.88745
G01 X21.79998 Y25.59997
G01 X21.81504 Y25.31252
G01 X21.83364 Y25.13581
G01 X21.87865 Y24.85151
G01 X21.95314 Y24.57346
G01 X22.00806 Y24.40447
G01 X22.03666 Y24.32997
G01 X22.00806 Y24.25550
G01 X21.95314 Y24.08652
G01 X21.87865 Y23.80846
G01 X21.87339 Y23.76998
G01 X15.06555 Y23.76998
G01 X15.06367 Y23.76249
G01 X15.06555 Y23.76998
G01 X14.80236 Y23.91065
G01 X14.28648 Y24.06713
G01 X13.74999 Y24.11999
G01 X12.04999 Y24.11999
G01 X11.51349 Y24.06713
G01 X10.99762 Y23.91065
G01 X10.52218 Y23.65652
G01 X10.10544 Y23.31453
G01 X9.76346 Y22.89780
G01 X9.50933 Y22.42236
G01 X9.35284 Y21.90648
G01 X9.29998 Y21.36999
G01 X9.29998 Y19.66999
G01 X9.35284 Y19.13349
G01 X9.50933 Y18.61762
G01 X9.76346 Y18.14218
G01 X10.10544 Y17.72544
G01 X10.52218 Y17.38346
G01 X10.99762 Y17.12933
G01 X11.51349 Y16.97284
G01 X12.04999 Y16.91998
G01 X12.32380 Y16.91998
G01 X12.04996 Y16.80657
G01 X11.80214 Y16.70997
G01 X11.80308 Y16.70525
G01 X11.80214 Y16.70997
G01 X11.64394 Y16.70997
G01 X11.46472 Y16.69235
G01 X10.90193 Y16.52163
G01 X10.38327 Y16.24439
G01 X9.92866 Y15.87132
G01 X9.55558 Y15.41671
G01 X9.27834 Y14.89804
G01 X9.10763 Y14.33525
G01 X9.04999 Y13.74999
G01 X9.04999 Y12.04999
G01 X9.10763 Y11.46472
G01 X9.17037 Y11.25789
G01 X9.68842 Y11.26424
G01 X9.59802 Y11.56226
G01 X9.54999 Y12.04999
G01 X9.54999 Y13.74999
G01 X9.59802 Y14.23772
G01 X9.74029 Y14.70670
G01 X9.97130 Y15.13891
G01 X10.28222 Y15.51775
G01 X10.66107 Y15.82867
G01 X11.09327 Y16.05968
G01 X11.56226 Y16.20195
G01 X12.00269 Y16.24533
G01 X12.00932 Y16.23129
G01 X12.00269 Y16.24533
G01 X12.92736 Y17.16999
G01 X13.48075 Y17.39920
G01 X12.32380 Y16.91998
G01 X11.88781 Y16.48402
G01 X11.89446 Y16.47000
G01 X11.88781 Y16.48402
G01 X11.51349 Y16.44713
G01 X10.99762 Y16.29065
G01 X10.52218 Y16.03652
G01 X10.10544 Y15.69453
G01 X9.76346 Y15.27780
G01 X9.50933 Y14.80236
G01 X9.35284 Y14.28648
G01 X9.29998 Y13.74999
G01 X9.29998 Y12.04999
G01 X9.35284 Y11.51349
G01 X9.42939 Y11.26106
G01 X9.82424 Y11.26589
G01 X9.67882 Y11.26414
G01 X9.62320 Y11.05649
G01 X9.58225 Y10.79802
G01 X9.56368 Y10.62131
G01 X9.54999 Y10.36000
G01 X9.56368 Y10.09866
G01 X9.58225 Y9.92195
G01 X9.62320 Y9.66348
G01 X9.69091 Y9.41073
G01 X9.74583 Y9.24171
G01 X9.83960 Y8.99742
G01 X9.95840 Y8.76427
G01 X10.04725 Y8.61037
G01 X10.18977 Y8.39092
G01 X10.35446 Y8.18754
G01 X10.47336 Y8.05548
G01 X10.65840 Y7.87044
G01 X10.86175 Y7.70578
G01 X11.00552 Y7.60133
G01 X11.22500 Y7.45881
G01 X11.45814 Y7.33999
G01 X11.62047 Y7.26773
G01 X11.86477 Y7.17395
G01 X12.11755 Y7.10621
G01 X12.29136 Y7.06928
G01 X12.54981 Y7.02833
G01 X12.81115 Y7.01464
G01 X12.98885 Y7.01464
G01 X13.25016 Y7.02833
G01 X13.50861 Y7.06928
G01 X13.68242 Y7.10621
G01 X13.93520 Y7.17395
G01 X14.17950 Y7.26773
G01 X14.34183 Y7.33999
G01 X14.38105 Y7.35998
G01 X14.38008 Y7.36486
G01 X14.38105 Y7.35998
G01 X22.08581 Y7.35998
G01 X22.12320 Y7.12348
G01 X22.19091 Y6.87073
G01 X22.24583 Y6.70171
G01 X22.30407 Y6.54997
G01 X22.24583 Y6.39826
G01 X22.19091 Y6.22925
G01 X22.12320 Y5.97649
G01 X22.08225 Y5.71802
G01 X22.06368 Y5.54131
G01 X22.04999 Y5.28000
G01 X22.06368 Y5.01866
G01 X22.08225 Y4.84195
G01 X22.12320 Y4.58348
G01 X22.19091 Y4.33073
G01 X22.24583 Y4.16171
G01 X22.30407 Y4.00997
G01 X22.24583 Y3.85826
G01 X22.19091 Y3.68925
G01 X22.12320 Y3.43649
G01 X22.08225 Y3.17802
G01 X22.06368 Y3.00131
G01 X22.04999 Y2.74000
G01 X22.06368 Y2.47866
G01 X22.08225 Y2.30195
G01 X22.12320 Y2.04348
G01 X22.19091 Y1.79073
G01 X22.24583 Y1.62171
G01 X22.33960 Y1.37742
G01 X22.45840 Y1.14427
G01 X22.54725 Y0.99037
G01 X22.68977 Y0.77092
G01 X22.85446 Y0.56754
G01 X22.97336 Y0.43548
G01 X23.15840 Y0.25044
G01 X23.22071 Y0.20000
G01 X23.62987 Y0.20000
G01 X23.50872 Y0.28804
G01 X23.32568 Y0.43624
G01 X23.15916 Y0.60277
G01 X23.04024 Y0.73482
G01 X22.89203 Y0.91785
G01 X22.76376 Y1.11536
G01 X22.67491 Y1.26926
G01 X22.56800 Y1.47909
G01 X22.48360 Y1.69898
G01 X22.42868 Y1.86797
G01 X22.36772 Y2.09545
G01 X22.33089 Y2.32806
G01 X22.31233 Y2.50480
G01 X22.29998 Y2.74000
G01 X22.31233 Y2.97518
G01 X22.33089 Y3.15191
G01 X22.36772 Y3.38452
G01 X22.42868 Y3.61201
G01 X22.48360 Y3.78099
G01 X22.57265 Y4.00997
G01 X22.48360 Y4.23898
G01 X22.42868 Y4.40797
G01 X22.36772 Y4.63545
G01 X22.33089 Y4.86806
G01 X22.31233 Y5.04480
G01 X22.29998 Y5.28000
G01 X22.31233 Y5.51518
G01 X22.33089 Y5.69191
G01 X22.36772 Y5.92452
G01 X22.42868 Y6.15201
G01 X22.48360 Y6.32099
G01 X22.57265 Y6.54997
G01 X22.48360 Y6.77898
G01 X22.42868 Y6.94797
G01 X22.36772 Y7.17545
G01 X22.33089 Y7.40806
G01 X22.31106 Y7.60872
G01 X22.55159 Y7.85056
G01 X22.31230 Y7.60999
G01 X14.32179 Y7.60999
G01 X14.32075 Y7.61507
G01 X14.32179 Y7.60999
G01 X14.24015 Y7.56839
G01 X14.07780 Y7.49612
G01 X13.85794 Y7.41172
G01 X13.63045 Y7.35076
G01 X13.45664 Y7.31380
G01 X13.22400 Y7.27697
G01 X12.98885 Y7.26465
G01 X12.81115 Y7.26465
G01 X12.57595 Y7.27697
G01 X12.34333 Y7.31380
G01 X12.16952 Y7.35076
G01 X11.94204 Y7.41172
G01 X11.72218 Y7.49612
G01 X11.55982 Y7.56839
G01 X11.34999 Y7.67532
G01 X11.15248 Y7.80357
G01 X11.00872 Y7.90804
G01 X10.82568 Y8.05624
G01 X10.65916 Y8.22277
G01 X10.54024 Y8.35482
G01 X10.39203 Y8.53785
G01 X10.26376 Y8.73536
G01 X10.17491 Y8.88926
G01 X10.06800 Y9.09909
G01 X9.98360 Y9.31898
G01 X9.92868 Y9.48797
G01 X9.86772 Y9.71545
G01 X9.83089 Y9.94806
G01 X9.81232 Y10.12480
G01 X9.79998 Y10.36000
G01 X9.81232 Y10.59518
G01 X9.83089 Y10.77191
G01 X9.86772 Y11.00452
G01 X9.92868 Y11.23201
G01 X9.94092 Y11.26968
G01 X10.34745 Y11.28271
G01 X9.94672 Y11.26985
G01 X9.84321 Y11.61103
G01 X9.79998 Y12.04999
G01 X9.79998 Y13.74999
G01 X9.84321 Y14.18895
G01 X9.97125 Y14.61102
G01 X10.17918 Y15.00002
G01 X10.45901 Y15.34097
G01 X10.79995 Y15.62080
G01 X11.18895 Y15.82872
G01 X11.61103 Y15.95676
G01 X12.04999 Y15.99999
G01 X12.11090 Y15.99999
G01 X12.11765 Y15.98544
G01 X12.11090 Y15.99999
G01 X13.53457 Y17.41998
G01 X12.04999 Y17.41998
G01 X11.61103 Y17.46321
G01 X11.18895 Y17.59125
G01 X10.79995 Y17.79918
G01 X10.45901 Y18.07901
G01 X10.17918 Y18.41995
G01 X9.97125 Y18.80895
G01 X9.84321 Y19.23103
G01 X9.79998 Y19.66999
G01 X9.79998 Y21.36999
G01 X9.84321 Y21.80895
G01 X9.97125 Y22.23102
G01 X10.17918 Y22.62002
G01 X10.45901 Y22.96096
G01 X10.79995 Y23.24080
G01 X11.18895 Y23.44872
G01 X11.61103 Y23.57676
G01 X12.04999 Y23.61999
G01 X13.74999 Y23.61999
G01 X14.18895 Y23.57676
G01 X14.61102 Y23.44872
G01 X14.94541 Y23.26998
G01 X14.94353 Y23.26249
G01 X14.94541 Y23.26998
G01 X22.31227 Y23.26998
G01 X22.33089 Y23.47191
G01 X22.36772 Y23.70452
G01 X22.42868 Y23.93201
G01 X22.48360 Y24.10099
G01 X22.57265 Y24.32997
G01 X22.48360 Y24.55898
G01 X22.42868 Y24.72797
G01 X22.36772 Y24.95545
G01 X22.33089 Y25.18806
G01 X22.31233 Y25.36480
G01 X22.29998 Y25.59997
G01 X22.31233 Y25.83518
G01 X22.33089 Y26.01191
G01 X22.36772 Y26.24452
G01 X22.42868 Y26.47201
G01 X22.48360 Y26.64099
G01 X22.57265 Y26.86997
G01 X22.48360 Y27.09898
G01 X22.42868 Y27.26797
G01 X22.36772 Y27.49545
G01 X22.33089 Y27.72806
G01 X22.31233 Y27.90480
G01 X22.29998 Y28.14000
G01 X22.31233 Y28.37518
G01 X22.33089 Y28.55191
G01 X22.34258 Y28.62575
G01 X22.42419 Y28.77576
G01 X22.34171 Y28.62412
G01 X22.30092 Y28.58717
G01 X22.22515 Y28.52499
G01 X21.85843 Y28.27993
G01 X21.77197 Y28.23373
G01 X21.57237 Y28.13931
G01 X21.36447 Y28.06494
G01 X21.27067 Y28.03647
G01 X21.05647 Y27.98282
G01 X20.83806 Y27.95044
G01 X20.74052 Y27.94081
G01 X20.52000 Y27.92999
G01 X14.94541 Y27.92999
G01 X14.94353 Y27.93749
G01 X14.94541 Y27.92999
G01 X14.61102 Y27.75125
G01 X14.18895 Y27.62321
G01 X13.74999 Y27.57998
G01 X12.04999 Y27.57998
G01 X11.61103 Y27.62321
G01 X11.18895 Y27.75125
G01 X10.79995 Y27.95918
G01 X10.45901 Y28.23901
G01 X10.17918 Y28.57995
G01 X9.97125 Y28.96895
G01 X9.84321 Y29.39103
G01 X9.79998 Y29.82999
G01 X9.79998 Y31.52999
G01 X9.84321 Y31.96895
G01 X9.94672 Y32.31010
G01 X10.20658 Y32.30171
G01 X10.16645 Y32.42523
G01 X10.11227 Y32.62744
G01 X10.07951 Y32.83420
G01 X10.06094 Y33.01093
G01 X10.04999 Y33.22000
G01 X10.06094 Y33.42904
G01 X10.07951 Y33.60577
G01 X10.11227 Y33.81253
G01 X10.16645 Y34.01474
G01 X10.22137 Y34.18375
G01 X10.29637 Y34.37918
G01 X10.35284 Y34.48997
G01 X10.29637 Y34.60079
G01 X10.22137 Y34.79622
G01 X10.16645 Y34.96523
G01 X10.11227 Y35.16744
G01 X10.07951 Y35.37420
G01 X10.06094 Y35.55093
G01 X10.04999 Y35.76000
G01 X10.06094 Y35.96904
G01 X10.07951 Y36.14577
G01 X10.11227 Y36.35253
G01 X10.16645 Y36.55474
G01 X10.22137 Y36.72375
G01 X10.29637 Y36.91918
G01 X10.35284 Y37.02997
G01 X10.29637 Y37.14079
G01 X10.22137 Y37.33622
G01 X10.16645 Y37.50523
G01 X10.11227 Y37.70744
G01 X10.07951 Y37.91420
G01 X10.06094 Y38.09093
G01 X10.04999 Y38.30000
G01 X10.06094 Y38.50904
G01 X10.07003 Y38.59545
G01 X10.20887 Y38.67208
G01 X10.07069 Y38.59583
G01 X9.94540 Y38.66040
G01 X9.61941 Y38.87823
G01 X9.54364 Y38.94041
G01 X9.39820 Y39.07221
G01 X8.59221 Y39.87820
G01 X8.43465 Y40.05318
G01 X8.25020 Y40.30708
G01 X8.20920 Y40.37399
G01 X8.06674 Y40.65361
G01 X8.03669 Y40.72611
G01 X7.93971 Y41.02458
G01 X7.92140 Y41.10088
G01 X7.87230 Y41.41084
G01 X7.86615 Y41.48907
G01 X7.85998 Y41.64599
G01 X7.85998 Y62.49998
G01 X7.86961 Y62.69599
G01 X7.87923 Y62.79355
G01 X7.95571 Y63.17808
G01 X7.98416 Y63.27188
G01 X8.13420 Y63.63409
G01 X8.18040 Y63.72055
G01 X8.39823 Y64.04653
G01 X8.46041 Y64.12230
G01 X8.59221 Y64.26771
G01 X12.33221 Y68.00774
G01 X12.50719 Y68.16529
G01 X12.76109 Y68.34977
G01 X12.82799 Y68.39077
G01 X13.10759 Y68.53324
G01 X13.18011 Y68.56326
G01 X13.47859 Y68.66026
G01 X13.55486 Y68.67858
G01 X13.86484 Y68.72768
G01 X14.10000 Y68.73999
G01 X38.30000 Y68.73999
G01 X38.49601 Y68.73037
G01 X38.59357 Y68.72074
G01 X38.97810 Y68.64426
G01 X39.07191 Y68.61581
G01 X39.43411 Y68.46578
G01 X39.52057 Y68.41957
G01 X39.68892 Y68.31866
G01 X39.84655 Y68.20174
G01 X39.92232 Y68.13956
G01 X40.06776 Y68.00776
G01 X42.40776 Y65.66776
G01 X42.53956 Y65.52232
G01 X42.60174 Y65.44655
G01 X42.81957 Y65.12057
G01 X42.86578 Y65.03411
G01 X42.94970 Y64.85669
G01 X43.01581 Y64.67191
G01 X43.04426 Y64.57810
G01 X43.12074 Y64.19357
G01 X43.13037 Y64.09601
G01 X43.13999 Y63.90000
G01 X43.13999 Y34.05553
G01 X43.12094 Y34.04763
G01 X43.13999 Y34.05553
G01 X44.21553 Y32.97999
G01 X44.20763 Y32.96094
G01 X44.21553 Y32.97999
G01 X45.22092 Y32.97997
G01 X45.37306 Y32.82701
G01 X45.21159 Y32.98937
G01 X45.20999 Y33.02000
G01 X45.22094 Y33.22904
G01 X45.23951 Y33.40578
G01 X45.27227 Y33.61253
G01 X45.32645 Y33.81474
G01 X45.38137 Y33.98375
G01 X45.45637 Y34.17918
G01 X45.51284 Y34.28997
G01 X45.45637 Y34.40079
G01 X45.38137 Y34.59622
G01 X45.32645 Y34.76523
G01 X45.27227 Y34.96744
G01 X45.23951 Y35.17420
G01 X45.22094 Y35.35093
G01 X45.20999 Y35.56000
G01 X45.22094 Y35.76904
G01 X45.23951 Y35.94578
G01 X45.27227 Y36.15253
G01 X45.32645 Y36.35474
G01 X45.38137 Y36.52375
G01 X45.45637 Y36.71918
G01 X45.51284 Y36.82997
G01 X45.45637 Y36.94079
G01 X45.38137 Y37.13622
G01 X45.32645 Y37.30523
G01 X45.27227 Y37.50744
G01 X45.23951 Y37.71420
G01 X45.22094 Y37.89093
G01 X45.20999 Y38.10000
G01 X45.22094 Y38.30904
G01 X45.23951 Y38.48578
G01 X45.27227 Y38.69253
G01 X45.32645 Y38.89474
G01 X45.38137 Y39.06375
G01 X45.45637 Y39.25918
G01 X45.51284 Y39.36997
G01 X45.45637 Y39.48079
G01 X45.38137 Y39.67622
G01 X45.32645 Y39.84523
G01 X45.27227 Y40.04744
G01 X45.23951 Y40.25420
G01 X45.22094 Y40.43093
G01 X45.20999 Y40.64000
G01 X45.22094 Y40.84904
G01 X45.23951 Y41.02578
G01 X45.27227 Y41.23253
G01 X45.32645 Y41.43474
G01 X45.38137 Y41.60375
G01 X45.45637 Y41.79918
G01 X45.51284 Y41.90997
G01 X45.45637 Y42.02079
G01 X45.38137 Y42.21622
G01 X45.32645 Y42.38523
G01 X45.27227 Y42.58744
G01 X45.23951 Y42.79420
G01 X45.22094 Y42.97093
G01 X45.20999 Y43.18000
G01 X45.22094 Y43.38904
G01 X45.23951 Y43.56578
G01 X45.27227 Y43.77253
G01 X45.32645 Y43.97474
G01 X45.38137 Y44.14375
G01 X45.45637 Y44.33918
G01 X45.51284 Y44.44997
G01 X45.45637 Y44.56079
G01 X45.38137 Y44.75622
G01 X45.32645 Y44.92523
G01 X45.27227 Y45.12744
G01 X45.23951 Y45.33420
G01 X45.22094 Y45.51093
G01 X45.20999 Y45.72000
G01 X45.22094 Y45.92904
G01 X45.23951 Y46.10578
G01 X45.27227 Y46.31253
G01 X45.32645 Y46.51474
G01 X45.38137 Y46.68375
G01 X45.45637 Y46.87918
G01 X45.51284 Y46.98997
G01 X45.45637 Y47.10079
G01 X45.38137 Y47.29622
G01 X45.32645 Y47.46523
G01 X45.27227 Y47.66744
G01 X45.23951 Y47.87420
G01 X45.22094 Y48.05093
G01 X45.20999 Y48.26000
G01 X45.22094 Y48.46904
G01 X45.23951 Y48.64578
G01 X45.27227 Y48.85253
G01 X45.32645 Y49.05474
G01 X45.36656 Y49.17816
G01 X45.24842 Y49.55979
G01 X45.20999 Y49.94999
G01 X45.20999 Y51.64999
G01 X45.24842 Y52.04018
G01 X45.36222 Y52.41536
G01 X45.54705 Y52.76113
G01 X45.79577 Y53.06418
G01 X46.09884 Y53.31292
G01 X46.44461 Y53.49773
G01 X46.81979 Y53.61155
G01 X47.20999 Y53.64998
G01 X48.90999 Y53.64998
G01 X49.30016 Y53.61155
G01 X49.67536 Y53.49773
G01 X50.02113 Y53.31292
G01 X50.32421 Y53.06418
G01 X50.57292 Y52.76113
G01 X50.75773 Y52.41536
G01 X50.87153 Y52.04018
G01 X50.90998 Y51.64999
G01 X50.90998 Y49.94999
G01 X50.87153 Y49.55979
G01 X50.75342 Y49.17824
G01 X50.79352 Y49.05474
G01 X50.84770 Y48.85253
G01 X50.88047 Y48.64578
G01 X50.89903 Y48.46904
G01 X50.90998 Y48.26000
G01 X50.89903 Y48.05093
G01 X50.88047 Y47.87420
G01 X50.84770 Y47.66744
G01 X50.79352 Y47.46523
G01 X50.73861 Y47.29622
G01 X50.66360 Y47.10079
G01 X50.60714 Y46.98997
G01 X50.66360 Y46.87918
G01 X50.73861 Y46.68375
G01 X50.79352 Y46.51474
G01 X50.84770 Y46.31253
G01 X50.88047 Y46.10578
G01 X50.89903 Y45.92904
G01 X50.90998 Y45.72000
G01 X50.89903 Y45.51093
G01 X50.88047 Y45.33420
G01 X50.84770 Y45.12744
G01 X50.79352 Y44.92523
G01 X50.73861 Y44.75622
G01 X50.66360 Y44.56079
G01 X50.60714 Y44.44997
G01 X50.66360 Y44.33918
G01 X50.73861 Y44.14375
G01 X50.79352 Y43.97474
G01 X50.84770 Y43.77253
G01 X50.88047 Y43.56578
G01 X50.89903 Y43.38904
G01 X50.90998 Y43.18000
G01 X50.89903 Y42.97093
G01 X50.88047 Y42.79420
G01 X50.84770 Y42.58744
G01 X50.79352 Y42.38523
G01 X50.73861 Y42.21622
G01 X50.66360 Y42.02079
G01 X50.60714 Y41.90997
G01 X50.66360 Y41.79918
G01 X50.73861 Y41.60375
G01 X50.79352 Y41.43474
G01 X50.84770 Y41.23253
G01 X50.88047 Y41.02578
G01 X50.89903 Y40.84904
G01 X50.90998 Y40.64000
G01 X50.89903 Y40.43093
G01 X50.88047 Y40.25420
G01 X50.84770 Y40.04744
G01 X50.79352 Y39.84523
G01 X50.73861 Y39.67622
G01 X50.66360 Y39.48079
G01 X50.60714 Y39.36997
G01 X50.66360 Y39.25918
G01 X50.73861 Y39.06375
G01 X50.79352 Y38.89474
G01 X50.84770 Y38.69253
G01 X50.88047 Y38.48578
G01 X50.89903 Y38.30904
G01 X50.90998 Y38.10000
G01 X50.89903 Y37.89093
G01 X50.88047 Y37.71420
G01 X50.84770 Y37.50744
G01 X50.79352 Y37.30523
G01 X50.73861 Y37.13622
G01 X50.66360 Y36.94079
G01 X50.60714 Y36.82997
G01 X50.66360 Y36.71918
G01 X50.73861 Y36.52375
G01 X50.79352 Y36.35474
G01 X50.84770 Y36.15253
G01 X50.88047 Y35.94578
G01 X50.89903 Y35.76904
G01 X50.90998 Y35.56000
G01 X50.89903 Y35.35093
G01 X50.88047 Y35.17420
G01 X50.84770 Y34.96744
G01 X50.79352 Y34.76523
G01 X50.73861 Y34.59622
G01 X50.66360 Y34.40079
G01 X50.60714 Y34.28997
G01 X50.66360 Y34.17918
G01 X50.73861 Y33.98375
G01 X50.79352 Y33.81474
G01 X50.84770 Y33.61253
G01 X50.88047 Y33.40578
G01 X50.89903 Y33.22904
G01 X50.90998 Y33.02000
G01 X50.89903 Y32.81093
G01 X50.88047 Y32.63420
G01 X50.84770 Y32.42744
G01 X50.79352 Y32.22523
G01 X50.73861 Y32.05622
G01 X50.66360 Y31.86079
G01 X50.60714 Y31.74997
G01 X50.66360 Y31.63918
G01 X50.73861 Y31.44375
G01 X50.79352 Y31.27474
G01 X50.84770 Y31.07253
G01 X50.88047 Y30.86578
G01 X50.89903 Y30.68904
G01 X50.90998 Y30.48000
G01 X50.89903 Y30.27093
G01 X50.88047 Y30.09420
G01 X50.84770 Y29.88744
G01 X50.79352 Y29.68523
G01 X50.73861 Y29.51622
G01 X50.66360 Y29.32079
G01 X50.60714 Y29.20997
G01 X50.66360 Y29.09918
G01 X50.73861 Y28.90375
G01 X50.79352 Y28.73474
G01 X50.84770 Y28.53253
G01 X50.88047 Y28.32578
G01 X50.89903 Y28.14904
G01 X50.90998 Y27.94000
G01 X50.89903 Y27.73093
G01 X50.88047 Y27.55420
G01 X50.84770 Y27.34744
G01 X50.79352 Y27.14523
G01 X50.73861 Y26.97622
G01 X50.66360 Y26.78079
G01 X50.60714 Y26.66997
G01 X50.66360 Y26.55915
G01 X50.73861 Y26.36375
G01 X50.79352 Y26.19472
G01 X50.84770 Y25.99253
G01 X50.88047 Y25.78578
G01 X50.89903 Y25.60904
G01 X50.90998 Y25.40000
G01 X50.89903 Y25.19093
G01 X50.88047 Y25.01420
G01 X50.84770 Y24.80744
G01 X50.79352 Y24.60523
G01 X50.73861 Y24.43622
G01 X50.66360 Y24.24079
G01 X50.60714 Y24.12997
G01 X50.66360 Y24.01918
G01 X50.73861 Y23.82375
G01 X50.79352 Y23.65474
G01 X50.84770 Y23.45253
G01 X50.88047 Y23.24578
G01 X50.89903 Y23.06904
G01 X50.90998 Y22.86000
G01 X50.89903 Y22.65093
G01 X50.88047 Y22.47420
G01 X50.84770 Y22.26744
G01 X50.79352 Y22.06523
G01 X50.73861 Y21.89622
G01 X50.66360 Y21.70079
G01 X50.60714 Y21.58997
G01 X50.66360 Y21.47918
G01 X50.73861 Y21.28375
G01 X50.79352 Y21.11474
G01 X50.84770 Y20.91253
G01 X50.88047 Y20.70578
G01 X50.89903 Y20.52904
G01 X50.90998 Y20.32000
G01 X50.89903 Y20.11093
G01 X50.88047 Y19.93420
G01 X50.84770 Y19.72744
G01 X50.79352 Y19.52523
G01 X50.73861 Y19.35622
G01 X50.66360 Y19.16079
G01 X50.60714 Y19.04997
G01 X50.66360 Y18.93918
G01 X50.73861 Y18.74375
G01 X50.79352 Y18.57474
G01 X50.84770 Y18.37253
G01 X50.88047 Y18.16578
G01 X50.89903 Y17.98904
G01 X50.90998 Y17.78000
G01 X50.89903 Y17.57093
G01 X50.88047 Y17.39420
G01 X50.84770 Y17.18744
G01 X50.79352 Y16.98523
G01 X50.73861 Y16.81622
G01 X50.66360 Y16.62079
G01 X50.60714 Y16.50997
G01 X50.66360 Y16.39918
G01 X50.73861 Y16.20375
G01 X50.79352 Y16.03474
G01 X50.84770 Y15.83253
G01 X50.88047 Y15.62578
G01 X50.89903 Y15.44904
G01 X50.90998 Y15.24000
G01 X50.89903 Y15.03093
G01 X50.88047 Y14.85420
G01 X50.84770 Y14.64744
G01 X50.79352 Y14.44523
G01 X50.73861 Y14.27622
G01 X50.66360 Y14.08079
G01 X50.60714 Y13.96997
G01 X50.66360 Y13.85918
G01 X50.73861 Y13.66375
G01 X50.79352 Y13.49474
G01 X50.84770 Y13.29253
G01 X50.88047 Y13.08578
G01 X50.89903 Y12.90902
G01 X50.90998 Y12.70000
G01 X50.89903 Y12.49093
G01 X50.88047 Y12.31420
G01 X50.84770 Y12.10744
G01 X50.79352 Y11.90523
G01 X50.73861 Y11.73622
G01 X50.66360 Y11.54079
G01 X50.60714 Y11.42997
G01 X50.66360 Y11.31918
G01 X50.73861 Y11.12375
G01 X50.79352 Y10.95474
G01 X50.84770 Y10.75253
G01 X50.88047 Y10.54578
G01 X50.89903 Y10.36904
G01 X50.90998 Y10.16000
G01 X50.89903 Y9.95093
G01 X50.88047 Y9.77420
G01 X50.84770 Y9.56744
G01 X50.79352 Y9.36523
G01 X50.73861 Y9.19622
G01 X50.66360 Y9.00079
G01 X50.60714 Y8.88997
G01 X50.66360 Y8.77918
G01 X50.73861 Y8.58375
G01 X50.79352 Y8.41474
G01 X50.84770 Y8.21253
G01 X50.88047 Y8.00578
G01 X50.89903 Y7.82904
G01 X50.90998 Y7.62000
G01 X50.89903 Y7.41093
G01 X50.88047 Y7.23420
G01 X50.84770 Y7.02744
G01 X50.79352 Y6.82523
G01 X50.73861 Y6.65622
G01 X50.66360 Y6.46077
G01 X50.60714 Y6.34997
G01 X50.66360 Y6.23918
G01 X50.73861 Y6.04375
G01 X50.79352 Y5.87474
G01 X50.84770 Y5.67253
G01 X50.88047 Y5.46578
G01 X50.89903 Y5.28904
G01 X50.90998 Y5.08000
G01 X50.89903 Y4.87093
G01 X50.88047 Y4.69420
G01 X50.84770 Y4.48744
G01 X50.79352 Y4.28523
G01 X50.73861 Y4.11622
G01 X50.66360 Y3.92079
G01 X50.60714 Y3.80997
G01 X50.66360 Y3.69918
G01 X50.73861 Y3.50375
G01 X50.79352 Y3.33474
G01 X50.84770 Y3.13253
G01 X50.88047 Y2.92578
G01 X50.89903 Y2.74904
G01 X50.90998 Y2.53997
G01 X50.89903 Y2.33093
G01 X50.88047 Y2.15420
G01 X50.84770 Y1.94744
G01 X50.79352 Y1.74523
G01 X50.73861 Y1.57622
G01 X50.66360 Y1.38079
G01 X50.56856 Y1.19426
G01 X50.47971 Y1.04036
G01 X50.36569 Y0.86479
G01 X50.23394 Y0.70211
G01 X50.11504 Y0.57005
G01 X49.96701 Y0.42202
G01 X49.80432 Y0.29027
G01 X49.68004 Y0.20000
G01 X49.18517 Y0.20000
G01 X49.36000 Y0.28832
G01 X49.51362 Y0.38809
G01 X49.65738 Y0.49253
G01 X49.79972 Y0.60782
G01 X49.92926 Y0.73734
G01 X50.04816 Y0.86939
G01 X50.16343 Y1.01176
G01 X50.26320 Y1.16538
G01 X50.35205 Y1.31925
G01 X50.43521 Y1.48247
G01 X50.50084 Y1.65349
G01 X50.55575 Y1.82248
G01 X50.60318 Y1.99941
G01 X50.63183 Y2.18034
G01 X50.65039 Y2.35707
G01 X50.66000 Y2.53997
G01 X50.65039 Y2.72291
G01 X50.63183 Y2.89964
G01 X50.60318 Y3.08056
G01 X50.55575 Y3.25750
G01 X50.50084 Y3.42649
G01 X50.43521 Y3.59750
G01 X50.32360 Y3.80997
G01 X50.43521 Y4.02247
G01 X50.50084 Y4.19349
G01 X50.55575 Y4.36248
G01 X50.60318 Y4.53941
G01 X50.63183 Y4.72034
G01 X50.65039 Y4.89707
G01 X50.66000 Y5.08000
G01 X50.65039 Y5.26291
G01 X50.63183 Y5.43964
G01 X50.60318 Y5.62056
G01 X50.55575 Y5.79750
G01 X50.50084 Y5.96649
G01 X50.43521 Y6.13750
G01 X50.32360 Y6.34997
G01 X50.43521 Y6.56247
G01 X50.50084 Y6.73349
G01 X50.55575 Y6.90248
G01 X50.60318 Y7.07941
G01 X50.63183 Y7.26034
G01 X50.65039 Y7.43707
G01 X50.66000 Y7.62000
G01 X50.65039 Y7.80291
G01 X50.63183 Y7.97964
G01 X50.60318 Y8.16056
G01 X50.55575 Y8.33750
G01 X50.50084 Y8.50649
G01 X50.43521 Y8.67750
G01 X50.32360 Y8.88997
G01 X50.43521 Y9.10247
G01 X50.50084 Y9.27349
G01 X50.55575 Y9.44248
G01 X50.60318 Y9.61941
G01 X50.63183 Y9.80034
G01 X50.65039 Y9.97707
G01 X50.66000 Y10.16000
G01 X50.65039 Y10.34291
G01 X50.63183 Y10.51964
G01 X50.60318 Y10.70056
G01 X50.55575 Y10.87750
G01 X50.50084 Y11.04649
G01 X50.43521 Y11.21750
G01 X50.32360 Y11.42997
G01 X50.43521 Y11.64247
G01 X50.50084 Y11.81349
G01 X50.55575 Y11.98248
G01 X50.60318 Y12.15941
G01 X50.63183 Y12.34034
G01 X50.65039 Y12.51707
G01 X50.66000 Y12.70000
G01 X50.65039 Y12.88291
G01 X50.63183 Y13.05964
G01 X50.60318 Y13.24056
G01 X50.55575 Y13.41750
G01 X50.50084 Y13.58649
G01 X50.43521 Y13.75750
G01 X50.32360 Y13.96997
G01 X50.43521 Y14.18247
G01 X50.50084 Y14.35349
G01 X50.55575 Y14.52248
G01 X50.60318 Y14.69941
G01 X50.63183 Y14.88034
G01 X50.65039 Y15.05707
G01 X50.66000 Y15.24000
G01 X50.65039 Y15.42291
G01 X50.63183 Y15.59964
G01 X50.60318 Y15.78056
G01 X50.55575 Y15.95750
G01 X50.50084 Y16.12649
G01 X50.43521 Y16.29750
G01 X50.32360 Y16.50997
G01 X50.43521 Y16.72247
G01 X50.50084 Y16.89349
G01 X50.55575 Y17.06248
G01 X50.60318 Y17.23941
G01 X50.63183 Y17.42034
G01 X50.65039 Y17.59707
G01 X50.66000 Y17.78000
G01 X50.65039 Y17.96291
G01 X50.63183 Y18.13964
G01 X50.60318 Y18.32056
G01 X50.55575 Y18.49750
G01 X50.50084 Y18.66649
G01 X50.43521 Y18.83750
G01 X50.32360 Y19.04997
G01 X50.43521 Y19.26247
G01 X50.50084 Y19.43349
G01 X50.55575 Y19.60248
G01 X50.60318 Y19.77941
G01 X50.63183 Y19.96034
G01 X50.65039 Y20.13707
G01 X50.66000 Y20.32000
G01 X50.65039 Y20.50291
G01 X50.63183 Y20.67964
G01 X50.60318 Y20.86056
G01 X50.55575 Y21.03750
G01 X50.50084 Y21.20649
G01 X50.43521 Y21.37750
G01 X50.32360 Y21.58997
G01 X50.43521 Y21.80247
G01 X50.50084 Y21.97349
G01 X50.55575 Y22.14248
G01 X50.60318 Y22.31941
G01 X50.63183 Y22.50034
G01 X50.65039 Y22.67707
G01 X50.66000 Y22.86000
G01 X50.65039 Y23.04291
G01 X50.63183 Y23.21964
G01 X50.60318 Y23.40056
G01 X50.55575 Y23.57750
G01 X50.50084 Y23.74649
G01 X50.43521 Y23.91750
G01 X50.32360 Y24.12997
G01 X50.43521 Y24.34247
G01 X50.50084 Y24.51349
G01 X50.55575 Y24.68248
G01 X50.60318 Y24.85941
G01 X50.63183 Y25.04034
G01 X50.65039 Y25.21707
G01 X50.66000 Y25.40000
G01 X50.65039 Y25.58291
G01 X50.63183 Y25.75964
G01 X50.60318 Y25.94056
G01 X50.55575 Y26.11750
G01 X50.50084 Y26.28649
G01 X50.43521 Y26.45750
G01 X50.32360 Y26.66997
G01 X50.43521 Y26.88247
G01 X50.50084 Y27.05349
G01 X50.55575 Y27.22248
G01 X50.60318 Y27.39941
G01 X50.63183 Y27.58034
G01 X50.65039 Y27.75707
G01 X50.66000 Y27.94000
G01 X50.65039 Y28.12291
G01 X50.63183 Y28.29964
G01 X50.60318 Y28.48056
G01 X50.55575 Y28.65750
G01 X50.50084 Y28.82649
G01 X50.43521 Y28.99750
G01 X50.32360 Y29.20997
G01 X50.43521 Y29.42247
G01 X50.50084 Y29.59349
G01 X50.55575 Y29.76248
G01 X50.60318 Y29.93941
G01 X50.63183 Y30.12034
G01 X50.65039 Y30.29707
G01 X50.66000 Y30.48000
G01 X50.65039 Y30.66291
G01 X50.63183 Y30.83964
G01 X50.60318 Y31.02056
G01 X50.55575 Y31.19750
G01 X50.50084 Y31.36649
G01 X50.43521 Y31.53750
G01 X50.32360 Y31.74997
G01 X50.43521 Y31.96247
G01 X50.50084 Y32.13349
G01 X50.55575 Y32.30248
G01 X50.60318 Y32.47941
G01 X50.63183 Y32.66034
G01 X50.65039 Y32.83707
G01 X50.66000 Y33.02000
G01 X50.65039 Y33.20291
G01 X50.63183 Y33.37964
G01 X50.60318 Y33.56056
G01 X50.55575 Y33.73750
G01 X50.50084 Y33.90649
G01 X50.43521 Y34.07750
G01 X50.32360 Y34.28997
G01 X50.43521 Y34.50247
G01 X50.50084 Y34.67349
G01 X50.55575 Y34.84248
G01 X50.60318 Y35.01941
G01 X50.63183 Y35.20034
G01 X50.65039 Y35.37707
G01 X50.66000 Y35.56000
G01 X50.65039 Y35.74291
G01 X50.63183 Y35.91964
G01 X50.60318 Y36.10056
G01 X50.55575 Y36.27750
G01 X50.50084 Y36.44649
G01 X50.43521 Y36.61750
G01 X50.32360 Y36.82997
G01 X50.43521 Y37.04247
G01 X50.50084 Y37.21349
G01 X50.55575 Y37.38248
G01 X50.60318 Y37.55941
G01 X50.63183 Y37.74034
G01 X50.65039 Y37.91707
G01 X50.66000 Y38.10000
G01 X50.65039 Y38.28291
G01 X50.63183 Y38.45964
G01 X50.60318 Y38.64056
G01 X50.55575 Y38.81750
G01 X50.50084 Y38.98649
G01 X50.43521 Y39.15750
G01 X50.32360 Y39.36997
G01 X50.43521 Y39.58247
G01 X50.50084 Y39.75349
G01 X50.55575 Y39.92248
G01 X50.60318 Y40.09941
G01 X50.63183 Y40.28034
G01 X50.65039 Y40.45707
G01 X50.66000 Y40.64000
G01 X50.65039 Y40.82291
G01 X50.63183 Y40.99964
G01 X50.60318 Y41.18056
G01 X50.55575 Y41.35750
G01 X50.50084 Y41.52649
G01 X50.43521 Y41.69750
G01 X50.32360 Y41.90997
G01 X50.43521 Y42.12247
G01 X50.50084 Y42.29349
G01 X50.55575 Y42.46248
G01 X50.60318 Y42.63941
G01 X50.63183 Y42.82034
G01 X50.65039 Y42.99707
G01 X50.66000 Y43.18000
G01 X50.65039 Y43.36291
G01 X50.63183 Y43.53964
G01 X50.60318 Y43.72056
G01 X50.55575 Y43.89750
G01 X50.50084 Y44.06649
G01 X50.43521 Y44.23750
G01 X50.32360 Y44.44997
G01 X50.43521 Y44.66247
G01 X50.50084 Y44.83349
G01 X50.55575 Y45.00248
G01 X50.60318 Y45.17941
G01 X50.63183 Y45.36034
G01 X50.65039 Y45.53707
G01 X50.66000 Y45.72000
G01 X50.65039 Y45.90291
G01 X50.63183 Y46.07964
G01 X50.60318 Y46.26056
G01 X50.55575 Y46.43750
G01 X50.50084 Y46.60649
G01 X50.43521 Y46.77750
G01 X50.32360 Y46.98997
G01 X50.43521 Y47.20247
G01 X50.50084 Y47.37349
G01 X50.55575 Y47.54248
G01 X50.60318 Y47.71941
G01 X50.63183 Y47.90034
G01 X50.65039 Y48.07707
G01 X50.66000 Y48.26000
G01 X50.65039 Y48.44291
G01 X50.63183 Y48.61964
G01 X50.60318 Y48.80056
G01 X50.55575 Y48.97750
G01 X50.50084 Y49.14649
G01 X50.48425 Y49.18977
G01 X50.47859 Y49.19010
G01 X50.52677 Y49.28029
G01 X50.62637 Y49.60859
G01 X50.66000 Y49.94999
G01 X50.66000 Y51.64999
G01 X50.62637 Y51.99139
G01 X50.52677 Y52.31966
G01 X50.36505 Y52.62225
G01 X50.14742 Y52.88742
G01 X49.88225 Y53.10505
G01 X49.57968 Y53.26677
G01 X49.25139 Y53.36637
G01 X48.90999 Y53.39999
G01 X47.20999 Y53.39999
G01 X46.86859 Y53.36637
G01 X46.54029 Y53.26677
G01 X46.23773 Y53.10505
G01 X45.97255 Y52.88742
G01 X45.75492 Y52.62225
G01 X45.59320 Y52.31966
G01 X45.49361 Y51.99139
G01 X45.45998 Y51.64999
G01 X45.45998 Y49.94999
G01 X45.49361 Y49.60859
G01 X45.59320 Y49.28029
G01 X45.64141 Y49.19010
G01 X45.90890 Y49.20465
G01 X45.85688 Y49.06924
G01 X45.80197 Y48.90023
G01 X45.76135 Y48.74857
G01 X45.73679 Y48.59350
G01 X45.71820 Y48.41677
G01 X45.70999 Y48.26000
G01 X45.71820 Y48.10321
G01 X45.73679 Y47.92647
G01 X45.76135 Y47.77141
G01 X45.80197 Y47.61974
G01 X45.85688 Y47.45073
G01 X45.91317 Y47.30415
G01 X45.98444 Y47.16427
G01 X46.08652 Y46.98997
G01 X45.98444 Y46.81571
G01 X45.91317 Y46.67583
G01 X45.85688 Y46.52924
G01 X45.80197 Y46.36023
G01 X45.76135 Y46.20857
G01 X45.73679 Y46.05350
G01 X45.71820 Y45.87677
G01 X45.70999 Y45.72000
G01 X45.71820 Y45.56321
G01 X45.73679 Y45.38647
G01 X45.76135 Y45.23141
G01 X45.80197 Y45.07974
G01 X45.85688 Y44.91073
G01 X45.91317 Y44.76415
G01 X45.98444 Y44.62427
G01 X46.08652 Y44.44997
G01 X45.98444 Y44.27571
G01 X45.91317 Y44.13583
G01 X45.85688 Y43.98924
G01 X45.80197 Y43.82023
G01 X45.76135 Y43.66857
G01 X45.73679 Y43.51350
G01 X45.71820 Y43.33677
G01 X45.70999 Y43.18000
G01 X45.71820 Y43.02321
G01 X45.73679 Y42.84647
G01 X45.76135 Y42.69141
G01 X45.80197 Y42.53974
G01 X45.85688 Y42.37073
G01 X45.91317 Y42.22415
G01 X45.98444 Y42.08427
G01 X46.08652 Y41.90997
G01 X45.98444 Y41.73571
G01 X45.91317 Y41.59583
G01 X45.85688 Y41.44924
G01 X45.80197 Y41.28023
G01 X45.76135 Y41.12857
G01 X45.73679 Y40.97350
G01 X45.71820 Y40.79677
G01 X45.70999 Y40.64000
G01 X45.71820 Y40.48321
G01 X45.73679 Y40.30647
G01 X45.76135 Y40.15141
G01 X45.80197 Y39.99974
G01 X45.85688 Y39.83073
G01 X45.91317 Y39.68415
G01 X45.98444 Y39.54427
G01 X46.08652 Y39.36997
G01 X45.98444 Y39.19571
G01 X45.91317 Y39.05583
G01 X45.85688 Y38.90924
G01 X45.80197 Y38.74023
G01 X45.76135 Y38.58857
G01 X45.73679 Y38.43350
G01 X45.71820 Y38.25677
G01 X45.70999 Y38.10000
G01 X45.71820 Y37.94321
G01 X45.73679 Y37.76647
G01 X45.76135 Y37.61141
G01 X45.80197 Y37.45974
G01 X45.85688 Y37.29073
G01 X45.91317 Y37.14415
G01 X45.98444 Y37.00427
G01 X46.08652 Y36.82997
G01 X45.98444 Y36.65571
G01 X45.91317 Y36.51583
G01 X45.85688 Y36.36924
G01 X45.80197 Y36.20023
G01 X45.76135 Y36.04857
G01 X45.73679 Y35.89350
G01 X45.71820 Y35.71677
G01 X45.70999 Y35.56000
G01 X45.71820 Y35.40321
G01 X45.73679 Y35.22647
G01 X45.76135 Y35.07141
G01 X45.80197 Y34.91974
G01 X45.85688 Y34.75073
G01 X45.91317 Y34.60415
G01 X45.98444 Y34.46427
G01 X46.08652 Y34.28997
G01 X45.98444 Y34.11571
G01 X45.91317 Y33.97583
G01 X45.85688 Y33.82924
G01 X45.80197 Y33.66023
G01 X45.76135 Y33.50857
G01 X45.73679 Y33.35350
G01 X45.71820 Y33.17677
G01 X45.70999 Y33.02000
G01 X45.71820 Y32.86321
G01 X45.73679 Y32.68647
G01 X45.76135 Y32.53141
G01 X45.77357 Y32.48574
G01 X45.78063 Y32.48000
G01 X44.00842 Y32.48000
G01 X44.00052 Y32.46095
G01 X44.00842 Y32.48000
G01 X42.64000 Y33.84842
G01 X42.62095 Y33.84055
G01 X42.64000 Y33.84842
G01 X42.64000 Y63.90000
G01 X42.63276 Y64.04701
G01 X42.62316 Y64.14455
G01 X42.56580 Y64.43297
G01 X42.53733 Y64.52674
G01 X42.48775 Y64.66535
G01 X42.42481 Y64.79842
G01 X42.37860 Y64.88486
G01 X42.21523 Y65.12936
G01 X42.15305 Y65.20513
G01 X42.05420 Y65.31419
G01 X39.71420 Y67.65420
G01 X39.60513 Y67.75305
G01 X39.52936 Y67.81523
G01 X39.41112 Y67.90294
G01 X39.28486 Y67.97860
G01 X39.19842 Y68.02481
G01 X38.92674 Y68.13733
G01 X38.83297 Y68.16580
G01 X38.54455 Y68.22316
G01 X38.44701 Y68.23276
G01 X38.30000 Y68.24000
G01 X14.10000 Y68.24000
G01 X13.90409 Y68.22920
G01 X13.67160 Y68.19240
G01 X13.59530 Y68.17406
G01 X13.37145 Y68.10134
G01 X13.29893 Y68.07131
G01 X13.08923 Y67.96446
G01 X13.02235 Y67.92346
G01 X12.83193 Y67.78511
G01 X12.77226 Y67.73415
G01 X12.68578 Y67.65420
G01 X8.94578 Y63.91417
G01 X8.84692 Y63.80510
G01 X8.78474 Y63.72934
G01 X8.62137 Y63.48484
G01 X8.57517 Y63.39840
G01 X8.46265 Y63.12672
G01 X8.43417 Y63.03294
G01 X8.37682 Y62.74453
G01 X8.36722 Y62.64699
G01 X8.35998 Y62.49998
G01 X8.35998 Y41.64599
G01 X8.36460 Y41.52829
G01 X8.37077 Y41.45008
G01 X8.40758 Y41.21760
G01 X8.42589 Y41.14129
G01 X8.49864 Y40.91744
G01 X8.52866 Y40.84495
G01 X8.63552 Y40.63522
G01 X8.67651 Y40.56835
G01 X8.81487 Y40.37792
G01 X8.86582 Y40.31826
G01 X8.94578 Y40.23177
G01 X9.75177 Y39.42578
G01 X9.86084 Y39.32692
G01 X9.93661 Y39.26474
G01 X10.18111 Y39.10137
G01 X10.26754 Y39.05517
G01 X10.40061 Y38.99223
G01 X10.53922 Y38.94264
G01 X10.63374 Y38.91399
G01 X10.66739 Y38.93195
G01 X10.63516 Y38.91476
G01 X10.60135 Y38.78857
G01 X10.57679 Y38.63350
G01 X10.55820 Y38.45677
G01 X10.54999 Y38.30000
G01 X10.55820 Y38.14321
G01 X10.57679 Y37.96647
G01 X10.60135 Y37.81141
G01 X10.64196 Y37.65974
G01 X10.69688 Y37.49073
G01 X10.75317 Y37.34415
G01 X10.82444 Y37.20427
G01 X10.92652 Y37.02997
G01 X10.82444 Y36.85570
G01 X10.75317 Y36.71583
G01 X10.69688 Y36.56924
G01 X10.64196 Y36.40023
G01 X10.60135 Y36.24857
G01 X10.57679 Y36.09350
G01 X10.55820 Y35.91677
G01 X10.54999 Y35.76000
G01 X10.55820 Y35.60321
G01 X10.57679 Y35.42647
G01 X10.60135 Y35.27141
G01 X10.64196 Y35.11974
G01 X10.69688 Y34.95073
G01 X10.75317 Y34.80415
G01 X10.82444 Y34.66427
G01 X10.92652 Y34.48997
G01 X10.82444 Y34.31570
G01 X10.75317 Y34.17583
G01 X10.69688 Y34.02924
G01 X10.64196 Y33.86023
G01 X10.60135 Y33.70857
G01 X10.57679 Y33.55350
G01 X10.55820 Y33.37677
G01 X10.54999 Y33.22000
G01 X10.55820 Y33.06321
G01 X10.57679 Y32.88647
G01 X10.60135 Y32.73141
G01 X10.64196 Y32.57974
G01 X10.69688 Y32.41073
G01 X10.74890 Y32.27525
G01 X10.75550 Y32.27487
G01 X10.48139 Y32.28985
G01 X10.43320 Y32.19968
G01 X10.33361 Y31.87139
G01 X10.29998 Y31.52999
G01 X10.29998 Y29.82999
G01 X10.33361 Y29.48859
G01 X10.43320 Y29.16029
G01 X10.59492 Y28.85773
G01 X10.81255 Y28.59255
G01 X11.07773 Y28.37492
G01 X11.38029 Y28.21320
G01 X11.70859 Y28.11361
G01 X12.04999 Y28.07998
G01 X13.74999 Y28.07998
G01 X14.09139 Y28.11361
G01 X14.41968 Y28.21320
G01 X14.72225 Y28.37492
G01 X14.78933 Y28.42999
G01 X14.78410 Y28.44460
G01 X14.78933 Y28.42999
G01 X20.52000 Y28.42999
G01 X20.69153 Y28.43842
G01 X20.78906 Y28.44803
G01 X20.95894 Y28.47322
G01 X21.12554 Y28.51495
G01 X21.21934 Y28.54340
G01 X21.38103 Y28.60126
G01 X21.53628 Y28.67469
G01 X21.62272 Y28.72090
G01 X21.90796 Y28.91147
G01 X21.98373 Y28.97365
G01 X22.11098 Y29.08899
G01 X22.92388 Y29.90192
G01 X22.94133 Y29.97454
G01 X22.92388 Y29.90192
G01 X22.95914 Y29.79349
G01 X23.02477 Y29.62247
G01 X23.13638 Y29.40997
G01 X23.02477 Y29.19750
G01 X22.95914 Y29.02649
G01 X22.90422 Y28.85750
G01 X22.85680 Y28.68056
G01 X22.82815 Y28.49964
G01 X22.80958 Y28.32290
G01 X22.79998 Y28.14000
G01 X22.80958 Y27.95707
G01 X22.82815 Y27.78034
G01 X22.85680 Y27.59941
G01 X22.90422 Y27.42247
G01 X22.95914 Y27.25349
G01 X23.02477 Y27.08247
G01 X23.13638 Y26.86997
G01 X23.02477 Y26.65750
G01 X22.95914 Y26.48648
G01 X22.90422 Y26.31750
G01 X22.85680 Y26.14056
G01 X22.82815 Y25.95964
G01 X22.80958 Y25.78290
G01 X22.79998 Y25.59997
G01 X22.80958 Y25.41707
G01 X22.82815 Y25.24034
G01 X22.85680 Y25.05941
G01 X22.90422 Y24.88247
G01 X22.95914 Y24.71349
G01 X23.02477 Y24.54247
G01 X23.13638 Y24.32997
G01 X23.02477 Y24.11750
G01 X22.95914 Y23.94648
G01 X22.90422 Y23.77750
G01 X22.85680 Y23.60056
G01 X22.82815 Y23.41964
G01 X22.80958 Y23.24290
G01 X22.79998 Y23.06000
G01 X22.80958 Y22.87707
G01 X22.82083 Y22.76996
G01 X14.78935 Y22.76998
G01 X14.78412 Y22.75538
G01 X14.78935 Y22.76998
G01 X14.72225 Y22.82505
G01 X14.41968 Y22.98677
G01 X14.09139 Y23.08636
G01 X13.74999 Y23.11999
G01 X12.04999 Y23.11999
G01 X11.70859 Y23.08636
G01 X11.38029 Y22.98677
G01 X11.07773 Y22.82505
G01 X10.81255 Y22.60742
G01 X10.59492 Y22.34225
G01 X10.43320 Y22.03968
G01 X10.33361 Y21.71139
G01 X10.29998 Y21.36999
G01 X10.29998 Y19.66999
G01 X10.33361 Y19.32859
G01 X10.43320 Y19.00029
G01 X10.59492 Y18.69773
G01 X10.81255 Y18.43255
G01 X11.07773 Y18.21492
G01 X11.38029 Y18.05320
G01 X11.70859 Y17.95361
G01 X12.04999 Y17.91998
G01 X13.74999 Y17.91998
G01 X14.09139 Y17.95361
G01 X14.41968 Y18.05320
G01 X14.72225 Y18.21492
G01 X14.78933 Y18.26999
G01 X14.78410 Y18.28460
G01 X14.78933 Y18.26999
G01 X22.82083 Y18.26997
G01 X22.80958 Y18.16290
G01 X22.79998 Y17.98000
G01 X22.80958 Y17.79707
G01 X22.82083 Y17.68996
G01 X15.44000 Y17.68998
G01 X15.26845 Y17.68155
G01 X15.17091 Y17.67195
G01 X14.83444 Y17.60502
G01 X14.74064 Y17.57657
G01 X14.42369 Y17.44528
G01 X14.33726 Y17.39908
G01 X14.18996 Y17.31079
G01 X14.05202 Y17.20850
G01 X13.97625 Y17.14632
G01 X13.84899 Y17.03098
G01 X12.31801 Y15.49999
G01 X12.32588 Y15.48097
G01 X12.31801 Y15.49999
G01 X12.04999 Y15.49999
G01 X11.70859 Y15.46636
G01 X11.38029 Y15.36677
G01 X11.07773 Y15.20505
G01 X10.81255 Y14.98742
G01 X10.59492 Y14.72225
G01 X10.43320 Y14.41968
G01 X10.33361 Y14.09139
G01 X10.29998 Y13.74999
G01 X10.29998 Y12.04999
G01 X10.33361 Y11.70859
G01 X10.43320 Y11.38029
G01 X10.48141 Y11.29010
G01 X11.03561 Y11.32025
G01 X10.74890 Y11.30470
G01 X10.69688 Y11.16924
G01 X10.64196 Y11.00023
G01 X10.60135 Y10.84857
G01 X10.57679 Y10.69350
G01 X10.55820 Y10.51677
G01 X10.54999 Y10.36000
G01 X10.55820 Y10.20321
G01 X10.57679 Y10.02647
G01 X10.60135 Y9.87141
G01 X10.64196 Y9.71974
G01 X10.69688 Y9.55073
G01 X10.75317 Y9.40415
G01 X10.82444 Y9.26427
G01 X10.91329 Y9.11037
G01 X10.99881 Y8.97870
G01 X11.09762 Y8.85668
G01 X11.21651 Y8.72462
G01 X11.32754 Y8.61360
G01 X11.44956 Y8.51479
G01 X11.59332 Y8.41035
G01 X11.72500 Y8.32482
G01 X11.86487 Y8.25355
G01 X12.02723 Y8.18126
G01 X12.17379 Y8.12500
G01 X12.32545 Y8.08436
G01 X12.49926 Y8.04743
G01 X12.65436 Y8.02287
G01 X12.81115 Y8.01464
G01 X12.98885 Y8.01464
G01 X13.14562 Y8.02287
G01 X13.30068 Y8.04743
G01 X13.47452 Y8.08436
G01 X13.62619 Y8.12500
G01 X13.77277 Y8.18126
G01 X13.93510 Y8.25355
G01 X14.07498 Y8.32482
G01 X14.12913 Y8.35998
G01 X14.12712 Y8.36780
G01 X14.12913 Y8.35998
G01 X23.12065 Y8.35998
G01 X23.21461 Y8.43681
G01 X23.11357 Y8.35419
G01 X23.10135 Y8.30857
G01 X23.07679 Y8.15350
G01 X23.05820 Y7.97677
G01 X23.04999 Y7.82000
G01 X23.05820 Y7.66321
G01 X23.07679 Y7.48647
G01 X23.10135 Y7.33141
G01 X23.14197 Y7.17974
G01 X23.19688 Y7.01073
G01 X23.25317 Y6.86415
G01 X23.32444 Y6.72427
G01 X23.42652 Y6.54997
G01 X23.32444 Y6.37570
G01 X23.25317 Y6.23583
G01 X23.19688 Y6.08924
G01 X23.14197 Y5.92023
G01 X23.10135 Y5.76857
G01 X23.07679 Y5.61350
G01 X23.05820 Y5.43677
G01 X23.04999 Y5.28000
G01 X23.05820 Y5.12321
G01 X23.07679 Y4.94647
G01 X23.10135 Y4.79141
G01 X23.14197 Y4.63974
G01 X23.19688 Y4.47073
G01 X23.25317 Y4.32415
G01 X23.32444 Y4.18427
G01 X23.42652 Y4.00997
G01 X23.32444 Y3.83570
G01 X23.25317 Y3.69583
G01 X23.19688 Y3.54924
G01 X23.14197 Y3.38023
G01 X23.10135 Y3.22857
G01 X23.07679 Y3.07350
G01 X23.05820 Y2.89677
G01 X23.04999 Y2.74000
G01 X23.05820 Y2.58321
G01 X23.07679 Y2.40647
G01 X23.10135 Y2.25141
G01 X23.14197 Y2.09974
G01 X23.19688 Y1.93073
G01 X23.25317 Y1.78415
G01 X23.32444 Y1.64427
G01 X23.41329 Y1.49037
G01 X23.49881 Y1.35870
G01 X23.59762 Y1.23668
G01 X23.71651 Y1.10462
G01 X23.82754 Y0.99360
G01 X23.94956 Y0.89479
G01 X24.09330 Y0.79035
G01 X24.22500 Y0.70482
G01 X24.36487 Y0.63355
G01 X24.52721 Y0.56126
G01 X24.67379 Y0.50500
G01 X24.82545 Y0.46436
G01 X24.99926 Y0.42743
G01 X25.15436 Y0.40287
G01 X25.31115 Y0.39464
G01 X25.48882 Y0.39464
G01 X25.64562 Y0.40287
G01 X25.80071 Y0.42743
G01 X25.97452 Y0.46436
G01 X26.12616 Y0.50500
G01 X26.27277 Y0.56126
G01 X26.43508 Y0.63355
G01 X26.57498 Y0.70482
G01 X26.70668 Y0.79035
G01 X26.85042 Y0.89479
G01 X26.97244 Y0.99360
G01 X27.08346 Y1.10462
G01 X27.20236 Y1.23668
G01 X27.30116 Y1.35870
G01 X27.38669 Y1.49037
G01 X27.47554 Y1.64427
G01 X27.54681 Y1.78415
G01 X27.60309 Y1.93073
G01 X27.65801 Y2.09974
G01 X27.69862 Y2.25141
G01 X27.72319 Y2.40647
G01 X27.74178 Y2.58321
G01 X27.74998 Y2.74000
G01 X27.74178 Y2.89677
G01 X27.72319 Y3.07350
G01 X27.69862 Y3.22857
G01 X27.65801 Y3.38023
G01 X27.60309 Y3.54924
G01 X27.54681 Y3.69583
G01 X27.47554 Y3.83570
G01 X27.37345 Y4.00997
G01 X27.66360 Y4.00997
G01 X27.77520 Y4.22247
G01 X27.84084 Y4.39349
G01 X27.89575 Y4.56248
G01 X27.94318 Y4.73941
G01 X27.97183 Y4.92034
G01 X27.99039 Y5.09707
G01 X27.99999 Y5.28000
G01 X27.99039 Y5.46290
G01 X27.97183 Y5.63964
G01 X27.94318 Y5.82056
G01 X27.89575 Y5.99750
G01 X27.84084 Y6.16648
G01 X27.77520 Y6.33750
G01 X27.66360 Y6.54997
G01 X27.77520 Y6.76247
G01 X27.84084 Y6.93349
G01 X27.89575 Y7.10248
G01 X27.94318 Y7.27941
G01 X27.95511 Y7.35487
G01 X27.92293 Y7.46575
G01 X27.95179 Y7.36620
G01 X29.28899 Y6.02899
G01 X29.44955 Y5.88477
G01 X29.67172 Y5.72336
G01 X29.73862 Y5.68236
G01 X29.98330 Y5.55770
G01 X30.05579 Y5.52768
G01 X30.31696 Y5.44281
G01 X30.39323 Y5.42450
G01 X30.66445 Y5.38155
G01 X30.87997 Y5.36999
G01 X45.48083 Y5.36997
G01 X45.46958 Y5.26291
G01 X45.45998 Y5.07997
G01 X45.46958 Y4.89707
G01 X45.48815 Y4.72034
G01 X45.51680 Y4.53941
G01 X45.56422 Y4.36248
G01 X45.61914 Y4.19349
G01 X45.68477 Y4.02247
G01 X45.79638 Y3.80997
G01 X45.68477 Y3.59750
G01 X45.61914 Y3.42649
G01 X45.56422 Y3.25750
G01 X45.51680 Y3.08056
G01 X45.48815 Y2.89964
G01 X45.46958 Y2.72291
G01 X45.45998 Y2.54000
G01 X45.46958 Y2.35707
G01 X45.48815 Y2.18034
G01 X45.51680 Y1.99941
G01 X45.56422 Y1.82248
G01 X45.61914 Y1.65349
G01 X45.68477 Y1.48247
G01 X45.76793 Y1.31925
G01 X45.85678 Y1.16538
G01 X45.95655 Y1.01176
G01 X46.07182 Y0.86939
G01 X46.19071 Y0.73734
G01 X46.32025 Y0.60782
G01 X46.46259 Y0.49253
G01 X46.60636 Y0.38809
G01 X46.75998 Y0.28832
G01 X46.93481 Y0.20000
G01 X48.25129 Y0.20000
G01 X48.30562 Y0.20284
G01 X48.46071 Y0.22743
G01 X48.63452 Y0.26436
G01 X48.78619 Y0.30500
G01 X48.93274 Y0.36126
G01 X49.09510 Y0.43355
G01 X49.23498 Y0.50482
G01 X49.36665 Y0.59035
G01 X49.51042 Y0.69479
G01 X49.63244 Y0.79360
G01 X49.74346 Y0.90462
G01 X49.86236 Y1.03668
G01 X49.96116 Y1.15870
G01 X50.04669 Y1.29037
G01 X50.13554 Y1.44427
G01 X50.20681 Y1.58415
G01 X50.26309 Y1.73073
G01 X50.31801 Y1.89974
G01 X50.35862 Y2.05141
G01 X50.38319 Y2.20647
G01 X50.40178 Y2.38321
G01 X50.40998 Y2.53997
G01 X54.15999 Y2.53997
G01 X53.65999 Y2.53997
G01 X53.63395 Y2.04348
G01 X53.61539 Y1.86675
G01 X53.53761 Y1.37569
G01 X53.40894 Y0.89543
G01 X53.35402 Y0.72644
G01 X53.17584 Y0.26226
G01 X53.14414 Y0.20000
G01 X53.17584 Y0.26226
G01 X53.35402 Y0.72644
G01 X53.40894 Y0.89543
G01 X53.53761 Y1.37569
G01 X53.61539 Y1.86675
G01 X53.63395 Y2.04348
G01 X53.65999 Y2.53997
G01 X53.63395 Y3.03649
G01 X53.61539 Y3.21323
G01 X53.53761 Y3.70429
G01 X53.50929 Y3.80997
G01 X53.53761 Y3.91569
G01 X53.61539 Y4.40675
G01 X53.63395 Y4.58348
G01 X53.65999 Y5.07997
G01 X53.63395 Y5.57649
G01 X53.61539 Y5.75323
G01 X53.53761 Y6.24429
G01 X53.50929 Y6.34997
G01 X53.53761 Y6.45569
G01 X53.61539 Y6.94675
G01 X53.63395 Y7.12348
G01 X53.65999 Y7.62000
G01 X53.63395 Y8.11649
G01 X53.61539 Y8.29323
G01 X53.53761 Y8.78429
G01 X53.50929 Y8.88997
G01 X53.53761 Y8.99569
G01 X53.61539 Y9.48675
G01 X53.63395 Y9.66348
G01 X53.65999 Y10.16000
G01 X53.63395 Y10.65649
G01 X53.61539 Y10.83323
G01 X53.53761 Y11.32429
G01 X53.50929 Y11.42997
G01 X53.53761 Y11.53569
G01 X53.61539 Y12.02675
G01 X53.63395 Y12.20348
G01 X53.65999 Y12.70000
G01 X53.63395 Y13.19649
G01 X53.61539 Y13.37323
G01 X53.53761 Y13.86429
G01 X53.50929 Y13.96997
G01 X53.53761 Y14.07569
G01 X53.61539 Y14.56675
G01 X53.63395 Y14.74348
G01 X53.65999 Y15.24000
G01 X53.63395 Y15.73649
G01 X53.61539 Y15.91323
G01 X53.53761 Y16.40429
G01 X53.50929 Y16.50997
G01 X53.53761 Y16.61569
G01 X53.61539 Y17.10675
G01 X53.63395 Y17.28348
G01 X53.65999 Y17.78000
G01 X53.63395 Y18.27649
G01 X53.61539 Y18.45323
G01 X53.53761 Y18.94429
G01 X53.50929 Y19.04997
G01 X53.53761 Y19.15569
G01 X53.61539 Y19.64675
G01 X53.63395 Y19.82348
G01 X53.65999 Y20.32000
G01 X53.63395 Y20.81649
G01 X53.61539 Y20.99323
G01 X53.53761 Y21.48429
G01 X53.50929 Y21.58997
G01 X53.53761 Y21.69569
G01 X53.61539 Y22.18675
G01 X53.63395 Y22.36348
G01 X53.65999 Y22.86000
G01 X53.63395 Y23.35649
G01 X53.61539 Y23.53323
G01 X53.53761 Y24.02429
G01 X53.50929 Y24.12997
G01 X53.53761 Y24.23569
G01 X53.61539 Y24.72675
G01 X53.63395 Y24.90348
G01 X53.65999 Y25.40000
G01 X53.63395 Y25.89649
G01 X53.61539 Y26.07323
G01 X53.53761 Y26.56429
G01 X53.50929 Y26.66997
G01 X53.53761 Y26.77569
G01 X53.61539 Y27.26675
G01 X53.63395 Y27.44348
G01 X53.65999 Y27.94000
G01 X53.63395 Y28.43649
G01 X53.61539 Y28.61323
G01 X53.53761 Y29.10429
G01 X53.50929 Y29.20997
G01 X53.53761 Y29.31569
G01 X53.61539 Y29.80675
G01 X53.63395 Y29.98348
G01 X53.65999 Y30.48000
G01 X53.63395 Y30.97649
G01 X53.61539 Y31.15323
G01 X53.53761 Y31.64429
G01 X53.50929 Y31.74997
G01 X53.53761 Y31.85569
G01 X53.61539 Y32.34675
G01 X53.63395 Y32.52348
G01 X53.65999 Y33.02000
G01 X53.63395 Y33.51649
G01 X53.61539 Y33.69323
G01 X53.53761 Y34.18429
G01 X53.50929 Y34.28997
G01 X53.53761 Y34.39569
G01 X53.61539 Y34.88675
G01 X53.63395 Y35.06348
G01 X53.65999 Y35.56000
G01 X53.63395 Y36.05649
G01 X53.61539 Y36.23323
G01 X53.53761 Y36.72429
G01 X53.50929 Y36.82997
G01 X53.53761 Y36.93569
G01 X53.61539 Y37.42675
G01 X53.63395 Y37.60348
G01 X53.65999 Y38.10000
G01 X53.63395 Y38.59649
G01 X53.61539 Y38.77323
G01 X53.53761 Y39.26429
G01 X53.50929 Y39.36997
G01 X53.53761 Y39.47569
G01 X53.61539 Y39.96675
G01 X53.63395 Y40.14348
G01 X53.65999 Y40.64000
G01 X53.63395 Y41.13649
G01 X53.61539 Y41.31323
G01 X53.53761 Y41.80429
G01 X53.50929 Y41.90997
G01 X53.53761 Y42.01569
G01 X53.61539 Y42.50675
G01 X53.63395 Y42.68348
G01 X53.65999 Y43.18000
G01 X53.63395 Y43.67649
G01 X53.61539 Y43.85323
G01 X53.53761 Y44.34429
G01 X53.50929 Y44.44997
G01 X53.53761 Y44.55569
G01 X53.61539 Y45.04675
G01 X53.63395 Y45.22348
G01 X53.65999 Y45.72000
G01 X53.63395 Y46.21649
G01 X53.61539 Y46.39323
G01 X53.53761 Y46.88429
G01 X53.50929 Y46.98997
G01 X53.53761 Y47.09569
G01 X53.61539 Y47.58675
G01 X53.63395 Y47.76348
G01 X53.65999 Y48.26000
G01 X53.63395 Y48.75649
G01 X53.61539 Y48.93323
G01 X53.58331 Y49.13587
G01 X53.33012 Y49.13899
G01 X53.40998 Y49.94999
G01 X53.40998 Y51.64999
G01 X53.32352 Y52.52786
G01 X53.06741 Y53.37205
G01 X52.65161 Y54.15006
G01 X52.09197 Y54.83197
G01 X51.41003 Y55.39161
G01 X50.63206 Y55.80746
G01 X49.78789 Y56.06352
G01 X48.90999 Y56.14998
G01 X47.20999 Y56.14998
G01 X46.33209 Y56.06352
G01 X45.64291 Y55.85447
G01 X45.63999 Y55.85021
G01 X45.63999 Y63.90000
G01 X45.61832 Y64.34107
G01 X45.60872 Y64.43861
G01 X45.43661 Y65.30381
G01 X45.40816 Y65.39761
G01 X45.25940 Y65.81341
G01 X45.07057 Y66.21262
G01 X45.02437 Y66.29905
G01 X44.53428 Y67.03253
G01 X44.47210 Y67.10830
G01 X44.17553 Y67.43553
G01 X42.83105 Y68.78000
G01 X43.89171 Y68.77997
G01 X44.70585 Y67.96585
G01 X45.05185 Y67.58412
G01 X45.11403 Y67.50835
G01 X45.68581 Y66.65260
G01 X45.73201 Y66.56616
G01 X45.95228 Y66.10043
G01 X46.12587 Y65.61531
G01 X46.15431 Y65.52154
G01 X46.35510 Y64.51211
G01 X46.36470 Y64.41458
G01 X46.38998 Y63.90000
G01 X46.39000 Y56.82750
G01 X46.14588 Y56.52701
G01 X46.23453 Y56.55391
G01 X47.20999 Y56.64998
G01 X48.90999 Y56.64998
G01 X49.88545 Y56.55391
G01 X50.82339 Y56.26938
G01 X51.68783 Y55.80733
G01 X52.44551 Y55.18551
G01 X53.06733 Y54.42783
G01 X53.52938 Y53.56339
G01 X53.81391 Y52.62542
G01 X53.90998 Y51.64999
G01 X53.90998 Y49.94999
G01 X53.82951 Y49.13287
G01 X53.33014 Y49.13897
G01 X53.36677 Y48.90709
G01 X53.38534 Y48.73036
G01 X53.40998 Y48.26000
G01 X53.38534 Y47.78962
G01 X53.36677 Y47.61288
G01 X53.29309 Y47.14766
G01 X53.25082 Y46.98997
G01 X53.29309 Y46.83232
G01 X53.36677 Y46.36709
G01 X53.38534 Y46.19036
G01 X53.40998 Y45.72000
G01 X53.38534 Y45.24962
G01 X53.36677 Y45.07288
G01 X53.29309 Y44.60766
G01 X53.25082 Y44.44997
G01 X53.29309 Y44.29232
G01 X53.36677 Y43.82709
G01 X53.38534 Y43.65036
G01 X53.40998 Y43.18000
G01 X53.38534 Y42.70962
G01 X53.36677 Y42.53288
G01 X53.29309 Y42.06766
G01 X53.25082 Y41.90997
G01 X53.29309 Y41.75232
G01 X53.36677 Y41.28709
G01 X53.38534 Y41.11036
G01 X53.40998 Y40.64000
G01 X53.38534 Y40.16962
G01 X53.36677 Y39.99288
G01 X53.29309 Y39.52766
G01 X53.25082 Y39.36997
G01 X53.29309 Y39.21232
G01 X53.36677 Y38.74709
G01 X53.38534 Y38.57036
G01 X53.40998 Y38.10000
G01 X53.38534 Y37.62962
G01 X53.36677 Y37.45288
G01 X53.29309 Y36.98766
G01 X53.25082 Y36.82997
G01 X53.29309 Y36.67232
G01 X53.36677 Y36.20709
G01 X53.38534 Y36.03036
G01 X53.40998 Y35.56000
G01 X53.38534 Y35.08962
G01 X53.36677 Y34.91288
G01 X53.29309 Y34.44766
G01 X53.25082 Y34.28997
G01 X53.29309 Y34.13232
G01 X53.36677 Y33.66709
G01 X53.38534 Y33.49036
G01 X53.40998 Y33.02000
G01 X53.38534 Y32.54962
G01 X53.36677 Y32.37288
G01 X53.29309 Y31.90766
G01 X53.25082 Y31.74997
G01 X53.29309 Y31.59232
G01 X53.36677 Y31.12709
G01 X53.38534 Y30.95036
G01 X53.40998 Y30.48000
G01 X53.38534 Y30.00962
G01 X53.36677 Y29.83288
G01 X53.29309 Y29.36766
G01 X53.25085 Y29.20997
G01 X53.29309 Y29.05232
G01 X53.36677 Y28.58709
G01 X53.38534 Y28.41036
G01 X53.40998 Y27.94000
G01 X53.38534 Y27.46962
G01 X53.36677 Y27.29288
G01 X53.29309 Y26.82766
G01 X53.25085 Y26.66997
G01 X53.29309 Y26.51232
G01 X53.36677 Y26.04709
G01 X53.38534 Y25.87036
G01 X53.40998 Y25.40000
G01 X53.38534 Y24.92962
G01 X53.36677 Y24.75288
G01 X53.29309 Y24.28766
G01 X53.25082 Y24.12997
G01 X53.29309 Y23.97232
G01 X53.36677 Y23.50709
G01 X53.38534 Y23.33036
G01 X53.40998 Y22.86000
G01 X53.38534 Y22.38962
G01 X53.36677 Y22.21288
G01 X53.29309 Y21.74766
G01 X53.25082 Y21.58997
G01 X53.29309 Y21.43232
G01 X53.36677 Y20.96709
G01 X53.38534 Y20.79036
G01 X53.40998 Y20.32000
G01 X53.38534 Y19.84962
G01 X53.36677 Y19.67288
G01 X53.29309 Y19.20766
G01 X53.25082 Y19.04997
G01 X53.29309 Y18.89232
G01 X53.36677 Y18.42709
G01 X53.38534 Y18.25036
G01 X53.40998 Y17.78000
G01 X53.38534 Y17.30962
G01 X53.36677 Y17.13288
G01 X53.29309 Y16.66766
G01 X53.25082 Y16.50997
G01 X53.29309 Y16.35232
G01 X53.36677 Y15.88709
G01 X53.38534 Y15.71036
G01 X53.40998 Y15.24000
G01 X53.38534 Y14.76962
G01 X53.36677 Y14.59288
G01 X53.29309 Y14.12766
G01 X53.25082 Y13.96997
G01 X53.29309 Y13.81232
G01 X53.36677 Y13.34709
G01 X53.38534 Y13.17036
G01 X53.40998 Y12.70000
G01 X53.38534 Y12.22962
G01 X53.36677 Y12.05288
G01 X53.29309 Y11.58766
G01 X53.25085 Y11.42997
G01 X53.29309 Y11.27232
G01 X53.36677 Y10.80709
G01 X53.38534 Y10.63036
G01 X53.40998 Y10.16000
G01 X53.38534 Y9.68962
G01 X53.36677 Y9.51288
G01 X53.29309 Y9.04766
G01 X53.25082 Y8.88997
G01 X53.29309 Y8.73232
G01 X53.36677 Y8.26709
G01 X53.38534 Y8.09036
G01 X53.40998 Y7.62000
G01 X53.38534 Y7.14962
G01 X53.36677 Y6.97288
G01 X53.29309 Y6.50766
G01 X53.25082 Y6.34997
G01 X53.29309 Y6.19232
G01 X53.36677 Y5.72709
G01 X53.38534 Y5.55036
G01 X53.40998 Y5.07997
G01 X53.38534 Y4.60962
G01 X53.36677 Y4.43288
G01 X53.29309 Y3.96766
G01 X53.25082 Y3.80997
G01 X53.29309 Y3.65232
G01 X53.36677 Y3.18709
G01 X53.38534 Y3.01036
G01 X53.40998 Y2.53997
G01 X53.38534 Y2.06962
G01 X53.36677 Y1.89288
G01 X53.29309 Y1.42766
G01 X53.17117 Y0.97269
G01 X53.11623 Y0.80368
G01 X52.94742 Y0.36396
G01 X52.86393 Y0.20000
G01 X52.58372 Y0.19997
G01 X52.71907 Y0.46563
G01 X52.87848 Y0.88095
G01 X52.93337 Y1.04993
G01 X53.04854 Y1.47963
G01 X53.11813 Y1.91902
G01 X53.13670 Y2.09575
G01 X53.15996 Y2.53997
G01 X53.13670 Y2.98422
G01 X53.11813 Y3.16095
G01 X53.04854 Y3.60035
G01 X52.99235 Y3.80997
G01 X53.04854 Y4.01963
G01 X53.11813 Y4.45902
G01 X53.13670 Y4.63575
G01 X53.15996 Y5.07997
G01 X53.13670 Y5.52422
G01 X53.11813 Y5.70095
G01 X53.04854 Y6.14035
G01 X52.99235 Y6.34997
G01 X53.04854 Y6.55963
G01 X53.11813 Y6.99902
G01 X53.13670 Y7.17575
G01 X53.15996 Y7.62000
G01 X53.13670 Y8.06422
G01 X53.11813 Y8.24095
G01 X53.04854 Y8.68035
G01 X52.99235 Y8.88997
G01 X53.04854 Y9.09963
G01 X53.11813 Y9.53902
G01 X53.13670 Y9.71575
G01 X53.15996 Y10.16000
G01 X53.13670 Y10.60422
G01 X53.11813 Y10.78095
G01 X53.04854 Y11.22035
G01 X52.99235 Y11.42997
G01 X53.04854 Y11.63963
G01 X53.11813 Y12.07902
G01 X53.13670 Y12.25575
G01 X53.15996 Y12.70000
G01 X53.13670 Y13.14422
G01 X53.11813 Y13.32095
G01 X53.04854 Y13.76035
G01 X52.99235 Y13.96997
G01 X53.04854 Y14.17963
G01 X53.11813 Y14.61902
G01 X53.13670 Y14.79575
G01 X53.15996 Y15.24000
G01 X53.13670 Y15.68422
G01 X53.11813 Y15.86095
G01 X53.04854 Y16.30035
G01 X52.99235 Y16.50997
G01 X53.04854 Y16.71963
G01 X53.11813 Y17.15902
G01 X53.13670 Y17.33575
G01 X53.15996 Y17.78000
G01 X53.13670 Y18.22422
G01 X53.11813 Y18.40095
G01 X53.04854 Y18.84035
G01 X52.99235 Y19.04997
G01 X53.04854 Y19.25963
G01 X53.11813 Y19.69902
G01 X53.13670 Y19.87575
G01 X53.15996 Y20.32000
G01 X53.13670 Y20.76422
G01 X53.11813 Y20.94095
G01 X53.04854 Y21.38035
G01 X52.99235 Y21.58997
G01 X53.04854 Y21.79963
G01 X53.11813 Y22.23902
G01 X53.13670 Y22.41575
G01 X53.15996 Y22.86000
G01 X53.13670 Y23.30422
G01 X53.11813 Y23.48095
G01 X53.04854 Y23.92035
G01 X52.99235 Y24.12997
G01 X53.04854 Y24.33963
G01 X53.11813 Y24.77902
G01 X53.13670 Y24.95575
G01 X53.15996 Y25.40000
G01 X53.13670 Y25.84422
G01 X53.11813 Y26.02095
G01 X53.04854 Y26.46035
G01 X52.99235 Y26.66997
G01 X53.04854 Y26.87963
G01 X53.11813 Y27.31902
G01 X53.13670 Y27.49575
G01 X53.15996 Y27.94000
G01 X53.13670 Y28.38422
G01 X53.11813 Y28.56095
G01 X53.04854 Y29.00035
G01 X52.99235 Y29.20997
G01 X53.04854 Y29.41963
G01 X53.11813 Y29.85902
G01 X53.13670 Y30.03575
G01 X53.15996 Y30.48000
G01 X53.13670 Y30.92422
G01 X53.11813 Y31.10095
G01 X53.04854 Y31.54035
G01 X52.99235 Y31.74997
G01 X53.04854 Y31.95963
G01 X53.11813 Y32.39902
G01 X53.13670 Y32.57575
G01 X53.15996 Y33.02000
G01 X53.13670 Y33.46422
G01 X53.11813 Y33.64095
G01 X53.04854 Y34.08035
G01 X52.99235 Y34.28997
G01 X53.04854 Y34.49963
G01 X53.11813 Y34.93902
G01 X53.13670 Y35.11575
G01 X53.15996 Y35.56000
G01 X53.13670 Y36.00422
G01 X53.11813 Y36.18095
G01 X53.04854 Y36.62035
G01 X52.99235 Y36.82997
G01 X53.04854 Y37.03963
G01 X53.11813 Y37.47902
G01 X53.13670 Y37.65575
G01 X53.15996 Y38.10000
G01 X53.13670 Y38.54422
G01 X53.11813 Y38.72095
G01 X53.04854 Y39.16035
G01 X52.99235 Y39.36997
G01 X53.04854 Y39.57963
G01 X53.11813 Y40.01902
G01 X53.13670 Y40.19575
G01 X53.15996 Y40.64000
G01 X53.13670 Y41.08422
G01 X53.11813 Y41.26095
G01 X53.04854 Y41.70035
G01 X52.99235 Y41.90997
G01 X53.04854 Y42.11963
G01 X53.11813 Y42.55902
G01 X53.13670 Y42.73575
G01 X53.15996 Y43.18000
G01 X53.13670 Y43.62422
G01 X53.11813 Y43.80095
G01 X53.04854 Y44.24035
G01 X52.99235 Y44.44997
G01 X53.04854 Y44.65963
G01 X53.11813 Y45.09902
G01 X53.13670 Y45.27575
G01 X53.15996 Y45.72000
G01 X53.13670 Y46.16422
G01 X53.11813 Y46.34095
G01 X53.04854 Y46.78035
G01 X52.99235 Y46.98997
G01 X53.04854 Y47.19963
G01 X53.11813 Y47.63902
G01 X53.13670 Y47.81575
G01 X53.15996 Y48.26000
G01 X53.13670 Y48.70422
G01 X53.11813 Y48.88095
G01 X53.07678 Y49.14209
G01 X53.08041 Y49.14204
G01 X52.30767 Y49.15154
G01 X52.31699 Y49.15141
G01 X52.37223 Y48.80257
G01 X52.39080 Y48.62584
G01 X52.40995 Y48.26000
G01 X52.39080 Y47.89414
G01 X52.37223 Y47.71741
G01 X52.31493 Y47.35558
G01 X52.21628 Y46.98997
G01 X52.31493 Y46.62439
G01 X52.37223 Y46.26257
G01 X52.39080 Y46.08584
G01 X52.40995 Y45.72000
G01 X52.39080 Y45.35414
G01 X52.37223 Y45.17741
G01 X52.31493 Y44.81558
G01 X52.21628 Y44.44997
G01 X52.31493 Y44.08439
G01 X52.37223 Y43.72257
G01 X52.39080 Y43.54584
G01 X52.40995 Y43.18000
G01 X52.39080 Y42.81414
G01 X52.37223 Y42.63741
G01 X52.31493 Y42.27558
G01 X52.21628 Y41.90997
G01 X52.31493 Y41.54439
G01 X52.37223 Y41.18257
G01 X52.39080 Y41.00584
G01 X52.40995 Y40.64000
G01 X52.39080 Y40.27414
G01 X52.37223 Y40.09741
G01 X52.31493 Y39.73558
G01 X52.21628 Y39.36997
G01 X52.31493 Y39.00439
G01 X52.37223 Y38.64257
G01 X52.39080 Y38.46584
G01 X52.40995 Y38.10000
G01 X52.39080 Y37.73414
G01 X52.37223 Y37.55741
G01 X52.31493 Y37.19558
G01 X52.21628 Y36.82997
G01 X52.31493 Y36.46439
G01 X52.37223 Y36.10257
G01 X52.39080 Y35.92584
G01 X52.40995 Y35.56000
G01 X52.39080 Y35.19414
G01 X52.37223 Y35.01741
G01 X52.31493 Y34.65558
G01 X52.21628 Y34.28997
G01 X52.31493 Y33.92439
G01 X52.37223 Y33.56257
G01 X52.39080 Y33.38584
G01 X52.40995 Y33.02000
G01 X52.39080 Y32.65414
G01 X52.37223 Y32.47741
G01 X52.31493 Y32.11558
G01 X52.21628 Y31.74997
G01 X52.31493 Y31.38439
G01 X52.37223 Y31.02257
G01 X52.39080 Y30.84584
G01 X52.40995 Y30.48000
G01 X52.39080 Y30.11414
G01 X52.37223 Y29.93741
G01 X52.31493 Y29.57558
G01 X52.21628 Y29.20997
G01 X52.31493 Y28.84439
G01 X52.37223 Y28.48257
G01 X52.39080 Y28.30584
G01 X52.40995 Y27.94000
G01 X52.39080 Y27.57414
G01 X52.37223 Y27.39741
G01 X52.31493 Y27.03558
G01 X52.21628 Y26.66997
G01 X52.31493 Y26.30439
G01 X52.37223 Y25.94257
G01 X52.39080 Y25.76584
G01 X52.40995 Y25.40000
G01 X52.39080 Y25.03414
G01 X52.37223 Y24.85741
G01 X52.31493 Y24.49558
G01 X52.21628 Y24.12997
G01 X52.31493 Y23.76439
G01 X52.37223 Y23.40257
G01 X52.39080 Y23.22584
G01 X52.40995 Y22.86000
G01 X52.39080 Y22.49414
G01 X52.37223 Y22.31741
G01 X52.31493 Y21.95558
G01 X52.21628 Y21.58997
G01 X52.31493 Y21.22439
G01 X52.37223 Y20.86257
G01 X52.39080 Y20.68584
G01 X52.40995 Y20.32000
G01 X52.39080 Y19.95414
G01 X52.37223 Y19.77741
G01 X52.31493 Y19.41558
G01 X52.21628 Y19.04997
G01 X52.31493 Y18.68439
G01 X52.37223 Y18.32257
G01 X52.39080 Y18.14584
G01 X52.40995 Y17.78000
G01 X52.39080 Y17.41414
G01 X52.37223 Y17.23741
G01 X52.31493 Y16.87558
G01 X52.21628 Y16.50997
G01 X52.31493 Y16.14439
G01 X52.37223 Y15.78257
G01 X52.39080 Y15.60584
G01 X52.40995 Y15.24000
G01 X52.39080 Y14.87414
G01 X52.37223 Y14.69741
G01 X52.31493 Y14.33558
G01 X52.21628 Y13.96997
G01 X52.31493 Y13.60439
G01 X52.37223 Y13.24254
G01 X52.39080 Y13.06584
G01 X52.40995 Y12.70000
G01 X52.39080 Y12.33414
G01 X52.37223 Y12.15741
G01 X52.31493 Y11.79558
G01 X52.21628 Y11.42997
G01 X52.31493 Y11.06439
G01 X52.37223 Y10.70257
G01 X52.39080 Y10.52584
G01 X52.40995 Y10.16000
G01 X52.39080 Y9.79414
G01 X52.37223 Y9.61741
G01 X52.31493 Y9.25558
G01 X52.21628 Y8.88997
G01 X52.31493 Y8.52439
G01 X52.37223 Y8.16257
G01 X52.39080 Y7.98584
G01 X52.40995 Y7.62000
G01 X52.39080 Y7.25414
G01 X52.37223 Y7.07741
G01 X52.31493 Y6.71558
G01 X52.21628 Y6.34997
G01 X52.31493 Y5.98439
G01 X52.37223 Y5.62257
G01 X52.39080 Y5.44584
G01 X52.40995 Y5.07997
G01 X52.39080 Y4.71414
G01 X52.37223 Y4.53741
G01 X52.31493 Y4.17558
G01 X52.21628 Y3.80997
G01 X52.31493 Y3.44439
G01 X52.37223 Y3.08257
G01 X52.39080 Y2.90584
G01 X52.40995 Y2.53997
G01 X52.39080 Y2.17414
G01 X52.37223 Y1.99741
G01 X52.31493 Y1.63558
G01 X52.22011 Y1.28171
G01 X52.16520 Y1.11270
G01 X52.03391 Y0.77069
G01 X51.86759 Y0.44427
G01 X51.77874 Y0.29037
G01 X51.72006 Y0.20000
G01 X51.42238 Y0.20000
G01 X51.56223 Y0.41537
G01 X51.65108 Y0.56926
G01 X51.80554 Y0.87236
G01 X51.92743 Y1.18996
G01 X51.98234 Y1.35895
G01 X52.07038 Y1.68755
G01 X52.12362 Y2.02354
G01 X52.14219 Y2.20027
G01 X52.15999 Y2.53997
G01 X52.14219 Y2.87970
G01 X52.12362 Y3.05643
G01 X52.07038 Y3.39242
G01 X51.98234 Y3.72102
G01 X51.95344 Y3.80997
G01 X51.98234 Y3.89895
G01 X52.07038 Y4.22755
G01 X52.12362 Y4.56354
G01 X52.14219 Y4.74028
G01 X52.15999 Y5.07997
G01 X52.14219 Y5.41970
G01 X52.12362 Y5.59643
G01 X52.07038 Y5.93242
G01 X51.98234 Y6.26102
G01 X51.95344 Y6.34997
G01 X51.98234 Y6.43895
G01 X52.07038 Y6.76755
G01 X52.12362 Y7.10354
G01 X52.14219 Y7.28028
G01 X52.15999 Y7.62000
G01 X52.14219 Y7.95970
G01 X52.12362 Y8.13643
G01 X52.07038 Y8.47242
G01 X51.98234 Y8.80102
G01 X51.95344 Y8.88997
G01 X51.98234 Y8.97895
G01 X52.07038 Y9.30755
G01 X52.12362 Y9.64354
G01 X52.14219 Y9.82027
G01 X52.15999 Y10.16000
G01 X52.14219 Y10.49970
G01 X52.12362 Y10.67643
G01 X52.07038 Y11.01242
G01 X51.98234 Y11.34102
G01 X51.95344 Y11.42997
G01 X51.98234 Y11.51895
G01 X52.07038 Y11.84755
G01 X52.12362 Y12.18354
G01 X52.14219 Y12.36027
G01 X52.15999 Y12.70000
G01 X52.14219 Y13.03970
G01 X52.12362 Y13.21643
G01 X52.07038 Y13.55242
G01 X51.98234 Y13.88102
G01 X51.95344 Y13.96997
G01 X51.98234 Y14.05895
G01 X52.07038 Y14.38755
G01 X52.12362 Y14.72354
G01 X52.14219 Y14.90027
G01 X52.15999 Y15.24000
G01 X52.14219 Y15.57970
G01 X52.12362 Y15.75643
G01 X52.07038 Y16.09242
G01 X51.98234 Y16.42102
G01 X51.95344 Y16.50997
G01 X51.98234 Y16.59895
G01 X52.07038 Y16.92755
G01 X52.12362 Y17.26354
G01 X52.14219 Y17.44027
G01 X52.15999 Y17.78000
G01 X52.14219 Y18.11970
G01 X52.12362 Y18.29643
G01 X52.07038 Y18.63242
G01 X51.98234 Y18.96102
G01 X51.95344 Y19.04997
G01 X51.98234 Y19.13895
G01 X52.07038 Y19.46755
G01 X52.12362 Y19.80354
G01 X52.14219 Y19.98027
G01 X52.15999 Y20.32000
G01 X52.14219 Y20.65970
G01 X52.12362 Y20.83643
G01 X52.07038 Y21.17242
G01 X51.98234 Y21.50102
G01 X51.95344 Y21.58997
G01 X51.98234 Y21.67895
G01 X52.07038 Y22.00755
G01 X52.12362 Y22.34354
G01 X52.14219 Y22.52027
G01 X52.15999 Y22.86000
G01 X52.14219 Y23.19970
G01 X52.12362 Y23.37643
G01 X52.07038 Y23.71242
G01 X51.98234 Y24.04102
G01 X51.95344 Y24.12997
G01 X51.98234 Y24.21895
G01 X52.07038 Y24.54755
G01 X52.12362 Y24.88354
G01 X52.14219 Y25.06027
G01 X52.15999 Y25.40000
G01 X52.14219 Y25.73970
G01 X52.12362 Y25.91643
G01 X52.07038 Y26.25242
G01 X51.98234 Y26.58102
G01 X51.95344 Y26.66997
G01 X51.98234 Y26.75895
G01 X52.07038 Y27.08755
G01 X52.12362 Y27.42354
G01 X52.14219 Y27.60027
G01 X52.15999 Y27.94000
G01 X52.14219 Y28.27970
G01 X52.12362 Y28.45643
G01 X52.07038 Y28.79242
G01 X51.98234 Y29.12102
G01 X51.95344 Y29.20997
G01 X51.98234 Y29.29895
G01 X52.07038 Y29.62755
G01 X52.12362 Y29.96354
G01 X52.14219 Y30.14027
G01 X52.15999 Y30.48000
G01 X52.14219 Y30.81970
G01 X52.12362 Y30.99643
G01 X52.07038 Y31.33242
G01 X51.98234 Y31.66102
G01 X51.95344 Y31.74997
G01 X51.98234 Y31.83895
G01 X52.07038 Y32.16755
G01 X52.12362 Y32.50354
G01 X52.14219 Y32.68027
G01 X52.15999 Y33.02000
G01 X52.14219 Y33.35970
G01 X52.12362 Y33.53643
G01 X52.07038 Y33.87242
G01 X51.98234 Y34.20102
G01 X51.95344 Y34.28997
G01 X51.98234 Y34.37895
G01 X52.07038 Y34.70755
G01 X52.12362 Y35.04354
G01 X52.14219 Y35.22028
G01 X52.15999 Y35.56000
G01 X52.14219 Y35.89970
G01 X52.12362 Y36.07643
G01 X52.07038 Y36.41242
G01 X51.98234 Y36.74102
G01 X51.95344 Y36.82997
G01 X51.98234 Y36.91895
G01 X52.07038 Y37.24755
G01 X52.12362 Y37.58354
G01 X52.14219 Y37.76028
G01 X52.15999 Y38.10000
G01 X52.14219 Y38.43970
G01 X52.12362 Y38.61643
G01 X52.07038 Y38.95242
G01 X51.98234 Y39.28102
G01 X51.95344 Y39.36997
G01 X51.98234 Y39.45895
G01 X52.07038 Y39.78755
G01 X52.12362 Y40.12354
G01 X52.14219 Y40.30027
G01 X52.15999 Y40.64000
G01 X52.14219 Y40.97970
G01 X52.12362 Y41.15643
G01 X52.07038 Y41.49242
G01 X51.98234 Y41.82102
G01 X51.95344 Y41.90997
G01 X51.98234 Y41.99895
G01 X52.07038 Y42.32755
G01 X52.12362 Y42.66354
G01 X52.14219 Y42.84027
G01 X52.15999 Y43.18000
G01 X52.14219 Y43.51970
G01 X52.12362 Y43.69643
G01 X52.07038 Y44.03242
G01 X51.98234 Y44.36102
G01 X51.95344 Y44.44997
G01 X51.98234 Y44.53895
G01 X52.07038 Y44.86755
G01 X52.12362 Y45.20354
G01 X52.14219 Y45.38027
G01 X52.15999 Y45.72000
G01 X52.14219 Y46.05970
G01 X52.12362 Y46.23643
G01 X52.07038 Y46.57242
G01 X51.98234 Y46.90102
G01 X51.95344 Y46.98997
G01 X51.98234 Y47.07895
G01 X52.07038 Y47.40755
G01 X52.12362 Y47.74354
G01 X52.14219 Y47.92027
G01 X52.15999 Y48.26000
G01 X52.14219 Y48.59970
G01 X52.12362 Y48.77643
G01 X52.07038 Y49.11242
G01 X52.05910 Y49.15456
G01 X52.04866 Y49.15471
G01 X52.09753 Y49.31595
G01 X52.15999 Y49.94999
G01 X52.15999 Y51.64999
G01 X52.09753 Y52.28400
G01 X51.91260 Y52.89367
G01 X51.61227 Y53.45560
G01 X51.20808 Y53.94808
G01 X50.71560 Y54.35227
G01 X50.15370 Y54.65260
G01 X49.54402 Y54.83753
G01 X48.90999 Y54.89999
G01 X47.20999 Y54.89999
G01 X46.57595 Y54.83753
G01 X45.96628 Y54.65260
G01 X45.40438 Y54.35227
G01 X44.91190 Y53.94808
G01 X44.50771 Y53.45560
G01 X44.37685 Y53.21074
G01 X44.36468 Y53.16746
G01 X44.38998 Y53.25745
G01 X44.38998 Y63.90000
G01 X44.37433 Y64.21854
G01 X44.36473 Y64.31608
G01 X44.24042 Y64.94097
G01 X44.21198 Y65.03474
G01 X44.10453 Y65.33505
G01 X43.96816 Y65.62336
G01 X43.92196 Y65.70980
G01 X43.56801 Y66.23954
G01 X43.50583 Y66.31531
G01 X43.29163 Y66.55163
G01 X41.06329 Y68.78000
G01 X40.70302 Y68.77997
G01 X40.77485 Y68.71485
G01 X43.11485 Y66.37485
G01 X43.31256 Y66.15671
G01 X43.37474 Y66.08094
G01 X43.70149 Y65.59197
G01 X43.74769 Y65.50551
G01 X43.87357 Y65.23937
G01 X43.97276 Y64.96218
G01 X44.00121 Y64.86837
G01 X44.11594 Y64.29159
G01 X44.12554 Y64.19403
G01 X44.13999 Y63.90000
G01 X44.13999 Y34.46973
G01 X44.12097 Y34.46186
G01 X44.13999 Y34.46973
G01 X44.40250 Y34.20720
G01 X44.42940 Y34.28997
G01 X44.37540 Y34.45622
G01 X44.29412 Y34.75952
G01 X44.24500 Y35.06968
G01 X44.22643 Y35.24641
G01 X44.21000 Y35.56000
G01 X44.22643 Y35.87356
G01 X44.24500 Y36.05030
G01 X44.29412 Y36.36046
G01 X44.37540 Y36.66376
G01 X44.42940 Y36.82997
G01 X44.37540 Y36.99622
G01 X44.29412 Y37.29952
G01 X44.24500 Y37.60968
G01 X44.22643 Y37.78641
G01 X44.21000 Y38.10000
G01 X44.22643 Y38.41356
G01 X44.24500 Y38.59030
G01 X44.29412 Y38.90046
G01 X44.37540 Y39.20376
G01 X44.42940 Y39.36997
G01 X44.37540 Y39.53622
G01 X44.29412 Y39.83952
G01 X44.24500 Y40.14968
G01 X44.22643 Y40.32641
G01 X44.21000 Y40.64000
G01 X44.22643 Y40.95356
G01 X44.24500 Y41.13030
G01 X44.29412 Y41.44046
G01 X44.37540 Y41.74376
G01 X44.42940 Y41.90997
G01 X44.37540 Y42.07622
G01 X44.29412 Y42.37952
G01 X44.24500 Y42.68968
G01 X44.22643 Y42.86641
G01 X44.21000 Y43.18000
G01 X44.22643 Y43.49356
G01 X44.24500 Y43.67030
G01 X44.29412 Y43.98046
G01 X44.37540 Y44.28376
G01 X44.42940 Y44.44997
G01 X44.37540 Y44.61622
G01 X44.29412 Y44.91952
G01 X44.24500 Y45.22968
G01 X44.22643 Y45.40641
G01 X44.21000 Y45.72000
G01 X44.22643 Y46.03356
G01 X44.24500 Y46.21030
G01 X44.29412 Y46.52046
G01 X44.37540 Y46.82376
G01 X44.42940 Y46.98997
G01 X44.37540 Y47.15622
G01 X44.29412 Y47.45952
G01 X44.24500 Y47.76968
G01 X44.22643 Y47.94641
G01 X44.21000 Y48.26000
G01 X44.22643 Y48.57356
G01 X44.24500 Y48.75030
G01 X44.29412 Y49.06046
G01 X44.32021 Y49.15776
G01 X44.33037 Y49.15789
G01 X44.26763 Y49.36472
G01 X44.21000 Y49.94999
G01 X44.21000 Y51.64999
G01 X44.26763 Y52.23525
G01 X44.43834 Y52.79804
G01 X44.71558 Y53.31671
G01 X45.08866 Y53.77132
G01 X45.54327 Y54.14439
G01 X46.06193 Y54.42163
G01 X46.62472 Y54.59235
G01 X47.20999 Y54.64998
G01 X48.90999 Y54.64998
G01 X49.49525 Y54.59235
G01 X50.05804 Y54.42163
G01 X50.57671 Y54.14439
G01 X51.03132 Y53.77132
G01 X51.40437 Y53.31671
G01 X51.68163 Y52.79804
G01 X51.85235 Y52.23525
G01 X51.90995 Y51.64999
G01 X51.90995 Y49.94999
G01 X51.85235 Y49.36472
G01 X51.78963 Y49.15789
G01 X51.79977 Y49.15776
G01 X51.82586 Y49.06046
G01 X51.87498 Y48.75030
G01 X51.89355 Y48.57356
G01 X51.90995 Y48.26000
G01 X51.89355 Y47.94641
G01 X51.87498 Y47.76968
G01 X51.82586 Y47.45952
G01 X51.74458 Y47.15622
G01 X51.69057 Y46.98997
G01 X51.74458 Y46.82376
G01 X51.82586 Y46.52046
G01 X51.87498 Y46.21030
G01 X51.89355 Y46.03356
G01 X51.90995 Y45.72000
G01 X51.89355 Y45.40641
G01 X51.87498 Y45.22968
G01 X51.82586 Y44.91952
G01 X51.74458 Y44.61622
G01 X51.69057 Y44.44997
G01 X51.74458 Y44.28376
G01 X51.82586 Y43.98046
G01 X51.87498 Y43.67030
G01 X51.89355 Y43.49356
G01 X51.90995 Y43.18000
G01 X51.89355 Y42.86641
G01 X51.87498 Y42.68968
G01 X51.82586 Y42.37952
G01 X51.74458 Y42.07622
G01 X51.69057 Y41.90997
G01 X51.74458 Y41.74376
G01 X51.82586 Y41.44046
G01 X51.87498 Y41.13030
G01 X51.89355 Y40.95356
G01 X51.90995 Y40.64000
G01 X51.89355 Y40.32641
G01 X51.87498 Y40.14968
G01 X51.82586 Y39.83952
G01 X51.74458 Y39.53622
G01 X51.69057 Y39.36997
G01 X51.74458 Y39.20376
G01 X51.82586 Y38.90046
G01 X51.87498 Y38.59030
G01 X51.89355 Y38.41356
G01 X51.90995 Y38.10000
G01 X51.89355 Y37.78641
G01 X51.87498 Y37.60968
G01 X51.82586 Y37.29952
G01 X51.74458 Y36.99622
G01 X51.69057 Y36.82997
G01 X51.74458 Y36.66376
G01 X51.82586 Y36.36046
G01 X51.87498 Y36.05030
G01 X51.89355 Y35.87356
G01 X51.90995 Y35.56000
G01 X51.89355 Y35.24641
G01 X51.87498 Y35.06968
G01 X51.82586 Y34.75952
G01 X51.74458 Y34.45622
G01 X51.69057 Y34.28997
G01 X51.74458 Y34.12376
G01 X51.82586 Y33.82046
G01 X51.87498 Y33.51030
G01 X51.89355 Y33.33356
G01 X51.90995 Y33.02000
G01 X51.89355 Y32.70641
G01 X51.87498 Y32.52968
G01 X51.82586 Y32.21952
G01 X51.74458 Y31.91622
G01 X51.69057 Y31.74997
G01 X51.74458 Y31.58376
G01 X51.82586 Y31.28046
G01 X51.87498 Y30.97030
G01 X51.89355 Y30.79356
G01 X51.90995 Y30.48000
G01 X51.89355 Y30.16641
G01 X51.87498 Y29.98968
G01 X51.82586 Y29.67952
G01 X51.74458 Y29.37622
G01 X51.69057 Y29.20997
G01 X51.74458 Y29.04376
G01 X51.82586 Y28.74046
G01 X51.87498 Y28.43030
G01 X51.89355 Y28.25356
G01 X51.90995 Y27.94000
G01 X51.89355 Y27.62641
G01 X51.87498 Y27.44968
G01 X51.82586 Y27.13952
G01 X51.74458 Y26.83622
G01 X51.69057 Y26.66997
G01 X51.74458 Y26.50376
G01 X51.82586 Y26.20046
G01 X51.87498 Y25.89030
G01 X51.89355 Y25.71356
G01 X51.90995 Y25.40000
G01 X51.89355 Y25.08641
G01 X51.87498 Y24.90968
G01 X51.82586 Y24.59952
G01 X51.74458 Y24.29622
G01 X51.69057 Y24.12997
G01 X51.74458 Y23.96376
G01 X51.82586 Y23.66046
G01 X51.87498 Y23.35030
G01 X51.89355 Y23.17356
G01 X51.90995 Y22.86000
G01 X51.89355 Y22.54641
G01 X51.87498 Y22.36968
G01 X51.82586 Y22.05952
G01 X51.74458 Y21.75622
G01 X51.69057 Y21.58997
G01 X51.74458 Y21.42376
G01 X51.82586 Y21.12046
G01 X51.87498 Y20.81030
G01 X51.89355 Y20.63356
G01 X51.90995 Y20.32000
G01 X51.89355 Y20.00641
G01 X51.87498 Y19.82968
G01 X51.82586 Y19.51952
G01 X51.74458 Y19.21622
G01 X51.69057 Y19.04997
G01 X51.74458 Y18.88376
G01 X51.82586 Y18.58046
G01 X51.87498 Y18.27030
G01 X51.89355 Y18.09356
G01 X51.90995 Y17.78000
G01 X51.89355 Y17.46641
G01 X51.87498 Y17.28968
G01 X51.82586 Y16.97952
G01 X51.74458 Y16.67622
G01 X51.69057 Y16.50997
G01 X51.74458 Y16.34376
G01 X51.82586 Y16.04046
G01 X51.87498 Y15.73030
G01 X51.89355 Y15.55356
G01 X51.90995 Y15.24000
G01 X51.89355 Y14.92641
G01 X51.87498 Y14.74968
G01 X51.82586 Y14.43952
G01 X51.74458 Y14.13622
G01 X51.69057 Y13.96997
G01 X51.74458 Y13.80376
G01 X51.82586 Y13.50046
G01 X51.87498 Y13.19027
G01 X51.89355 Y13.01356
G01 X51.90995 Y12.70000
G01 X51.89355 Y12.38641
G01 X51.87498 Y12.20968
G01 X51.82586 Y11.89952
G01 X51.74458 Y11.59622
