( pcb2gcode 2.1.0 )
( Software-independent Gcode )

G94 ( Millimeters per minute feed rate. )
G21 ( Units == Millimeters. )

G90 ( Absolute coordinates. )
G00 S15000 ( RPM spindle speed. )
G01 F600.00000 ( Feedrate. )


G00 Z5.00000 ( retract )

G00 X22.91311 Y18.17299 ( rapid move to begin. )
G01 F300.00000
( Mill infeed pass 1/1 )
G01 Z-0.05000
G01 F600.00000
G01 X22.91311 Y18.17299
G01 X22.70999 Y17.97997
G01 X22.91306 Y17.78701
G01 X23.09078 Y17.62699
G01 X23.41479 Y17.36339
G01 X23.59231 Y17.23398
G01 X23.84516 Y17.06918
G01 X24.02302 Y16.96687
G01 X24.22637 Y16.86291
G01 X24.40409 Y16.78376
G01 X24.59980 Y16.70997
G01 X24.59886 Y16.70528
G01 X24.59980 Y16.70997
G01 X24.59906 Y16.70591
G01 X24.59980 Y16.70997
G01 X26.76588 Y16.70997
G01 X26.86441 Y16.96128
G01 X26.91524 Y17.11797
G01 X26.96286 Y17.29567
G01 X26.99238 Y17.43413
G01 X27.02052 Y17.61183
G01 X27.03403 Y17.73994
G01 X27.04333 Y17.91764
G01 X27.04333 Y18.04233
G01 X27.03403 Y18.22000
G01 X27.02052 Y18.34812
G01 X26.99238 Y18.52582
G01 X26.96286 Y18.66428
G01 X26.91524 Y18.84197
G01 X26.86421 Y18.99859
G01 X26.76588 Y19.24997
G01 X24.59980 Y19.24997
G01 X24.59886 Y19.25467
G01 X24.59980 Y19.24997
G01 X24.57364 Y19.24149
G01 X24.57267 Y19.24621
G01 X24.57364 Y19.24149
G01 X24.40409 Y19.17619
G01 X24.22622 Y19.09737
G01 X24.02302 Y18.99308
G01 X23.84534 Y18.89049
G01 X23.59228 Y18.72597
G01 X23.41479 Y18.59656
G01 X23.09078 Y18.33298
G01 X22.91311 Y18.17299
G01 X22.70999 Y17.97997
G01 X15.44000 Y17.97997
G01 X15.23919 Y17.97505
G01 X14.90129 Y17.95137
G01 X14.90061 Y17.95463
G01 X14.90129 Y17.95137
G01 X14.90061 Y17.95429
G01 X14.90129 Y17.95137
G01 X14.74915 Y17.88658
G01 X14.28676 Y17.70139
G01 X13.48075 Y17.39920
G01 X12.92736 Y17.16999
G01 X12.04999 Y17.16999
G01 X11.56226 Y17.21803
G01 X11.09327 Y17.36029
G01 X10.66107 Y17.59130
G01 X10.28222 Y17.90222
G01 X9.97130 Y18.28107
G01 X9.74029 Y18.71327
G01 X9.59802 Y19.18226
G01 X9.54999 Y19.66999
G01 X9.54999 Y21.36999
G01 X9.59802 Y21.85772
G01 X9.74029 Y22.32670
G01 X9.97130 Y22.75891
G01 X10.28222 Y23.13775
G01 X10.66107 Y23.44867
G01 X11.09327 Y23.67968
G01 X11.56226 Y23.82195
G01 X12.04999 Y23.86998
G01 X13.74999 Y23.86998
G01 X14.23772 Y23.82195
G01 X14.70670 Y23.67968
G01 X15.00548 Y23.51999
G01 X15.00360 Y23.51250
G01 X15.00548 Y23.51999
G01 X22.28581 Y23.51999
G01 X22.01210 Y23.84212
G01 X21.64344 Y24.32997
G01 X26.76588 Y24.32997
G01 X26.86441 Y24.58128
G01 X26.91524 Y24.73797
G01 X26.96286 Y24.91567
G01 X26.99238 Y25.05413
G01 X27.02052 Y25.23183
G01 X27.03403 Y25.35994
G01 X27.04333 Y25.53764
G01 X27.04333 Y25.66231
G01 X27.03403 Y25.84000
G01 X27.02052 Y25.96812
G01 X26.99238 Y26.14582
G01 X26.96286 Y26.28425
G01 X26.91524 Y26.46195
G01 X26.86421 Y26.61859
G01 X26.76588 Y26.86997
G01 X24.26035 Y26.86997
G01 X24.16917 Y26.97124
G01 X24.10330 Y27.05257
G01 X24.04631 Y27.14036
G01 X23.95746 Y27.29426
G01 X23.90993 Y27.38752
G01 X23.87242 Y27.48524
G01 X23.81750 Y27.65425
G01 X23.79040 Y27.75534
G01 X23.77404 Y27.85875
G01 X23.75548 Y28.03545
G01 X23.74999 Y28.14000
G01 X23.75548 Y28.24452
G01 X23.77404 Y28.42123
G01 X23.79040 Y28.52463
G01 X23.81750 Y28.62572
G01 X23.87242 Y28.79474
G01 X23.90993 Y28.89245
G01 X23.95746 Y28.98572
G01 X24.04631 Y29.13962
G01 X24.10330 Y29.22740
G01 X24.16917 Y29.30873
G01 X24.26035 Y29.40997
G01 X24.16917 Y29.51124
G01 X24.10330 Y29.59257
G01 X24.04631 Y29.68036
G01 X23.95746 Y29.83426
G01 X23.90993 Y29.92752
G01 X23.87242 Y30.02524
G01 X23.81750 Y30.19425
G01 X23.79040 Y30.29534
G01 X23.77404 Y30.39875
G01 X23.75548 Y30.57545
G01 X23.74999 Y30.68000
G01 X23.75548 Y30.78452
G01 X23.77404 Y30.96123
G01 X23.79040 Y31.06463
G01 X23.81750 Y31.16572
G01 X23.87242 Y31.33474
G01 X23.90993 Y31.43245
G01 X23.95746 Y31.52572
G01 X24.04631 Y31.67962
G01 X24.10330 Y31.76740
G01 X24.16917 Y31.84873
G01 X24.26035 Y31.94997
G01 X24.09015 Y31.94997
G01 X24.07465 Y31.93364
G01 X23.92004 Y31.75254
G01 X23.81095 Y31.61035
G01 X23.66744 Y31.40131
G01 X23.57194 Y31.24548
G01 X23.43706 Y30.99661
G01 X23.35591 Y30.82646
G01 X23.22949 Y30.52023
G01 X23.16376 Y30.33466
G01 X23.04882 Y29.94449
G01 X23.00016 Y29.74183
G01 X22.93300 Y29.40997
G01 X26.76588 Y29.40997
G01 X26.86441 Y29.66128
G01 X26.91524 Y29.81797
G01 X26.96286 Y29.99567
G01 X26.99238 Y30.13413
G01 X27.02052 Y30.31183
G01 X27.03403 Y30.43994
G01 X27.04333 Y30.61764
G01 X27.04333 Y30.74233
G01 X27.03403 Y30.92000
G01 X27.02052 Y31.04812
G01 X26.99238 Y31.22582
G01 X26.96286 Y31.36428
G01 X26.91524 Y31.54197
G01 X26.86421 Y31.69859
G01 X26.76588 Y31.94997
G01 X24.26035 Y31.94997
G01 X24.16917 Y32.05124
G01 X24.10330 Y32.13257
G01 X24.10043 Y32.13702
G01 X24.10287 Y32.17708
G01 X24.09015 Y31.94997
G01 X23.92004 Y31.75254
G01 X23.81067 Y31.61055
G01 X23.66744 Y31.40131
G01 X23.57194 Y31.24548
G01 X23.43676 Y30.99676
G01 X23.35548 Y30.82666
G01 X23.22919 Y30.52036
G01 X23.16376 Y30.33466
G01 X23.04882 Y29.94449
G01 X23.00016 Y29.74183
G01 X22.93300 Y29.40997
G01 X22.76414 Y29.15481
G01 X22.66864 Y28.99900
G01 X22.50021 Y28.69974
G01 X22.25507 Y28.23688
G01 X22.24999 Y28.14000
G01 X22.26368 Y27.87866
G01 X22.28225 Y27.70195
G01 X22.32320 Y27.44348
G01 X22.39091 Y27.19073
G01 X22.44583 Y27.02171
G01 X22.50407 Y26.86997
G01 X22.44583 Y26.71826
G01 X22.39091 Y26.54922
G01 X22.32320 Y26.29649
G01 X22.28225 Y26.03800
G01 X22.26368 Y25.86131
G01 X22.24999 Y25.59997
G01 X22.26368 Y25.33866
G01 X22.28225 Y25.16195
G01 X22.32320 Y24.90348
G01 X22.39091 Y24.65073
G01 X22.44583 Y24.48171
G01 X22.50407 Y24.32997
G01 X22.44583 Y24.17826
G01 X22.39091 Y24.00925
G01 X22.32320 Y23.75649
G01 X22.28581 Y23.51999
G01 X22.48438 Y23.29805
G01 X22.91306 Y22.86701
G01 X23.09076 Y22.70699
G01 X23.41479 Y22.44339
G01 X23.59251 Y22.31428
G01 X23.84534 Y22.14946
G01 X24.02302 Y22.04687
G01 X24.22637 Y21.94291
G01 X24.40409 Y21.86376
G01 X24.59980 Y21.78997
G01 X26.76588 Y21.78997
G01 X24.59980 Y21.78997
G01 X24.59886 Y21.78528
G01 X24.59980 Y21.78997
G01 X24.59904 Y21.78591
G01 X24.59980 Y21.78997
G01 X24.57364 Y21.79846
G01 X24.57267 Y21.79373
G01 X24.57364 Y21.79846
G01 X24.40409 Y21.86376
G01 X24.22637 Y21.94291
G01 X24.02302 Y22.04687
G01 X23.84516 Y22.14918
G01 X23.59228 Y22.31398
G01 X23.41463 Y22.44319
G01 X23.09058 Y22.70676
G01 X22.91283 Y22.86676
G01 X22.48438 Y23.29805
G01 X22.30671 Y23.49538
G01 X22.01210 Y23.84212
G01 X21.64344 Y24.32997
G01 X21.18650 Y24.67859
G01 X20.80364 Y25.00671
G01 X20.62592 Y25.16673
G01 X20.16999 Y25.59997
G01 X15.23299 Y25.59997
G01 X15.47205 Y25.67252
G01 X15.48602 Y25.67998
G01 X15.48557 Y25.68291
G01 X15.48602 Y25.67998
G01 X20.25424 Y25.68100
G01 X20.25000 Y25.59997
G01 X20.25419 Y25.51996
G01 X15.48602 Y25.51999
G01 X15.48557 Y25.51707
G01 X15.48602 Y25.51999
G01 X15.47205 Y25.52746
G01 X15.23299 Y25.59997
G01 X13.95319 Y25.59997
G01 X14.57912 Y25.66162
G01 X15.37640 Y25.90348
G01 X15.42595 Y25.93000
G01 X15.42407 Y25.93749
G01 X15.42595 Y25.93000
G01 X20.51309 Y25.93000
G01 X20.51751 Y25.93419
G01 X20.49998 Y25.59997
G01 X20.51728 Y25.26995
G01 X15.42595 Y25.26998
G01 X15.42407 Y25.26248
G01 X15.42595 Y25.26998
G01 X15.37640 Y25.29647
G01 X14.57912 Y25.53833
G01 X13.95319 Y25.59997
G01 X9.40806 Y25.59997
G01 X9.27214 Y25.67264
G01 X8.51446 Y26.29446
G01 X7.89264 Y27.05214
G01 X7.43059 Y27.91658
G01 X7.14606 Y28.85453
G01 X7.05000 Y29.82999
G01 X7.05000 Y31.52999
G01 X7.13047 Y32.34708
G01 X6.87017 Y32.35028
G01 X6.84733 Y32.49450
G01 X6.82874 Y32.67121
G01 X6.79999 Y33.22000
G01 X6.82874 Y33.76877
G01 X6.84733 Y33.94547
G01 X6.93377 Y34.48997
G01 X6.84733 Y35.03450
G01 X6.82874 Y35.21121
G01 X6.79999 Y35.76000
G01 X6.82874 Y36.30877
G01 X6.84733 Y36.48547
G01 X6.92089 Y36.94999
G01 X7.16780 Y37.02997
G01 X11.56035 Y37.02997
G01 X11.46917 Y36.92873
G01 X11.40330 Y36.84740
G01 X11.34631 Y36.75962
G01 X11.25746 Y36.60572
G01 X11.20993 Y36.51245
G01 X11.17242 Y36.41474
G01 X11.11750 Y36.24572
G01 X11.09040 Y36.14463
G01 X11.07404 Y36.04123
G01 X11.05548 Y35.86452
G01 X11.04999 Y35.76000
G01 X11.05548 Y35.65545
G01 X11.07404 Y35.47875
G01 X11.09040 Y35.37534
G01 X11.11750 Y35.27425
G01 X11.17242 Y35.10524
G01 X11.20993 Y35.00752
G01 X11.25746 Y34.91426
G01 X11.34631 Y34.76036
G01 X11.40330 Y34.67257
G01 X11.46917 Y34.59124
G01 X11.56035 Y34.48997
G01 X11.46917 Y34.38873
G01 X11.40330 Y34.30740
G01 X11.34631 Y34.21962
G01 X11.25746 Y34.06572
G01 X11.20993 Y33.97245
G01 X11.17242 Y33.87474
G01 X11.11750 Y33.70572
G01 X11.09040 Y33.60463
G01 X11.07404 Y33.50123
G01 X11.05548 Y33.32452
G01 X11.04999 Y33.22000
G01 X11.05548 Y33.11545
G01 X11.07404 Y32.93875
G01 X11.09040 Y32.83534
G01 X11.11750 Y32.73425
G01 X11.17242 Y32.56524
G01 X11.20993 Y32.46752
G01 X11.25746 Y32.37426
G01 X11.33953 Y32.23212
G01 X11.36297 Y32.23009
G01 X11.33884 Y32.23217
G01 X11.21852 Y32.08556
G01 X11.12611 Y31.91266
G01 X11.06919 Y31.72508
G01 X11.04999 Y31.52999
G01 X11.04999 Y29.82999
G01 X11.06919 Y29.63489
G01 X11.12611 Y29.44731
G01 X11.21852 Y29.27441
G01 X11.34288 Y29.12288
G01 X11.49441 Y28.99852
G01 X11.66731 Y28.90611
G01 X11.85489 Y28.84919
G01 X12.04999 Y28.82999
G01 X13.74999 Y28.82999
G01 X13.94508 Y28.84919
G01 X14.13266 Y28.90611
G01 X14.30556 Y28.99852
G01 X14.45710 Y29.12288
G01 X14.50396 Y29.17998
G01 X14.49261 Y29.20398
G01 X14.50396 Y29.17998
G01 X20.51997 Y29.17998
G01 X20.71555 Y29.19440
G01 X20.81263 Y29.20881
G01 X21.00161 Y29.26110
G01 X21.09401 Y29.29418
G01 X21.26917 Y29.38234
G01 X21.43216 Y29.49125
G01 X21.58065 Y29.61932
G01 X24.10056 Y32.13923
G01 X24.12350 Y32.41058
G01 X24.14191 Y32.69724
G01 X24.15530 Y33.06275
G01 X24.15662 Y33.28233
G01 X24.16592 Y33.46000
G01 X24.17854 Y33.58822
G01 X24.20757 Y33.76582
G01 X24.23681 Y33.90435
G01 X24.28471 Y34.08197
G01 X24.33574 Y34.23859
G01 X24.43406 Y34.48997
G01 X24.33574 Y34.74136
G01 X24.30998 Y34.82040
G01 X24.31344 Y34.80981
G01 X24.35497 Y34.75853
G01 X24.47387 Y34.62647
G01 X24.52939 Y34.57095
G01 X24.63386 Y34.48997
G01 X24.52939 Y34.40902
G01 X24.47387 Y34.35350
G01 X24.35497 Y34.22145
G01 X24.31346 Y34.17019
G01 X24.28410 Y34.08215
G01 X24.30998 Y34.15955
G01 X24.30998 Y34.82040
G01 X24.28471 Y34.89797
G01 X24.23673 Y35.07557
G01 X24.20689 Y35.21400
G01 X24.17907 Y35.39180
G01 X24.16592 Y35.51994
G01 X24.15583 Y35.69762
G01 X24.15662 Y35.82233
G01 X24.16559 Y36.00005
G01 X24.17892 Y36.12817
G01 X24.20724 Y36.30587
G01 X24.23681 Y36.44435
G01 X24.28471 Y36.62197
G01 X24.33574 Y36.77859
G01 X24.43406 Y37.02997
G01 X24.33574 Y37.28136
G01 X24.30998 Y37.36040
G01 X24.31344 Y37.34981
G01 X24.35497 Y37.29853
G01 X24.47387 Y37.16647
G01 X24.52939 Y37.11095
G01 X24.63386 Y37.02997
G01 X24.52939 Y36.94902
G01 X24.47387 Y36.89350
G01 X24.35497 Y36.76145
G01 X24.31346 Y36.71019
G01 X24.28433 Y36.62208
G01 X24.30998 Y36.69955
G01 X24.30998 Y37.36040
G01 X24.28471 Y37.43797
G01 X24.23673 Y37.61557
G01 X24.20689 Y37.75400
G01 X24.17907 Y37.93180
G01 X24.16592 Y38.05994
G01 X24.15583 Y38.23762
G01 X24.15662 Y38.36233
G01 X24.16559 Y38.54005
G01 X24.17892 Y38.66817
G01 X24.20724 Y38.84587
G01 X24.23681 Y38.98435
G01 X24.28471 Y39.16197
G01 X24.33574 Y39.31859
G01 X24.43406 Y39.56997
G01 X24.33574 Y39.82136
G01 X24.30998 Y39.90040
G01 X24.31344 Y39.88981
G01 X24.35497 Y39.83853
G01 X24.47387 Y39.70647
G01 X24.52939 Y39.65095
G01 X24.63386 Y39.56997
G01 X24.52939 Y39.48902
G01 X24.47387 Y39.43350
G01 X24.35497 Y39.30145
G01 X24.31346 Y39.25019
G01 X24.28433 Y39.16208
G01 X24.30998 Y39.23955
G01 X24.30998 Y39.90040
G01 X24.28471 Y39.97797
G01 X24.23673 Y40.15557
G01 X24.20689 Y40.29400
G01 X24.17907 Y40.47180
G01 X24.16592 Y40.59994
G01 X24.15583 Y40.77762
G01 X24.15662 Y40.90233
G01 X24.16559 Y41.08005
G01 X24.17892 Y41.20817
G01 X24.20724 Y41.38587
G01 X24.23681 Y41.52435
G01 X24.28471 Y41.70197
G01 X24.33574 Y41.85859
G01 X24.43406 Y42.10997
G01 X26.05347 Y42.10997
G01 X26.22834 Y42.18709
G01 X26.27498 Y42.21086
G01 X26.31887 Y42.23936
G01 X26.50333 Y42.37675
G01 X26.65923 Y42.54581
G01 X26.69215 Y42.58648
G01 X26.72067 Y42.63037
G01 X26.83327 Y42.83090
G01 X26.90693 Y43.04876
G01 X26.92049 Y43.09930
G01 X26.92867 Y43.15099
G01 X26.94998 Y43.38000
G01 X26.92867 Y43.60898
G01 X26.92049 Y43.66067
G01 X26.85204 Y43.88023
G01 X26.83327 Y43.92907
G01 X26.80952 Y43.97571
G01 X26.69215 Y44.17350
G01 X26.54031 Y44.34622
G01 X26.50333 Y44.38322
G01 X26.46263 Y44.41617
G01 X26.27498 Y44.54911
G01 X26.05347 Y44.64997
G01 X26.76588 Y44.64997
G01 X25.14656 Y44.64997
G01 X24.92499 Y44.75086
G01 X24.88110 Y44.77936
G01 X24.69665 Y44.91675
G01 X24.54074 Y45.08581
G01 X24.50783 Y45.12648
G01 X24.39045 Y45.32427
G01 X24.36670 Y45.37090
G01 X24.34796 Y45.41975
G01 X24.27948 Y45.63930
G01 X24.25273 Y45.86773
G01 X24.24999 Y45.92000
G01 X24.27130 Y46.14898
G01 X24.27948 Y46.20067
G01 X24.34796 Y46.42023
G01 X24.36670 Y46.46907
G01 X24.47930 Y46.66960
G01 X24.50783 Y46.71350
G01 X24.54074 Y46.75416
G01 X24.69665 Y46.92322
G01 X24.88110 Y47.06061
G01 X24.92499 Y47.08911
G01 X25.14656 Y47.18997
G01 X24.63386 Y47.18997
G01 X24.52939 Y47.10902
G01 X24.47387 Y47.05350
G01 X24.35497 Y46.92145
G01 X24.31346 Y46.87019
G01 X24.28471 Y46.78197
G01 X24.33574 Y46.93859
G01 X24.43406 Y47.18997
G01 X24.33574 Y47.44136
G01 X24.28471 Y47.59797
G01 X24.23709 Y47.77567
G01 X24.20757 Y47.91413
G01 X24.17943 Y48.09183
G01 X24.16592 Y48.21994
G01 X24.15662 Y48.39764
G01 X24.15662 Y48.52233
G01 X24.16592 Y48.70000
G01 X24.17943 Y48.82812
G01 X24.20757 Y49.00582
G01 X24.23709 Y49.14428
G01 X24.28471 Y49.32197
G01 X24.33925 Y49.48773
G01 X24.54532 Y49.52906
G01 X24.68623 Y49.56650
G01 X24.86505 Y49.62268
G01 X24.97224 Y49.65149
G01 X24.74999 Y49.64999
G01 X24.65245 Y49.65959
G01 X24.55865 Y49.68804
G01 X24.47221 Y49.73424
G01 X24.39645 Y49.79645
G01 X24.33424 Y49.87221
G01 X24.28804 Y49.95865
G01 X24.25959 Y50.05245
G01 X24.24999 Y50.14999
G01 X24.24999 Y51.19576
G01 X24.06000 Y51.00577
G01 X24.04097 Y51.01364
G01 X24.06000 Y51.00577
G01 X24.06000 Y33.21997
G01 X24.04798 Y33.07344
G01 X24.02886 Y32.97730
G01 X24.00041 Y32.88350
G01 X23.96289 Y32.79295
G01 X23.91669 Y32.70651
G01 X23.86223 Y32.62500
G01 X23.76708 Y32.51289
G01 X21.22708 Y29.97289
G01 X21.11497 Y29.87774
G01 X21.03346 Y29.82328
G01 X20.90268 Y29.75610
G01 X20.76267 Y29.71112
G01 X20.66653 Y29.69199
G01 X20.51997 Y29.67998
G01 X14.22446 Y29.68000
G01 X14.19913 Y29.71950
G01 X14.22446 Y29.68000
G01 X14.21194 Y29.63865
G01 X14.16573 Y29.55221
G01 X14.10355 Y29.47645
G01 X14.02778 Y29.41424
G01 X13.94132 Y29.36804
G01 X13.84752 Y29.33959
G01 X13.74999 Y29.32999
G01 X12.04999 Y29.32999
G01 X11.95245 Y29.33959
G01 X11.85865 Y29.36804
G01 X11.77221 Y29.41424
G01 X11.69645 Y29.47645
G01 X11.63424 Y29.55221
G01 X11.58804 Y29.63865
G01 X11.55959 Y29.73245
G01 X11.54999 Y29.82999
G01 X11.54999 Y31.52999
G01 X11.55959 Y31.62752
G01 X11.58804 Y31.72132
G01 X11.63424 Y31.80778
G01 X11.69645 Y31.88355
G01 X11.77221 Y31.94573
G01 X11.85865 Y31.99193
G01 X11.95245 Y32.02038
G01 X12.04999 Y32.02998
G01 X12.26650 Y32.02998
G01 X12.22499 Y32.05086
G01 X12.18110 Y32.07936
G01 X12.03734 Y32.18381
G01 X11.99665 Y32.21675
G01 X11.95967 Y32.25376
G01 X11.80782 Y32.42648
G01 X11.77930 Y32.47037
G01 X11.66670 Y32.67090
G01 X11.59304 Y32.88876
G01 X11.57948 Y32.93930
G01 X11.57130 Y32.99099
G01 X11.54999 Y33.22000
G01 X11.57130 Y33.44898
G01 X11.57948 Y33.50067
G01 X11.59304 Y33.55122
G01 X11.66670 Y33.76907
G01 X11.77930 Y33.96960
G01 X11.80782 Y34.01350
G01 X11.84074 Y34.05416
G01 X11.99665 Y34.22322
G01 X12.18110 Y34.36061
G01 X12.22499 Y34.38911
G01 X12.27163 Y34.41289
G01 X12.44656 Y34.48997
G01 X12.22499 Y34.59086
G01 X12.03734 Y34.72381
G01 X11.99665 Y34.75675
G01 X11.95967 Y34.79376
G01 X11.80782 Y34.96648
G01 X11.77930 Y35.01037
G01 X11.66670 Y35.21090
G01 X11.59304 Y35.42876
G01 X11.57948 Y35.47930
G01 X11.57130 Y35.53099
G01 X11.55273 Y35.70773
G01 X11.54999 Y35.76000
G01 X11.55273 Y35.81225
G01 X11.57948 Y36.04067
G01 X11.64796 Y36.26023
G01 X11.66670 Y36.30907
G01 X11.69045 Y36.35571
G01 X11.80782 Y36.55350
G01 X11.95967 Y36.72622
G01 X11.99665 Y36.76322
G01 X12.03734 Y36.79617
G01 X12.22499 Y36.92911
G01 X12.44656 Y37.02997
G01 X12.22499 Y37.13086
G01 X12.03734 Y37.26381
G01 X11.99665 Y37.29675
G01 X11.95967 Y37.33376
G01 X11.80782 Y37.50648
G01 X11.77930 Y37.55037
G01 X11.66670 Y37.75090
G01 X11.59304 Y37.96876
G01 X11.57948 Y38.01930
G01 X11.57130 Y38.07099
G01 X11.55273 Y38.24773
G01 X11.54999 Y38.30000
G01 X11.55273 Y38.35225
G01 X11.57948 Y38.58067
G01 X11.64796 Y38.80023
G01 X11.66670 Y38.84907
G01 X11.69045 Y38.89571
G01 X11.80782 Y39.09350
G01 X11.95967 Y39.26622
G01 X11.99665 Y39.30322
G01 X12.03734 Y39.33617
G01 X12.22499 Y39.46911
G01 X12.44658 Y39.56997
G01 X12.22499 Y39.67086
G01 X12.03734 Y39.80381
G01 X11.99342 Y39.83998
G01 X11.99741 Y39.85219
G01 X11.99342 Y39.83998
G01 X11.11697 Y39.84239
G01 X10.97089 Y39.85920
G01 X10.82949 Y39.89956
G01 X10.78329 Y39.91610
G01 X10.65251 Y39.98328
G01 X10.57100 Y40.03774
G01 X10.45888 Y40.13289
G01 X9.65289 Y40.93888
G01 X9.57527 Y41.02738
G01 X9.52917 Y41.09085
G01 X9.48817 Y41.15773
G01 X9.45253 Y41.22765
G01 X9.42251 Y41.30012
G01 X9.39828 Y41.37475
G01 X9.37997 Y41.45105
G01 X9.36767 Y41.52854
G01 X9.36153 Y41.60675
G01 X9.35998 Y62.49998
G01 X9.37199 Y62.64651
G01 X9.39112 Y62.74265
G01 X9.41956 Y62.83645
G01 X9.45708 Y62.92700
G01 X9.50328 Y63.01344
G01 X9.55774 Y63.09495
G01 X9.65289 Y63.20706
G01 X13.39289 Y66.94708
G01 X13.48135 Y67.02471
G01 X13.54483 Y67.07081
G01 X13.61173 Y67.11180
G01 X13.68163 Y67.14744
G01 X13.75413 Y67.17746
G01 X13.82875 Y67.20169
G01 X13.90505 Y67.22001
G01 X13.98255 Y67.23230
G01 X14.10000 Y67.24000
G01 X38.30000 Y67.24000
G01 X38.44653 Y67.22798
G01 X38.54267 Y67.20886
G01 X38.63647 Y67.18041
G01 X38.72702 Y67.14289
G01 X38.81346 Y67.09669
G01 X38.89497 Y67.04223
G01 X39.00708 Y66.94708
G01 X41.58005 Y64.37074
G01 X41.64223 Y64.29497
G01 X41.69669 Y64.21346
G01 X41.76387 Y64.08268
G01 X41.80886 Y63.94267
G01 X41.82798 Y63.84653
G01 X41.83758 Y63.74900
G01 X41.84000 Y33.63420
G01 X41.82097 Y33.62632
G01 X41.84000 Y33.63420
G01 X43.79420 Y31.68000
G01 X43.78632 Y31.66095
G01 X43.79420 Y31.68000
G01 X50.09342 Y31.67997
G01 X50.09744 Y31.66765
G01 X50.09342 Y31.67997
G01 X50.13734 Y31.71617
G01 X50.32499 Y31.84911
G01 X50.54658 Y31.94997
G01 X50.32499 Y32.05086
G01 X50.28110 Y32.07936
G01 X50.09665 Y32.21675
G01 X49.94074 Y32.38581
G01 X49.90782 Y32.42648
G01 X49.79045 Y32.62427
G01 X49.76670 Y32.67090
G01 X49.74796 Y32.71975
G01 X49.69304 Y32.88876
G01 X49.67948 Y32.93930
G01 X49.67130 Y32.99099
G01 X49.64999 Y33.22000
G01 X49.67130 Y33.44898
G01 X49.67948 Y33.50067
G01 X49.74796 Y33.72023
G01 X49.76670 Y33.76907
G01 X49.87930 Y33.96960
G01 X49.90782 Y34.01350
G01 X49.94074 Y34.05416
G01 X50.09665 Y34.22322
G01 X50.28110 Y34.36061
G01 X50.32499 Y34.38911
G01 X50.37163 Y34.41289
G01 X50.54656 Y34.48997
G01 X50.32499 Y34.59086
G01 X50.13734 Y34.72381
G01 X50.09665 Y34.75675
G01 X50.05967 Y34.79376
G01 X49.90782 Y34.96648
G01 X49.87930 Y35.01037
G01 X49.76670 Y35.21090
G01 X49.69304 Y35.42876
G01 X49.67948 Y35.47930
G01 X49.67130 Y35.53099
G01 X49.65273 Y35.70773
G01 X49.64999 Y35.76000
G01 X49.65273 Y35.81225
G01 X49.67948 Y36.04067
G01 X49.74796 Y36.26023
G01 X49.76670 Y36.30907
G01 X49.79045 Y36.35571
G01 X49.90782 Y36.55350
G01 X50.05967 Y36.72622
G01 X50.09665 Y36.76322
G01 X50.13734 Y36.79617
G01 X50.32499 Y36.92911
G01 X50.54656 Y37.02997
G01 X50.32499 Y37.13086
G01 X50.13734 Y37.26381
G01 X50.09665 Y37.29675
G01 X50.05967 Y37.33376
G01 X49.90782 Y37.50648
G01 X49.87930 Y37.55037
G01 X49.76670 Y37.75090
G01 X49.69304 Y37.96876
G01 X49.67948 Y38.01930
G01 X49.67130 Y38.07099
G01 X49.65273 Y38.24773
G01 X49.64999 Y38.30000
G01 X49.65273 Y38.35225
G01 X49.67948 Y38.58067
G01 X49.74796 Y38.80023
G01 X49.76670 Y38.84907
G01 X49.79045 Y38.89571
G01 X49.90782 Y39.09350
G01 X50.05967 Y39.26622
G01 X50.09665 Y39.30322
G01 X50.13734 Y39.33617
G01 X50.32499 Y39.46911
G01 X50.54656 Y39.56997
G01 X50.32499 Y39.67086
G01 X50.13734 Y39.80381
G01 X50.09665 Y39.83675
G01 X50.05967 Y39.87376
G01 X49.90782 Y40.04648
G01 X49.79045 Y40.24427
G01 X49.76670 Y40.29090
G01 X49.74796 Y40.33975
G01 X49.67948 Y40.55930
G01 X49.65273 Y40.78773
G01 X49.64999 Y40.84000
G01 X49.67130 Y41.06898
G01 X49.67948 Y41.12067
G01 X49.74796 Y41.34023
G01 X49.76670 Y41.38907
G01 X49.79045 Y41.43571
G01 X49.90782 Y41.63350
G01 X50.05967 Y41.80622
G01 X50.09665 Y41.84322
G01 X50.13734 Y41.87617
G01 X50.32499 Y42.00911
G01 X50.54656 Y42.10997
G01 X50.32499 Y42.21086
G01 X50.13734 Y42.34381
G01 X50.09665 Y42.37675
G01 X50.05967 Y42.41376
G01 X49.90782 Y42.58648
G01 X49.79045 Y42.78427
G01 X49.76670 Y42.83090
G01 X49.74796 Y42.87975
G01 X49.67948 Y43.09930
G01 X49.65273 Y43.32773
G01 X49.64999 Y43.38000
G01 X49.67130 Y43.60898
G01 X49.67948 Y43.66067
G01 X49.74796 Y43.88023
G01 X49.76670 Y43.92907
G01 X49.79045 Y43.97571
G01 X49.90782 Y44.17350
G01 X50.05967 Y44.34622
G01 X50.09665 Y44.38322
G01 X50.13734 Y44.41617
G01 X50.32499 Y44.54911
G01 X50.54656 Y44.64997
G01 X45.82196 Y44.64997
G01 X45.76638 Y45.28076
G01 X45.75706 Y45.45848
G01 X45.74499 Y45.92002
G01 X45.75708 Y46.38157
G01 X45.76638 Y46.55924
G01 X45.82196 Y47.18997
G01 X45.76638 Y47.82076
G01 X45.75706 Y47.99848
G01 X45.74499 Y48.46002
G01 X45.75708 Y48.92157
G01 X45.78226 Y49.33963
G01 X45.74499 Y50.14996
G01 X45.74499 Y51.84999
G01 X45.76219 Y52.40061
G01 X45.81380 Y52.95120
G01 X45.89983 Y53.50185
G01 X46.02030 Y54.05247
G01 X46.08998 Y54.30027
G01 X46.08998 Y63.70000
G01 X46.06712 Y64.16556
G01 X46.05752 Y64.26312
G01 X45.87585 Y65.17637
G01 X45.84738 Y65.27018
G01 X45.69036 Y65.70906
G01 X45.49104 Y66.13047
G01 X45.44484 Y66.21691
G01 X44.92752 Y66.99113
G01 X44.86534 Y67.06690
G01 X44.55229 Y67.41229
G01 X43.18462 Y68.77997
G04 P0 ( dwell for no time -- G64 should not smooth over this point )
G00 Z5.00000 ( retract )

G00 X10.62957 Y68.78000 ( rapid move to begin. )
G01 F300.00000
( Mill infeed pass 1/1 )
G01 Z-0.05000
G04 P0 ( dwell for no time -- G64 should not smooth over this point )
G01 F600.00000
G01 X10.62957 Y68.78000
G01 X43.89171 Y68.78000
G01 X44.90585 Y67.76585
G01 X45.25185 Y67.38412
G01 X45.31403 Y67.30835
G01 X45.88581 Y66.45260
G01 X45.93201 Y66.36616
G01 X46.15228 Y65.90043
G01 X46.32587 Y65.41531
G01 X46.35431 Y65.32154
G01 X46.55510 Y64.31211
G01 X46.56470 Y64.21458
G01 X46.58998 Y63.70000
G01 X46.58998 Y55.70830
G01 X46.36442 Y55.15371
G01 X46.17517 Y54.60309
G01 X46.02030 Y54.05247
G01 X45.89983 Y53.50185
G01 X45.81380 Y52.95120
G01 X45.76219 Y52.40061
G01 X45.74499 Y51.84999
G01 X45.74499 Y50.14996
G01 X45.78226 Y49.33963
G01 X47.92424 Y49.36589
G01 X47.52939 Y49.36106
G01 X47.45284 Y49.61349
G01 X47.39998 Y50.14999
G01 X47.39998 Y51.84999
G01 X47.45284 Y52.38648
G01 X47.60933 Y52.90236
G01 X47.86346 Y53.37780
G01 X48.20544 Y53.79453
G01 X48.62218 Y54.13652
G01 X49.09762 Y54.39065
G01 X49.61349 Y54.54713
G01 X50.14999 Y54.59999
G01 X51.84999 Y54.59999
G01 X52.38648 Y54.54713
G01 X52.90236 Y54.39065
G01 X53.37780 Y54.13652
G01 X53.79453 Y53.79453
G01 X54.13652 Y53.37780
G01 X54.39065 Y52.90236
G01 X54.54713 Y52.38648
G01 X54.59999 Y51.84999
G01 X54.59999 Y50.14999
G01 X54.54713 Y49.61349
G01 X54.47060 Y49.36106
G01 X54.48046 Y49.36094
G01 X54.52133 Y49.20846
G01 X54.56634 Y48.92416
G01 X54.58493 Y48.74745
G01 X54.59999 Y48.46000
G01 X54.58493 Y48.17252
G01 X54.56634 Y47.99581
G01 X54.52133 Y47.71151
G01 X54.44683 Y47.43346
G01 X54.39192 Y47.26447
G01 X54.36332 Y47.18997
G01 X54.39192 Y47.11550
G01 X54.44683 Y46.94652
G01 X54.52133 Y46.66846
G01 X54.56634 Y46.38416
G01 X54.58493 Y46.20745
G01 X54.59999 Y45.92000
G01 X54.58493 Y45.63252
G01 X54.56634 Y45.45581
G01 X54.52133 Y45.17151
G01 X54.44683 Y44.89346
G01 X54.39192 Y44.72447
G01 X54.36332 Y44.64997
G01 X54.39192 Y44.57550
G01 X54.44683 Y44.40652
G01 X54.52133 Y44.12846
G01 X54.56634 Y43.84416
G01 X54.58493 Y43.66745
G01 X54.59999 Y43.38000
G01 X54.58493 Y43.09252
G01 X54.56634 Y42.91581
G01 X54.52133 Y42.63151
G01 X54.44683 Y42.35346
G01 X54.39192 Y42.18447
G01 X54.36332 Y42.10997
G01 X54.39192 Y42.03550
G01 X54.44683 Y41.86652
G01 X54.52133 Y41.58846
G01 X54.56634 Y41.30416
G01 X54.58493 Y41.12745
G01 X54.59999 Y40.84000
G01 X54.58493 Y40.55252
G01 X54.56634 Y40.37581
G01 X54.52133 Y40.09151
G01 X54.44683 Y39.81346
G01 X54.39192 Y39.64447
G01 X54.36332 Y39.56997
G01 X54.39192 Y39.49550
G01 X54.44683 Y39.32652
G01 X54.52133 Y39.04846
G01 X54.56634 Y38.76416
G01 X54.58493 Y38.58745
G01 X54.59999 Y38.30000
G01 X54.58493 Y38.01252
G01 X54.56634 Y37.83581
G01 X54.52133 Y37.55151
G01 X54.44683 Y37.27346
G01 X54.39192 Y37.10447
G01 X54.36332 Y37.02997
G01 X54.39192 Y36.95550
G01 X54.44683 Y36.78652
G01 X54.52133 Y36.50846
G01 X54.56634 Y36.22416
G01 X54.58493 Y36.04745
G01 X54.59999 Y35.76000
G01 X54.58493 Y35.47252
G01 X54.56634 Y35.29581
G01 X54.52133 Y35.01151
G01 X54.44683 Y34.73346
G01 X54.39192 Y34.56447
G01 X54.36332 Y34.48997
G01 X54.39192 Y34.41550
G01 X54.44683 Y34.24652
G01 X54.52133 Y33.96846
G01 X54.56634 Y33.68416
G01 X54.58493 Y33.50745
G01 X54.59999 Y33.22000
G01 X54.58493 Y32.93252
G01 X54.56634 Y32.75581
G01 X54.52133 Y32.47151
G01 X54.44683 Y32.19346
G01 X54.39192 Y32.02447
G01 X54.36332 Y31.94997
G01 X54.39192 Y31.87550
G01 X54.44683 Y31.70652
G01 X54.52133 Y31.42846
G01 X54.56634 Y31.14416
G01 X54.58493 Y30.96745
G01 X54.59999 Y30.68000
G01 X54.58493 Y30.39252
G01 X54.56634 Y30.21581
G01 X54.52133 Y29.93151
G01 X54.44683 Y29.65346
G01 X54.39192 Y29.48447
G01 X54.36332 Y29.40997
G01 X54.39192 Y29.33550
G01 X54.44683 Y29.16652
G01 X54.52133 Y28.88846
G01 X54.56634 Y28.60416
G01 X54.58493 Y28.42745
G01 X54.59999 Y28.14000
G01 X54.58493 Y27.85252
G01 X54.56634 Y27.67581
G01 X54.52133 Y27.39151
G01 X54.44683 Y27.11346
G01 X54.39192 Y26.94447
G01 X54.36332 Y26.86997
G01 X54.39192 Y26.79550
G01 X54.44683 Y26.62652
G01 X54.52133 Y26.34846
G01 X54.56634 Y26.06416
G01 X54.58493 Y25.88745
G01 X54.59999 Y25.59997
G01 X54.58493 Y25.31252
G01 X54.56634 Y25.13581
G01 X54.52133 Y24.85151
G01 X54.44683 Y24.57346
G01 X54.39192 Y24.40447
G01 X54.36332 Y24.32997
G01 X54.39192 Y24.25550
G01 X54.44683 Y24.08652
G01 X54.52133 Y23.80846
G01 X54.56634 Y23.52416
G01 X54.58493 Y23.34745
G01 X54.59999 Y23.06000
G01 X54.58493 Y22.77252
G01 X54.56634 Y22.59581
G01 X54.52133 Y22.31151
G01 X54.44683 Y22.03346
G01 X54.39192 Y21.86447
G01 X54.36332 Y21.78997
G01 X54.39192 Y21.71550
G01 X54.44683 Y21.54652
G01 X54.52133 Y21.26846
G01 X54.56634 Y20.98416
G01 X54.58493 Y20.80745
G01 X54.59999 Y20.52000
G01 X54.58493 Y20.23252
G01 X54.56634 Y20.05581
G01 X54.52133 Y19.77151
G01 X54.44683 Y19.49346
G01 X54.39192 Y19.32447
G01 X54.36332 Y19.24997
G01 X54.39192 Y19.17550
G01 X54.44683 Y19.00652
G01 X54.52133 Y18.72846
G01 X54.56634 Y18.44416
G01 X54.58493 Y18.26745
G01 X54.59999 Y17.98000
G01 X54.58493 Y17.69252
G01 X54.56634 Y17.51581
G01 X54.52133 Y17.23151
G01 X54.44683 Y16.95346
G01 X54.39192 Y16.78447
G01 X54.36332 Y16.70997
G01 X54.39192 Y16.63550
G01 X54.44683 Y16.46652
G01 X54.52133 Y16.18846
G01 X54.56634 Y15.90416
G01 X54.58493 Y15.72745
G01 X54.59999 Y15.44000
G01 X54.58493 Y15.15252
G01 X54.56634 Y14.97581
G01 X54.52133 Y14.69151
G01 X54.44683 Y14.41346
G01 X54.39192 Y14.24447
G01 X54.36332 Y14.16997
G01 X54.39192 Y14.09550
G01 X54.44683 Y13.92652
G01 X54.52133 Y13.64846
G01 X54.56634 Y13.36416
G01 X54.58493 Y13.18743
G01 X54.59999 Y12.90000
G01 X54.58493 Y12.61252
G01 X54.56634 Y12.43581
G01 X54.52133 Y12.15151
G01 X54.44683 Y11.87346
G01 X54.39192 Y11.70447
G01 X54.36332 Y11.62997
G01 X54.39192 Y11.55550
G01 X54.44683 Y11.38652
G01 X54.52133 Y11.10846
G01 X54.56634 Y10.82416
G01 X54.58493 Y10.64745
G01 X54.59999 Y10.36000
G01 X54.58493 Y10.07252
G01 X54.56634 Y9.89581
G01 X54.52133 Y9.61151
G01 X54.44683 Y9.33346
G01 X54.39192 Y9.16447
G01 X54.36332 Y9.08997
G01 X54.39192 Y9.01550
G01 X54.44683 Y8.84652
G01 X54.52133 Y8.56846
G01 X54.56634 Y8.28416
G01 X54.58493 Y8.10745
G01 X54.59999 Y7.82000
G01 X54.58493 Y7.53252
G01 X54.56634 Y7.35581
G01 X54.52133 Y7.07151
G01 X54.44683 Y6.79346
G01 X54.39192 Y6.62445
G01 X54.36332 Y6.54997
G01 X54.39192 Y6.47548
G01 X54.44683 Y6.30652
G01 X54.52133 Y6.02846
G01 X54.56634 Y5.74416
G01 X54.58493 Y5.56745
G01 X54.59999 Y5.28000
G01 X54.58493 Y4.99252
G01 X54.56634 Y4.81581
G01 X54.52133 Y4.53151
G01 X54.44683 Y4.25346
G01 X54.39192 Y4.08447
G01 X54.36332 Y4.00997
G01 X54.39192 Y3.93550
G01 X54.44683 Y3.76652
G01 X54.52133 Y3.48846
G01 X54.56634 Y3.20416
G01 X54.58493 Y3.02745
G01 X54.59999 Y2.74000
G01 X54.58493 Y2.45252
G01 X54.56634 Y2.27581
G01 X54.52133 Y1.99151
G01 X54.44683 Y1.71346
G01 X54.39192 Y1.54447
G01 X54.28874 Y1.27574
G01 X54.15808 Y1.01925
G01 X54.06923 Y0.86538
G01 X53.91244 Y0.62395
G01 X53.73131 Y0.40025
G01 X53.61239 Y0.26820
G01 X53.54419 Y0.20000
G01 X53.88740 Y0.20000
G01 X54.11470 Y0.47701
G01 X54.28572 Y0.74036
G01 X54.37457 Y0.89426
G01 X54.51714 Y1.17404
G01 X54.62966 Y1.46721
G01 X54.68457 Y1.63622
G01 X54.76585 Y1.93952
G01 X54.81498 Y2.24968
G01 X54.83355 Y2.42641
G01 X54.84998 Y2.74000
G01 X54.83355 Y3.05356
G01 X54.81498 Y3.23030
G01 X54.76585 Y3.54046
G01 X54.68457 Y3.84376
G01 X54.63057 Y4.00997
G01 X54.68457 Y4.17622
G01 X54.76585 Y4.47952
G01 X54.81498 Y4.78968
G01 X54.83355 Y4.96641
G01 X54.84998 Y5.28000
G01 X54.83355 Y5.59356
G01 X54.81498 Y5.77030
G01 X54.76585 Y6.08046
G01 X54.68457 Y6.38376
G01 X54.63057 Y6.54997
G01 X54.68457 Y6.71622
G01 X54.76585 Y7.01952
G01 X54.81498 Y7.32968
G01 X54.83355 Y7.50641
G01 X54.84998 Y7.82000
G01 X54.83355 Y8.13356
G01 X54.81498 Y8.31030
G01 X54.76585 Y8.62046
G01 X54.68457 Y8.92376
G01 X54.63057 Y9.08997
G01 X54.68457 Y9.25622
G01 X54.76585 Y9.55952
G01 X54.81498 Y9.86968
G01 X54.83355 Y10.04641
G01 X54.84998 Y10.36000
G01 X54.83355 Y10.67356
G01 X54.81498 Y10.85030
G01 X54.76585 Y11.16046
G01 X54.68457 Y11.46376
G01 X54.63057 Y11.62997
G01 X54.68457 Y11.79622
G01 X54.76585 Y12.09952
G01 X54.81498 Y12.40968
G01 X54.83355 Y12.58641
G01 X54.84998 Y12.90000
G01 X54.83355 Y13.21356
G01 X54.81498 Y13.39030
G01 X54.76585 Y13.70046
G01 X54.68457 Y14.00376
G01 X54.63057 Y14.16997
G01 X54.68457 Y14.33622
G01 X54.76585 Y14.63952
G01 X54.81498 Y14.94968
G01 X54.83355 Y15.12641
G01 X54.84998 Y15.44000
G01 X54.83355 Y15.75356
G01 X54.81498 Y15.93030
G01 X54.76585 Y16.24046
G01 X54.68457 Y16.54376
G01 X54.63057 Y16.70997
G01 X54.68457 Y16.87622
G01 X54.76585 Y17.17952
G01 X54.81498 Y17.48968
G01 X54.83355 Y17.66641
G01 X54.84998 Y17.98000
G01 X54.83355 Y18.29356
G01 X54.81498 Y18.47030
G01 X54.76585 Y18.78046
G01 X54.68457 Y19.08376
G01 X54.63057 Y19.24997
G01 X54.68457 Y19.41622
G01 X54.76585 Y19.71952
G01 X54.81498 Y20.02968
G01 X54.83355 Y20.20641
G01 X54.84998 Y20.52000
G01 X54.83355 Y20.83356
G01 X54.81498 Y21.01030
G01 X54.76585 Y21.32046
G01 X54.68457 Y21.62376
G01 X54.63057 Y21.78997
G01 X54.68457 Y21.95622
G01 X54.76585 Y22.25952
G01 X54.81498 Y22.56968
G01 X54.83355 Y22.74641
G01 X54.84998 Y23.06000
G01 X54.83355 Y23.37356
G01 X54.81498 Y23.55030
G01 X54.76585 Y23.86046
G01 X54.68457 Y24.16376
G01 X54.63057 Y24.32997
G01 X54.68457 Y24.49622
G01 X54.76585 Y24.79952
G01 X54.81498 Y25.10968
G01 X54.83355 Y25.28641
G01 X54.84998 Y25.59997
G01 X54.83355 Y25.91356
G01 X54.81498 Y26.09030
G01 X54.76585 Y26.40046
G01 X54.68457 Y26.70376
G01 X54.63057 Y26.86997
G01 X54.68457 Y27.03622
G01 X54.76585 Y27.33952
G01 X54.81498 Y27.64968
G01 X54.83355 Y27.82641
G01 X54.84998 Y28.14000
G01 X54.83355 Y28.45356
G01 X54.81498 Y28.63030
G01 X54.76585 Y28.94046
G01 X54.68457 Y29.24376
G01 X54.63057 Y29.40997
G01 X54.68457 Y29.57622
G01 X54.76585 Y29.87952
G01 X54.81498 Y30.18968
G01 X54.83355 Y30.36641
G01 X54.84998 Y30.68000
G01 X54.83355 Y30.99356
G01 X54.81498 Y31.17030
G01 X54.76585 Y31.48046
G01 X54.68457 Y31.78376
G01 X54.63057 Y31.94997
G01 X54.68457 Y32.11622
G01 X54.76585 Y32.41952
G01 X54.81498 Y32.72968
G01 X54.83355 Y32.90641
G01 X54.84998 Y33.22000
G01 X54.83355 Y33.53356
G01 X54.81498 Y33.71030
G01 X54.76585 Y34.02046
G01 X54.68457 Y34.32376
G01 X54.63057 Y34.48997
G01 X54.68457 Y34.65622
G01 X54.76585 Y34.95952
G01 X54.81498 Y35.26968
G01 X54.83355 Y35.44641
G01 X54.84998 Y35.76000
G01 X54.83355 Y36.07356
G01 X54.81498 Y36.25030
G01 X54.76585 Y36.56046
G01 X54.68457 Y36.86376
G01 X54.63057 Y37.02997
G01 X54.68457 Y37.19622
G01 X54.76585 Y37.49952
G01 X54.81498 Y37.80968
G01 X54.83355 Y37.98641
G01 X54.84998 Y38.30000
G01 X54.83355 Y38.61356
G01 X54.81498 Y38.79030
G01 X54.76585 Y39.10046
G01 X54.68457 Y39.40376
G01 X54.63057 Y39.56997
G01 X54.68457 Y39.73622
G01 X54.76585 Y40.03952
G01 X54.81498 Y40.34968
G01 X54.83355 Y40.52641
G01 X54.84998 Y40.84000
G01 X54.83355 Y41.15356
G01 X54.81498 Y41.33030
G01 X54.76585 Y41.64046
G01 X54.68457 Y41.94376
G01 X54.63057 Y42.10997
G01 X54.68457 Y42.27622
G01 X54.76585 Y42.57952
G01 X54.81498 Y42.88968
G01 X54.83355 Y43.06641
G01 X54.84998 Y43.38000
G01 X54.83355 Y43.69356
G01 X54.81498 Y43.87030
G01 X54.76585 Y44.18046
G01 X54.68457 Y44.48376
G01 X54.63057 Y44.64997
G01 X54.68457 Y44.81622
G01 X54.76585 Y45.11952
G01 X54.81498 Y45.42968
G01 X54.83355 Y45.60641
G01 X54.84998 Y45.92000
G01 X54.83355 Y46.23356
G01 X54.81498 Y46.41030
G01 X54.76585 Y46.72046
G01 X54.68457 Y47.02376
G01 X54.63057 Y47.18997
G01 X54.68457 Y47.35622
G01 X54.76585 Y47.65952
G01 X54.81498 Y47.96968
G01 X54.83355 Y48.14641
G01 X54.84998 Y48.46000
G01 X54.83355 Y48.77356
G01 X54.81498 Y48.95030
G01 X54.76585 Y49.26046
G01 X54.73977 Y49.35776
G01 X54.72963 Y49.35789
G01 X54.79235 Y49.56472
G01 X54.84998 Y50.14999
G01 X54.84998 Y51.84999
G01 X54.79235 Y52.43523
G01 X54.62163 Y52.99801
G01 X54.34439 Y53.51671
G01 X53.97132 Y53.97132
G01 X53.51671 Y54.34439
G01 X52.99801 Y54.62163
G01 X52.43523 Y54.79235
G01 X51.84999 Y54.84998
G01 X50.14999 Y54.84998
G01 X49.56472 Y54.79235
G01 X49.00193 Y54.62163
G01 X48.48327 Y54.34439
G01 X48.02866 Y53.97132
G01 X47.65558 Y53.51671
G01 X47.37834 Y52.99801
G01 X47.20763 Y52.43523
G01 X47.14999 Y51.84999
G01 X47.14999 Y50.14999
G01 X47.20763 Y49.56472
G01 X47.27037 Y49.35789
G01 X47.78842 Y49.36424
G01 X47.69802 Y49.66226
G01 X47.64999 Y50.14999
G01 X47.64999 Y51.84999
G01 X47.69802 Y52.33772
G01 X47.84029 Y52.80668
G01 X48.07130 Y53.23891
G01 X48.38222 Y53.61775
G01 X48.76107 Y53.92867
G01 X49.19327 Y54.15968
G01 X49.66226 Y54.30195
G01 X50.14999 Y54.34998
G01 X51.84999 Y54.34998
G01 X52.33772 Y54.30195
G01 X52.80668 Y54.15968
G01 X53.23891 Y53.92867
G01 X53.61775 Y53.61775
G01 X53.92867 Y53.23891
G01 X54.15968 Y52.80668
G01 X54.30195 Y52.33772
G01 X54.34998 Y51.84999
G01 X54.34998 Y50.14999
G01 X54.30195 Y49.66226
G01 X54.21158 Y49.36424
G01 X54.22118 Y49.36411
G01 X54.27678 Y49.15649
G01 X54.31772 Y48.89802
G01 X54.33629 Y48.72131
G01 X54.34998 Y48.46000
G01 X54.33629 Y48.19866
G01 X54.31772 Y48.02195
G01 X54.27678 Y47.76348
G01 X54.20906 Y47.51073
G01 X54.15415 Y47.34171
G01 X54.09590 Y47.18997
G01 X54.15415 Y47.03826
G01 X54.20906 Y46.86925
G01 X54.27678 Y46.61649
G01 X54.31772 Y46.35802
G01 X54.33629 Y46.18131
G01 X54.34998 Y45.92000
G01 X54.33629 Y45.65866
G01 X54.31772 Y45.48195
G01 X54.27678 Y45.22348
G01 X54.20906 Y44.97073
G01 X54.15415 Y44.80171
G01 X54.09590 Y44.64997
G01 X54.15415 Y44.49826
G01 X54.20906 Y44.32925
G01 X54.27678 Y44.07649
G01 X54.31772 Y43.81802
G01 X54.33629 Y43.64131
G01 X54.34998 Y43.38000
G01 X54.33629 Y43.11866
G01 X54.31772 Y42.94195
G01 X54.27678 Y42.68348
G01 X54.20906 Y42.43073
G01 X54.15415 Y42.26171
G01 X54.09590 Y42.10997
G01 X54.15415 Y41.95826
G01 X54.20906 Y41.78925
G01 X54.27678 Y41.53649
G01 X54.31772 Y41.27802
G01 X54.33629 Y41.10131
G01 X54.34998 Y40.84000
G01 X54.33629 Y40.57866
G01 X54.31772 Y40.40195
G01 X54.27678 Y40.14348
G01 X54.20906 Y39.89073
G01 X54.15415 Y39.72171
G01 X54.09590 Y39.56997
G01 X54.15415 Y39.41826
G01 X54.20906 Y39.24925
G01 X54.27678 Y38.99649
G01 X54.31772 Y38.73802
G01 X54.33629 Y38.56131
G01 X54.34998 Y38.30000
G01 X54.33629 Y38.03866
G01 X54.31772 Y37.86195
G01 X54.27678 Y37.60348
G01 X54.20906 Y37.35073
G01 X54.15415 Y37.18171
G01 X54.09590 Y37.02997
G01 X54.15415 Y36.87826
G01 X54.20906 Y36.70925
G01 X54.27678 Y36.45649
G01 X54.31772 Y36.19802
G01 X54.33629 Y36.02131
G01 X54.34998 Y35.76000
G01 X54.33629 Y35.49866
G01 X54.31772 Y35.32195
G01 X54.27678 Y35.06348
G01 X54.20906 Y34.81073
G01 X54.15415 Y34.64171
G01 X54.09590 Y34.48997
G01 X54.15415 Y34.33826
G01 X54.20906 Y34.16925
G01 X54.27678 Y33.91649
G01 X54.31772 Y33.65802
G01 X54.33629 Y33.48131
G01 X54.34998 Y33.22000
G01 X54.33629 Y32.95866
G01 X54.31772 Y32.78195
G01 X54.27678 Y32.52348
G01 X54.20906 Y32.27073
G01 X54.15415 Y32.10171
G01 X54.09590 Y31.94997
G01 X54.15415 Y31.79826
G01 X54.20906 Y31.62925
G01 X54.27678 Y31.37649
G01 X54.31772 Y31.11802
G01 X54.33629 Y30.94131
G01 X54.34998 Y30.68000
G01 X54.33629 Y30.41866
G01 X54.31772 Y30.24195
G01 X54.27678 Y29.98348
G01 X54.20906 Y29.73073
G01 X54.15415 Y29.56171
G01 X54.09590 Y29.40997
G01 X54.15415 Y29.25826
G01 X54.20906 Y29.08925
G01 X54.27678 Y28.83649
G01 X54.31772 Y28.57802
G01 X54.33629 Y28.40131
G01 X54.34998 Y28.14000
G01 X54.33629 Y27.87866
G01 X54.31772 Y27.70195
G01 X54.27678 Y27.44348
G01 X54.20906 Y27.19073
G01 X54.15415 Y27.02171
G01 X54.09590 Y26.86997
G01 X54.15415 Y26.71826
G01 X54.20906 Y26.54922
G01 X54.27678 Y26.29649
G01 X54.31772 Y26.03800
G01 X54.33629 Y25.86131
G01 X54.34998 Y25.59997
G01 X54.33629 Y25.33866
G01 X54.31772 Y25.16195
G01 X54.27678 Y24.90348
G01 X54.20906 Y24.65073
G01 X54.15415 Y24.48171
G01 X54.09590 Y24.32997
G01 X54.15415 Y24.17826
G01 X54.20906 Y24.00925
G01 X54.27678 Y23.75649
G01 X54.31772 Y23.49802
G01 X54.33629 Y23.32131
G01 X54.34998 Y23.06000
G01 X54.33629 Y22.79866
G01 X54.31772 Y22.62195
G01 X54.27678 Y22.36348
G01 X54.20906 Y22.11073
G01 X54.15415 Y21.94171
G01 X54.09590 Y21.78997
G01 X54.15415 Y21.63826
G01 X54.20906 Y21.46925
G01 X54.27678 Y21.21649
G01 X54.31772 Y20.95802
G01 X54.33629 Y20.78131
G01 X54.34998 Y20.52000
G01 X54.33629 Y20.25866
G01 X54.31772 Y20.08195
G01 X54.27678 Y19.82348
G01 X54.20906 Y19.57073
G01 X54.15415 Y19.40171
G01 X54.09590 Y19.24997
G01 X54.15415 Y19.09826
G01 X54.20906 Y18.92925
G01 X54.27678 Y18.67649
G01 X54.31772 Y18.41802
G01 X54.33629 Y18.24131
G01 X54.34998 Y17.98000
G01 X54.33629 Y17.71866
G01 X54.31772 Y17.54195
G01 X54.27678 Y17.28348
G01 X54.20906 Y17.03073
G01 X54.15415 Y16.86171
G01 X54.09590 Y16.70997
G01 X54.15415 Y16.55826
G01 X54.20906 Y16.38925
G01 X54.27678 Y16.13649
G01 X54.31772 Y15.87802
G01 X54.33629 Y15.70131
G01 X54.34998 Y15.44000
G01 X54.33629 Y15.17866
G01 X54.31772 Y15.00195
G01 X54.27678 Y14.74348
G01 X54.20906 Y14.49073
G01 X54.15415 Y14.32171
G01 X54.09590 Y14.16997
G01 X54.15415 Y14.01826
G01 X54.20906 Y13.84925
G01 X54.27678 Y13.59649
G01 X54.31772 Y13.33802
G01 X54.33629 Y13.16131
G01 X54.34998 Y12.90000
G01 X54.33629 Y12.63866
G01 X54.31772 Y12.46195
G01 X54.27678 Y12.20348
G01 X54.20906 Y11.95073
G01 X54.15415 Y11.78171
G01 X54.09590 Y11.62997
G01 X54.15415 Y11.47826
G01 X54.20906 Y11.30925
G01 X54.27678 Y11.05649
G01 X54.31772 Y10.79802
G01 X54.33629 Y10.62131
G01 X54.34998 Y10.36000
G01 X54.33629 Y10.09866
G01 X54.31772 Y9.92195
G01 X54.27678 Y9.66348
G01 X54.20906 Y9.41073
G01 X54.15415 Y9.24171
G01 X54.09590 Y9.08997
G01 X54.15415 Y8.93826
G01 X54.20906 Y8.76925
G01 X54.27678 Y8.51649
G01 X54.31772 Y8.25802
G01 X54.33629 Y8.08131
G01 X54.34998 Y7.82000
G01 X54.33629 Y7.55866
G01 X54.31772 Y7.38195
G01 X54.27678 Y7.12348
G01 X54.20906 Y6.87073
G01 X54.15415 Y6.70171
G01 X54.09590 Y6.54997
G01 X54.15415 Y6.39826
G01 X54.20906 Y6.22925
G01 X54.27678 Y5.97649
G01 X54.31772 Y5.71802
G01 X54.33629 Y5.54131
G01 X54.34998 Y5.28000
G01 X54.33629 Y5.01866
G01 X54.31772 Y4.84195
G01 X54.27678 Y4.58348
G01 X54.20906 Y4.33073
G01 X54.15415 Y4.16171
G01 X54.09590 Y4.00997
G01 X54.15415 Y3.85826
G01 X54.20906 Y3.68925
G01 X54.27678 Y3.43649
G01 X54.31772 Y3.17802
G01 X54.33629 Y3.00131
G01 X54.34998 Y2.74000
G01 X54.33629 Y2.47866
G01 X54.31772 Y2.30195
G01 X54.27678 Y2.04348
G01 X54.20906 Y1.79073
G01 X54.15415 Y1.62171
G01 X54.06037 Y1.37742
G01 X53.94157 Y1.14427
G01 X53.85272 Y0.99037
G01 X53.71020 Y0.77092
G01 X53.54551 Y0.56754
G01 X53.42661 Y0.43548
G01 X53.24155 Y0.25044
G01 X53.17927 Y0.20000
G01 X52.77010 Y0.20000
G01 X52.89126 Y0.28804
G01 X53.07427 Y0.43624
G01 X53.24081 Y0.60277
G01 X53.35974 Y0.73482
G01 X53.50794 Y0.91785
G01 X53.63621 Y1.11536
G01 X53.72506 Y1.26926
G01 X53.83197 Y1.47909
G01 X53.91638 Y1.69898
G01 X53.97129 Y1.86797
G01 X54.03225 Y2.09545
G01 X54.06908 Y2.32806
G01 X54.08765 Y2.50480
G01 X54.09999 Y2.74000
G01 X54.08765 Y2.97518
G01 X54.06908 Y3.15191
G01 X54.03225 Y3.38452
G01 X53.97129 Y3.61201
G01 X53.91638 Y3.78099
G01 X53.82735 Y4.00997
G01 X53.91638 Y4.23898
G01 X53.97129 Y4.40797
G01 X54.03225 Y4.63545
G01 X54.06908 Y4.86806
G01 X54.08765 Y5.04480
G01 X54.09999 Y5.28000
G01 X54.08765 Y5.51518
G01 X54.06908 Y5.69191
G01 X54.03225 Y5.92452
G01 X53.97129 Y6.15201
G01 X53.91638 Y6.32099
G01 X53.82735 Y6.54997
G01 X53.91638 Y6.77898
G01 X53.97129 Y6.94797
G01 X54.03225 Y7.17545
G01 X54.06908 Y7.40806
G01 X54.08765 Y7.58480
G01 X54.09999 Y7.82000
G01 X54.08765 Y8.05518
G01 X54.06908 Y8.23191
G01 X54.03225 Y8.46452
G01 X53.97129 Y8.69201
G01 X53.91638 Y8.86099
G01 X53.82732 Y9.08997
G01 X53.91638 Y9.31898
G01 X53.97129 Y9.48797
G01 X54.03225 Y9.71545
G01 X54.06908 Y9.94806
G01 X54.08765 Y10.12480
G01 X54.09999 Y10.36000
G01 X54.08765 Y10.59518
G01 X54.06908 Y10.77191
G01 X54.03225 Y11.00452
G01 X53.97129 Y11.23201
G01 X53.91638 Y11.40099
G01 X53.82735 Y11.62997
G01 X53.91638 Y11.85898
G01 X53.97129 Y12.02797
G01 X54.03225 Y12.25545
G01 X54.06908 Y12.48806
G01 X54.08765 Y12.66480
G01 X54.09999 Y12.90000
G01 X54.08765 Y13.13515
G01 X54.06908 Y13.31191
G01 X54.03225 Y13.54452
G01 X53.97129 Y13.77201
G01 X53.91638 Y13.94099
G01 X53.82735 Y14.16997
G01 X53.91638 Y14.39898
G01 X53.97129 Y14.56797
G01 X54.03225 Y14.79545
G01 X54.06908 Y15.02806
G01 X54.08765 Y15.20480
G01 X54.09999 Y15.44000
G01 X54.08765 Y15.67518
G01 X54.06908 Y15.85191
G01 X54.03225 Y16.08452
G01 X53.97129 Y16.31201
G01 X53.91638 Y16.48099
G01 X53.82735 Y16.70997
G01 X53.91638 Y16.93898
G01 X53.97129 Y17.10797
G01 X54.03225 Y17.33545
G01 X54.06908 Y17.56806
G01 X54.08765 Y17.74480
G01 X54.09999 Y17.98000
G01 X54.08765 Y18.21518
G01 X54.06908 Y18.39191
G01 X54.03225 Y18.62452
G01 X53.97129 Y18.85201
G01 X53.91638 Y19.02099
G01 X53.82735 Y19.24997
G01 X53.91638 Y19.47898
G01 X53.97129 Y19.64797
G01 X54.03225 Y19.87545
G01 X54.06908 Y20.10806
G01 X54.08765 Y20.28480
G01 X54.09999 Y20.52000
G01 X54.08765 Y20.75518
G01 X54.06908 Y20.93191
G01 X54.03225 Y21.16452
G01 X53.97129 Y21.39201
G01 X53.91638 Y21.56099
G01 X53.82735 Y21.78997
G01 X53.91638 Y22.01898
G01 X53.97129 Y22.18797
G01 X54.03225 Y22.41545
G01 X54.06908 Y22.64806
G01 X54.08765 Y22.82480
G01 X54.09999 Y23.06000
G01 X54.08765 Y23.29518
G01 X54.06908 Y23.47191
G01 X54.03225 Y23.70452
G01 X53.97129 Y23.93201
G01 X53.91638 Y24.10099
G01 X53.82735 Y24.32997
G01 X53.91638 Y24.55898
G01 X53.97129 Y24.72797
G01 X54.03225 Y24.95545
G01 X54.06908 Y25.18806
G01 X54.08765 Y25.36480
G01 X54.09999 Y25.59997
G01 X54.08765 Y25.83518
G01 X54.06908 Y26.01191
G01 X54.03225 Y26.24452
G01 X53.97129 Y26.47201
G01 X53.91638 Y26.64099
G01 X53.82732 Y26.86997
G01 X53.91638 Y27.09898
G01 X53.97129 Y27.26797
G01 X54.03225 Y27.49545
G01 X54.06908 Y27.72806
G01 X54.08765 Y27.90480
G01 X54.09999 Y28.14000
G01 X54.08765 Y28.37518
G01 X54.06908 Y28.55191
G01 X54.03225 Y28.78452
G01 X53.97129 Y29.01201
G01 X53.91638 Y29.18099
G01 X53.82735 Y29.40997
G01 X53.91638 Y29.63898
G01 X53.97129 Y29.80797
G01 X54.03225 Y30.03545
G01 X54.06908 Y30.26806
G01 X54.08765 Y30.44480
G01 X54.09999 Y30.68000
G01 X54.08765 Y30.91518
G01 X54.06908 Y31.09191
G01 X54.03225 Y31.32452
G01 X53.97129 Y31.55201
G01 X53.91638 Y31.72099
G01 X53.82735 Y31.94997
G01 X53.91638 Y32.17898
G01 X53.97129 Y32.34797
G01 X54.03225 Y32.57545
G01 X54.06908 Y32.80806
G01 X54.08765 Y32.98480
G01 X54.09999 Y33.22000
G01 X54.08765 Y33.45518
G01 X54.06908 Y33.63191
G01 X54.03225 Y33.86452
G01 X53.97129 Y34.09201
G01 X53.91638 Y34.26099
G01 X53.82735 Y34.48997
G01 X53.91638 Y34.71898
G01 X53.97129 Y34.88797
G01 X54.03225 Y35.11545
G01 X54.06908 Y35.34806
G01 X54.08765 Y35.52480
G01 X54.09999 Y35.76000
G01 X54.08765 Y35.99518
G01 X54.06908 Y36.17191
G01 X54.03225 Y36.40452
G01 X53.97129 Y36.63201
G01 X53.91638 Y36.80099
G01 X53.82735 Y37.02997
G01 X53.91638 Y37.25898
G01 X53.97129 Y37.42797
G01 X54.03225 Y37.65545
G01 X54.06908 Y37.88806
G01 X54.08765 Y38.06480
G01 X54.09999 Y38.30000
G01 X54.08765 Y38.53518
G01 X54.06908 Y38.71191
G01 X54.03225 Y38.94452
G01 X53.97129 Y39.17201
G01 X53.91638 Y39.34099
G01 X53.82735 Y39.56997
G01 X53.91638 Y39.79898
G01 X53.97129 Y39.96797
G01 X54.03225 Y40.19545
G01 X54.06908 Y40.42806
G01 X54.08765 Y40.60480
G01 X54.09999 Y40.84000
G01 X54.08765 Y41.07518
G01 X54.06908 Y41.25191
G01 X54.03225 Y41.48452
G01 X53.97129 Y41.71201
G01 X53.91638 Y41.88099
G01 X53.82735 Y42.10997
G01 X53.91638 Y42.33898
G01 X53.97129 Y42.50797
G01 X54.03225 Y42.73545
G01 X54.06908 Y42.96806
G01 X54.08765 Y43.14480
G01 X54.09999 Y43.38000
G01 X54.08765 Y43.61518
G01 X54.06908 Y43.79191
G01 X54.03225 Y44.02452
G01 X53.97129 Y44.25201
G01 X53.91638 Y44.42099
G01 X53.82735 Y44.64997
G01 X53.91638 Y44.87898
G01 X53.97129 Y45.04797
G01 X54.03225 Y45.27545
G01 X54.06908 Y45.50806
G01 X54.08765 Y45.68480
G01 X54.09999 Y45.92000
G01 X54.08765 Y46.15518
G01 X54.06908 Y46.33191
G01 X54.03225 Y46.56452
G01 X53.97129 Y46.79201
G01 X53.91638 Y46.96099
G01 X53.82735 Y47.18997
G01 X53.91638 Y47.41898
G01 X53.97129 Y47.58797
G01 X54.03225 Y47.81545
G01 X54.06908 Y48.04806
G01 X54.08765 Y48.22480
G01 X54.09999 Y48.46000
G01 X54.08765 Y48.69518
G01 X54.06908 Y48.87191
G01 X54.03225 Y49.10452
G01 X53.97129 Y49.33201
G01 X53.95907 Y49.36965
G01 X53.95328 Y49.36985
G01 X54.05676 Y49.71103
G01 X54.09999 Y50.14999
G01 X54.09999 Y51.84999
G01 X54.05676 Y52.28895
G01 X53.92872 Y52.71102
G01 X53.72080 Y53.10002
G01 X53.44096 Y53.44096
G01 X53.10002 Y53.72080
G01 X52.71102 Y53.92872
G01 X52.28895 Y54.05676
G01 X51.84999 Y54.09999
G01 X50.14999 Y54.09999
G01 X49.71103 Y54.05676
G01 X49.28895 Y53.92872
G01 X48.89995 Y53.72080
G01 X48.55901 Y53.44096
G01 X48.27918 Y53.10002
G01 X48.07125 Y52.71102
G01 X47.94321 Y52.28895
G01 X47.89998 Y51.84999
G01 X47.89998 Y50.14999
G01 X47.94321 Y49.71103
G01 X48.04672 Y49.36985
G01 X48.30656 Y49.37823
G01 X48.26645 Y49.25474
G01 X48.21227 Y49.05253
G01 X48.17951 Y48.84577
G01 X48.16094 Y48.66904
G01 X48.14999 Y48.46000
G01 X48.16094 Y48.25093
G01 X48.17951 Y48.07420
G01 X48.21227 Y47.86744
G01 X48.26645 Y47.66523
G01 X48.32137 Y47.49622
G01 X48.39637 Y47.30079
G01 X48.45284 Y47.18997
G01 X48.39637 Y47.07918
G01 X48.32137 Y46.88375
G01 X48.26645 Y46.71474
G01 X48.21227 Y46.51253
G01 X48.17951 Y46.30577
G01 X48.16094 Y46.12904
G01 X48.14999 Y45.92000
G01 X48.16094 Y45.71093
G01 X48.17951 Y45.53420
G01 X48.21227 Y45.32744
G01 X48.26645 Y45.12523
G01 X48.32137 Y44.95622
G01 X48.39637 Y44.76079
G01 X48.45284 Y44.64997
G01 X48.39637 Y44.53918
G01 X48.32137 Y44.34375
G01 X48.26645 Y44.17474
G01 X48.21227 Y43.97253
G01 X48.17951 Y43.76577
G01 X48.16094 Y43.58904
G01 X48.14999 Y43.38000
G01 X48.16094 Y43.17093
G01 X48.17951 Y42.99420
G01 X48.21227 Y42.78744
G01 X48.26645 Y42.58523
G01 X48.32137 Y42.41622
G01 X48.39637 Y42.22079
G01 X48.45284 Y42.10997
G01 X48.39637 Y41.99918
G01 X48.32137 Y41.80375
G01 X48.26645 Y41.63474
G01 X48.21227 Y41.43253
G01 X48.17951 Y41.22577
G01 X48.16094 Y41.04904
G01 X48.14999 Y40.84000
G01 X48.16094 Y40.63093
G01 X48.17951 Y40.45420
G01 X48.21227 Y40.24744
G01 X48.26645 Y40.04523
G01 X48.32137 Y39.87622
G01 X48.39637 Y39.68079
G01 X48.45284 Y39.56997
G01 X48.39637 Y39.45918
G01 X48.32137 Y39.26375
G01 X48.26645 Y39.09474
G01 X48.21227 Y38.89253
G01 X48.17951 Y38.68577
G01 X48.16094 Y38.50904
G01 X48.14999 Y38.30000
G01 X48.16094 Y38.09093
G01 X48.17951 Y37.91420
G01 X48.21227 Y37.70744
G01 X48.26645 Y37.50523
G01 X48.32137 Y37.33622
G01 X48.39637 Y37.14079
G01 X48.45284 Y37.02997
G01 X48.39637 Y36.91918
G01 X48.32137 Y36.72375
G01 X48.26645 Y36.55474
G01 X48.21227 Y36.35253
G01 X48.17951 Y36.14577
G01 X48.16094 Y35.96904
G01 X48.14999 Y35.76000
G01 X48.16094 Y35.55093
G01 X48.17951 Y35.37420
G01 X48.21227 Y35.16744
G01 X48.26645 Y34.96523
G01 X48.32137 Y34.79622
G01 X48.39637 Y34.60079
G01 X48.45284 Y34.48997
G01 X48.39637 Y34.37918
G01 X48.32137 Y34.18375
G01 X48.26645 Y34.01474
G01 X48.21227 Y33.81253
G01 X48.17951 Y33.60577
G01 X48.16094 Y33.42904
G01 X48.14999 Y33.22000
G01 X48.15159 Y33.18937
G01 X48.16089 Y33.17999
G01 X44.41551 Y33.17999
G01 X44.40763 Y33.16097
G01 X44.41551 Y33.17999
G01 X43.33999 Y34.25553
G01 X43.32094 Y34.24763
G01 X43.33999 Y34.25553
G01 X43.33999 Y63.70000
G01 X43.33037 Y63.89601
G01 X43.32074 Y63.99357
G01 X43.24426 Y64.37810
G01 X43.21581 Y64.47191
G01 X43.14970 Y64.65669
G01 X43.06578 Y64.83411
G01 X43.01957 Y64.92057
G01 X42.80174 Y65.24655
G01 X42.73956 Y65.32232
G01 X42.60776 Y65.46776
G01 X40.06776 Y68.00776
G01 X39.92232 Y68.13956
G01 X39.84655 Y68.20174
G01 X39.68892 Y68.31866
G01 X39.52057 Y68.41957
G01 X39.43411 Y68.46578
G01 X39.07191 Y68.61581
G01 X38.97810 Y68.64426
G01 X38.59357 Y68.72074
G01 X38.49601 Y68.73037
G01 X38.30000 Y68.73999
G01 X14.10000 Y68.73999
G01 X13.86484 Y68.72768
G01 X13.55486 Y68.67858
G01 X13.47859 Y68.66026
G01 X13.18011 Y68.56326
G01 X13.10759 Y68.53324
G01 X12.82799 Y68.39077
G01 X12.76109 Y68.34977
G01 X12.50719 Y68.16529
G01 X12.44752 Y68.11434
G01 X12.33221 Y68.00774
G01 X8.59221 Y64.26771
G01 X8.46041 Y64.12230
G01 X8.39823 Y64.04653
G01 X8.18040 Y63.72055
G01 X8.13420 Y63.63409
G01 X7.98416 Y63.27188
G01 X7.95571 Y63.17808
G01 X7.87923 Y62.79355
G01 X7.86961 Y62.69599
G01 X7.85998 Y62.49998
G01 X7.85998 Y41.64599
G01 X7.86615 Y41.48907
G01 X7.87230 Y41.41084
G01 X7.92140 Y41.10088
G01 X7.93971 Y41.02458
G01 X8.03669 Y40.72611
G01 X8.06674 Y40.65361
G01 X8.20920 Y40.37399
G01 X8.25020 Y40.30708
G01 X8.43465 Y40.05318
G01 X8.59221 Y39.87820
G01 X9.39820 Y39.07221
G01 X9.54364 Y38.94041
G01 X9.61941 Y38.87823
G01 X9.94540 Y38.66040
G01 X10.07072 Y38.59583
G01 X10.20887 Y38.67208
G01 X10.07003 Y38.59545
G01 X10.06094 Y38.50904
G01 X10.04999 Y38.30000
G01 X10.06094 Y38.09093
G01 X10.07951 Y37.91420
G01 X10.11227 Y37.70744
G01 X10.16645 Y37.50523
G01 X10.22137 Y37.33622
G01 X10.29637 Y37.14079
G01 X10.35284 Y37.02997
G01 X10.29637 Y36.91918
G01 X10.22137 Y36.72375
G01 X10.16645 Y36.55474
G01 X10.11227 Y36.35253
G01 X10.07951 Y36.14577
G01 X10.06094 Y35.96904
G01 X10.04999 Y35.76000
G01 X10.06094 Y35.55093
G01 X10.07951 Y35.37420
G01 X10.11227 Y35.16744
G01 X10.16645 Y34.96523
G01 X10.22137 Y34.79622
G01 X10.29637 Y34.60079
G01 X10.35284 Y34.48997
G01 X10.29637 Y34.37918
G01 X10.22137 Y34.18375
G01 X10.16645 Y34.01474
G01 X10.11227 Y33.81253
G01 X10.07951 Y33.60577
G01 X10.06094 Y33.42904
G01 X10.04999 Y33.22000
G01 X10.06094 Y33.01093
G01 X10.07951 Y32.83420
G01 X10.11227 Y32.62744
G01 X10.16645 Y32.42523
G01 X10.20658 Y32.30174
G01 X10.34745 Y32.29724
G01 X10.20564 Y32.30174
G01 X10.20224 Y32.29536
G01 X10.08842 Y31.92018
G01 X10.04999 Y31.52999
G01 X10.04999 Y29.82999
G01 X10.08842 Y29.43982
G01 X10.20224 Y29.06461
G01 X10.38705 Y28.71884
G01 X10.63577 Y28.41577
G01 X10.93884 Y28.16705
G01 X11.28461 Y27.98224
G01 X11.65982 Y27.86842
G01 X12.04999 Y27.82999
G01 X13.74999 Y27.82999
G01 X14.14018 Y27.86842
G01 X14.51536 Y27.98224
G01 X14.86113 Y28.16705
G01 X14.87691 Y28.17998
G01 X14.87490 Y28.18773
G01 X14.87691 Y28.17998
G01 X20.51997 Y28.17998
G01 X20.71601 Y28.18961
G01 X20.81357 Y28.19923
G01 X21.00770 Y28.22804
G01 X21.19810 Y28.27571
G01 X21.29191 Y28.30416
G01 X21.47669 Y28.37028
G01 X21.65411 Y28.45420
G01 X21.74057 Y28.50040
G01 X22.06655 Y28.71823
G01 X22.14232 Y28.78041
G01 X22.28776 Y28.91221
G01 X22.97044 Y29.59489
G01 X22.99637 Y29.52079
G01 X23.05284 Y29.40997
G01 X22.99637 Y29.29918
G01 X22.92137 Y29.10375
G01 X22.86645 Y28.93474
G01 X22.81227 Y28.73253
G01 X22.77951 Y28.52577
G01 X22.76094 Y28.34904
G01 X22.74999 Y28.14000
G01 X22.76094 Y27.93093
G01 X22.77951 Y27.75420
G01 X22.81227 Y27.54744
G01 X22.86645 Y27.34523
G01 X22.92137 Y27.17622
G01 X22.99637 Y26.98079
G01 X23.05284 Y26.86997
G01 X22.99637 Y26.75918
G01 X22.92137 Y26.56375
G01 X22.86645 Y26.39474
G01 X22.81227 Y26.19253
G01 X22.77951 Y25.98575
G01 X22.76094 Y25.80902
G01 X22.74999 Y25.59997
G01 X22.76094 Y25.39093
G01 X22.77951 Y25.21420
G01 X22.81227 Y25.00744
G01 X22.86645 Y24.80523
G01 X22.92137 Y24.63622
G01 X22.99637 Y24.44079
G01 X23.05284 Y24.32997
G01 X22.99637 Y24.21918
G01 X22.92137 Y24.02375
G01 X22.86645 Y23.85474
G01 X22.81227 Y23.65253
G01 X22.77951 Y23.44577
G01 X22.76094 Y23.26904
G01 X22.74999 Y23.06000
G01 X22.75159 Y23.02937
G01 X22.76091 Y23.01999
G01 X14.87691 Y23.01999
G01 X14.87490 Y23.01220
G01 X14.87691 Y23.01999
G01 X14.86113 Y23.03292
G01 X14.51536 Y23.21776
G01 X14.14018 Y23.33155
G01 X13.74999 Y23.36998
G01 X12.04999 Y23.36998
G01 X11.65982 Y23.33155
G01 X11.28461 Y23.21776
G01 X10.93884 Y23.03292
G01 X10.63577 Y22.78421
G01 X10.38705 Y22.48113
G01 X10.20224 Y22.13536
G01 X10.08842 Y21.76018
G01 X10.04999 Y21.36999
G01 X10.04999 Y19.66999
G01 X10.08842 Y19.27982
G01 X10.20224 Y18.90461
G01 X10.38705 Y18.55884
G01 X10.63577 Y18.25577
G01 X10.93884 Y18.00705
G01 X11.28461 Y17.82224
G01 X11.65982 Y17.70842
G01 X12.04999 Y17.66999
G01 X13.74999 Y17.66999
G01 X14.14018 Y17.70842
G01 X14.51536 Y17.82224
G01 X14.86113 Y18.00705
G01 X14.87691 Y18.01998
G01 X14.87490 Y18.02778
G01 X14.87691 Y18.01998
G01 X22.75208 Y18.01998
G01 X22.75208 Y17.93997
G01 X15.43997 Y17.93999
G01 X15.24396 Y17.93037
G01 X15.14640 Y17.92074
G01 X14.76187 Y17.84426
G01 X14.66807 Y17.81581
G01 X14.30586 Y17.66578
G01 X14.21940 Y17.61957
G01 X14.05105 Y17.51866
G01 X13.89342 Y17.40174
G01 X13.81765 Y17.33956
G01 X13.67221 Y17.20776
G01 X12.21445 Y15.74998
G01 X12.22233 Y15.73096
G01 X12.21445 Y15.74998
G01 X12.04999 Y15.74998
G01 X11.65982 Y15.71155
G01 X11.28461 Y15.59776
G01 X10.93884 Y15.41292
G01 X10.63577 Y15.16421
G01 X10.38705 Y14.86113
G01 X10.20224 Y14.51536
G01 X10.08842 Y14.14018
G01 X10.04999 Y13.74999
G01 X10.04999 Y12.04999
G01 X10.08842 Y11.65982
G01 X10.20224 Y11.28461
G01 X10.20567 Y11.27821
G01 X10.34743 Y11.28273
G01 X11.05692 Y11.32141
G01 X11.36297 Y11.34986
G01 X11.62746 Y11.38588
G01 X11.84537 Y11.42876
G01 X11.98623 Y11.46650
G01 X12.16505 Y11.52268
G01 X12.27224 Y11.55149
G01 X12.44984 Y11.58982
G01 X12.54455 Y11.60490
G01 X12.72230 Y11.62360
G01 X12.81113 Y11.62812
G01 X12.98885 Y11.62827
G01 X13.07767 Y11.62332
G01 X13.25540 Y11.60462
G01 X13.35011 Y11.58982
G01 X13.53485 Y11.54958
G01 X13.61887 Y11.50061
G01 X13.76263 Y11.39617
G01 X13.80655 Y11.36000
G01 X13.80307 Y11.34875
G01 X13.80655 Y11.36000
G01 X24.69342 Y11.36000
G01 X24.69744 Y11.34765
G01 X24.69342 Y11.36000
G01 X24.73734 Y11.39617
G01 X24.92499 Y11.52911
G01 X25.14656 Y11.62997
G01 X24.92499 Y11.73086
G01 X24.88110 Y11.75936
G01 X24.69665 Y11.89675
G01 X24.54074 Y12.06581
G01 X24.50783 Y12.10648
G01 X24.39045 Y12.30427
G01 X24.36670 Y12.35090
G01 X24.34796 Y12.39975
G01 X24.29304 Y12.56876
G01 X24.27948 Y12.61930
G01 X24.27130 Y12.67099
G01 X24.24999 Y12.90000
G01 X24.27130 Y13.12898
G01 X24.27948 Y13.18067
G01 X24.34796 Y13.40023
G01 X24.36670 Y13.44907
G01 X24.47930 Y13.64960
G01 X24.50783 Y13.69350
G01 X24.54074 Y13.73416
G01 X24.69665 Y13.90322
G01 X24.88110 Y14.04061
G01 X24.92499 Y14.06911
G01 X24.97163 Y14.09289
G01 X25.14656 Y14.16997
G01 X24.63386 Y14.16997
G01 X24.60630 Y14.18999
G01 X24.61029 Y14.20223
G01 X24.60630 Y14.18999
G01 X15.95775 Y14.18999
G01 X15.94988 Y14.20901
G01 X15.95775 Y14.18999
G01 X14.50000 Y12.73221
G01 X14.48095 Y12.74011
G01 X14.50000 Y12.73221
G01 X14.50000 Y12.04999
G01 X14.48557 Y11.90366
G01 X14.44290 Y11.76297
G01 X14.37358 Y11.63330
G01 X14.35730 Y11.61341
G01 X14.11750 Y11.51174
G01 X14.34920 Y11.60998
G01 X24.60630 Y11.60998
G01 X24.61029 Y11.59774
G01 X24.60630 Y11.60998
G01 X24.63386 Y11.62997
G01 X24.52939 Y11.71095
G01 X24.47387 Y11.76647
G01 X24.35497 Y11.89853
G01 X24.30556 Y11.95954
G01 X24.26279 Y12.02538
G01 X24.17394 Y12.17925
G01 X24.13831 Y12.24920
G01 X24.11019 Y12.32251
G01 X24.05527 Y12.49149
G01 X24.03495 Y12.56734
G01 X24.02266 Y12.64486
G01 X24.00409 Y12.82159
G01 X23.99998 Y12.90000
G01 X24.00409 Y12.97836
G01 X24.02266 Y13.15512
G01 X24.03495 Y13.23264
G01 X24.05527 Y13.30848
G01 X24.11019 Y13.47747
G01 X24.13831 Y13.55077
G01 X24.17394 Y13.62072
G01 X24.26279 Y13.77460
G01 X24.30556 Y13.84043
G01 X24.35497 Y13.90145
G01 X24.47387 Y14.03350
G01 X24.52939 Y14.08902
G01 X24.63386 Y14.16997
G01 X24.59980 Y14.16997
G01 X24.59886 Y14.17467
G01 X24.59980 Y14.16997
G01 X24.57364 Y14.16149
G01 X24.57270 Y14.16621
G01 X24.57364 Y14.16149
G01 X24.40409 Y14.09619
G01 X24.22622 Y14.01737
G01 X24.07097 Y13.93759
G01 X23.95746 Y13.74572
G01 X23.90993 Y13.65245
G01 X23.87242 Y13.55474
G01 X23.81750 Y13.38572
G01 X23.79040 Y13.28461
G01 X23.77404 Y13.18123
G01 X23.75548 Y13.00452
G01 X23.74999 Y12.90000
G01 X23.75548 Y12.79545
G01 X23.77404 Y12.61875
G01 X23.79040 Y12.51534
G01 X23.81750 Y12.41425
G01 X23.87242 Y12.24524
G01 X23.90993 Y12.14752
G01 X23.95746 Y12.05426
G01 X24.04631 Y11.90036
G01 X24.07100 Y11.86236
G01 X24.22624 Y11.78260
G01 X24.02302 Y11.88687
G01 X23.84516 Y11.98918
G01 X23.66046 Y12.10998
G01 X15.00000 Y12.11001
G01 X15.24998 Y12.36000
G01 X23.32065 Y12.36000
G01 X23.41479 Y12.28339
G01 X23.31357 Y12.36574
G01 X23.30135 Y12.41141
G01 X23.27679 Y12.56647
G01 X23.25820 Y12.74318
G01 X23.24999 Y12.90000
G01 X23.25820 Y13.05677
G01 X23.27679 Y13.23350
G01 X23.30135 Y13.38857
G01 X23.31357 Y13.43419
G01 X23.09081 Y13.25298
G01 X23.02083 Y13.18997
G01 X23.00958 Y13.08288
G01 X22.99998 Y12.90000
G01 X23.00958 Y12.71707
G01 X23.02083 Y12.60998
G01 X15.79202 Y12.60998
G01 X16.39552 Y12.85999
G01 X16.47553 Y12.93998
G01 X16.46763 Y12.95903
G01 X16.47553 Y12.93998
G01 X22.75210 Y12.93998
G01 X22.75208 Y12.85997
G01 X16.39552 Y12.85999
G01 X15.79204 Y12.61001
G01 X16.37198 Y13.18997
G01 X16.36408 Y13.20899
G01 X16.37198 Y13.18997
G01 X23.02083 Y13.18997
G01 X22.91311 Y13.09299
G01 X22.70999 Y12.89997
G01 X22.91311 Y13.09299
G01 X23.09081 Y13.25298
G01 X23.41463 Y13.51676
G01 X23.31357 Y13.43419
G01 X23.41479 Y13.51656
G01 X23.59231 Y13.64597
G01 X23.84516 Y13.81077
G01 X23.65573 Y13.68687
G01 X23.57973 Y13.46299
G01 X23.54588 Y13.33660
G01 X23.52540 Y13.20734
G01 X23.50684 Y13.03066
G01 X23.49998 Y12.90000
G01 X23.50684 Y12.76932
G01 X23.52540 Y12.59261
G01 X23.54588 Y12.46337
G01 X23.57973 Y12.33698
G01 X23.63465 Y12.16800
G01 X23.65573 Y12.11306
G01 X23.66046 Y12.10998
G01 X23.59231 Y12.15398
G01 X23.41479 Y12.28339
G01 X23.09078 Y12.54699
G01 X22.91306 Y12.70701
G01 X22.70999 Y12.89997
G01 X16.49207 Y12.89997
G01 X16.49110 Y12.90477
G01 X16.49207 Y12.89997
G01 X16.39557 Y12.85997
G01 X15.29349 Y12.40351
G01 X15.29077 Y12.40760
G01 X15.29349 Y12.40351
G01 X14.94005 Y12.04989
G01 X15.24998 Y12.36000
G01 X15.24998 Y12.42157
G01 X15.23096 Y12.42944
G01 X15.24998 Y12.42157
G01 X16.26842 Y13.43998
G01 X16.26052 Y13.45903
G01 X16.26842 Y13.43998
G01 X23.32068 Y13.44000
G01 X23.41479 Y13.51656
G01 X23.59251 Y13.64567
G01 X23.84534 Y13.81049
G01 X24.07564 Y13.93998
G01 X23.84534 Y13.81049
G01 X23.66048 Y13.68999
G01 X16.16486 Y13.68999
G01 X16.15699 Y13.70901
G01 X16.16486 Y13.68999
G01 X15.00000 Y12.52512
G01 X14.98095 Y12.53299
G01 X15.00000 Y12.52512
G01 X15.00000 Y12.11001
G01 X14.94005 Y12.04989
G01 X14.66581 Y11.80739
G01 X14.72524 Y11.86000
G01 X24.07562 Y11.86000
G01 X24.22637 Y11.78291
G01 X24.40409 Y11.70376
G01 X24.57364 Y11.63846
G01 X24.57270 Y11.63373
G01 X24.57364 Y11.63846
G01 X24.59980 Y11.62997
G01 X24.59886 Y11.62528
G01 X24.59980 Y11.62997
G01 X26.76588 Y11.62997
G01 X26.86421 Y11.37859
G01 X26.91524 Y11.22197
G01 X26.96286 Y11.04428
G01 X26.99238 Y10.90582
G01 X27.02052 Y10.72812
G01 X27.03403 Y10.60000
G01 X27.04333 Y10.42233
G01 X27.04465 Y10.20275
G01 X27.05811 Y9.83724
G01 X27.07645 Y9.55058
G01 X27.09708 Y9.31708
G01 X27.10980 Y9.08997
G01 X24.59980 Y9.08997
G01 X24.59886 Y9.09467
G01 X24.59980 Y9.08997
G01 X24.57364 Y9.08149
G01 X24.57267 Y9.08624
G01 X24.57364 Y9.08149
G01 X24.40409 Y9.01619
G01 X24.22622 Y8.93737
G01 X24.07567 Y8.85998
G01 X13.97490 Y8.85998
G01 X13.97147 Y8.87108
G01 X13.97490 Y8.85998
G01 X13.82499 Y8.75784
G01 X13.73172 Y8.71032
G01 X13.56939 Y8.63803
G01 X13.47168 Y8.60054
G01 X13.37056 Y8.57344
G01 X13.19675 Y8.53651
G01 X13.09337 Y8.52013
G01 X12.98885 Y8.51464
G01 X12.81115 Y8.51464
G01 X12.70660 Y8.52013
G01 X12.60323 Y8.53651
G01 X12.42941 Y8.57344
G01 X12.32830 Y8.60054
G01 X12.23058 Y8.63803
G01 X12.06825 Y8.71032
G01 X11.97498 Y8.75784
G01 X11.88720 Y8.81484
G01 X11.74344 Y8.91929
G01 X11.66211 Y8.98517
G01 X11.58809 Y9.05919
G01 X11.46917 Y9.19124
G01 X11.40330 Y9.27257
G01 X11.34631 Y9.36036
G01 X11.25746 Y9.51426
G01 X11.20993 Y9.60752
G01 X11.17242 Y9.70524
G01 X11.11750 Y9.87425
G01 X11.09040 Y9.97534
G01 X11.07404 Y10.07875
G01 X11.05548 Y10.25545
G01 X11.04999 Y10.36000
G01 X11.05548 Y10.46452
G01 X11.07404 Y10.64123
G01 X11.09040 Y10.74463
G01 X11.11750 Y10.84572
G01 X11.17242 Y11.01474
G01 X11.20993 Y11.11245
G01 X11.25746 Y11.20572
G01 X11.33950 Y11.34783
G01 X11.36297 Y11.34986
G01 X11.33886 Y11.34778
G01 X11.21852 Y11.49441
G01 X11.12611 Y11.66731
G01 X11.06919 Y11.85489
G01 X11.04999 Y12.04999
G01 X11.04999 Y13.74999
G01 X11.06919 Y13.94508
G01 X11.12611 Y14.13266
G01 X11.21852 Y14.30556
G01 X11.34288 Y14.45710
G01 X11.49441 Y14.58145
G01 X11.66731 Y14.67386
G01 X11.85489 Y14.73078
G01 X12.04999 Y14.74998
G01 X12.62868 Y14.74998
G01 X12.63650 Y14.73103
G01 X12.62868 Y14.74998
G01 X14.37932 Y16.50065
G01 X14.45204 Y16.56654
G01 X14.60663 Y16.68719
G01 X14.77724 Y16.78384
G01 X14.95836 Y16.85887
G01 X15.05217 Y16.88732
G01 X15.24442 Y16.92557
G01 X15.43997 Y16.94000
G01 X24.07562 Y16.94000
G01 X24.22637 Y16.86291
G01 X24.07100 Y16.94236
G01 X23.95746 Y17.13426
G01 X23.90993 Y17.22752
G01 X23.87242 Y17.32524
G01 X23.81750 Y17.49425
G01 X23.79040 Y17.59534
G01 X23.77404 Y17.69875
G01 X23.75548 Y17.87545
G01 X23.74999 Y17.98000
G01 X23.75548 Y18.08452
G01 X23.77404 Y18.26123
G01 X23.79040 Y18.36463
G01 X23.81750 Y18.46572
G01 X23.87242 Y18.63474
G01 X23.90993 Y18.73245
G01 X23.95746 Y18.82572
G01 X24.04631 Y18.97962
G01 X24.07564 Y19.01998
G01 X14.50396 Y19.01998
G01 X14.49261 Y19.04398
G01 X14.50396 Y19.01998
G01 X14.45710 Y18.96288
G01 X14.30556 Y18.83852
G01 X14.13266 Y18.74611
G01 X13.94508 Y18.68919
G01 X13.74999 Y18.66999
G01 X12.04999 Y18.66999
G01 X11.85489 Y18.68919
G01 X11.66731 Y18.74611
G01 X11.49441 Y18.83852
G01 X11.34288 Y18.96288
G01 X11.21852 Y19.11441
G01 X11.12611 Y19.28731
G01 X11.06919 Y19.47489
G01 X11.04999 Y19.66999
G01 X11.04999 Y21.36999
G01 X11.06919 Y21.56508
G01 X11.12611 Y21.75266
G01 X11.21852 Y21.92556
G01 X11.34288 Y22.07710
G01 X11.49441 Y22.20145
G01 X11.66731 Y22.29386
G01 X11.85489 Y22.35078
G01 X12.04999 Y22.36998
G01 X13.74999 Y22.36998
G01 X13.94508 Y22.35078
G01 X14.13266 Y22.29386
G01 X14.30556 Y22.20145
G01 X14.45710 Y22.07710
G01 X14.50396 Y22.02000
G01 X14.49261 Y21.99599
G01 X14.50396 Y22.02000
G01 X24.07562 Y22.02000
G01 X24.22637 Y21.94291
G01 X24.07100 Y22.02236
G01 X23.95746 Y22.21426
G01 X23.90993 Y22.30752
G01 X23.87242 Y22.40524
G01 X23.81750 Y22.57425
G01 X23.79040 Y22.67534
G01 X23.77404 Y22.77875
G01 X23.75548 Y22.95545
G01 X23.74999 Y23.06000
G01 X23.75548 Y23.16452
G01 X23.77404 Y23.34123
G01 X23.79040 Y23.44463
G01 X23.81750 Y23.54572
G01 X23.87242 Y23.71474
G01 X23.90993 Y23.81245
G01 X23.95746 Y23.90572
G01 X24.04631 Y24.05962
G01 X24.10330 Y24.14740
G01 X24.16917 Y24.22873
G01 X24.26035 Y24.32997
G01 X24.16917 Y24.43124
G01 X24.10330 Y24.51257
G01 X24.04631 Y24.60036
G01 X23.95746 Y24.75426
G01 X23.90993 Y24.84752
G01 X23.87242 Y24.94524
G01 X23.81750 Y25.11425
G01 X23.79040 Y25.21534
G01 X23.77404 Y25.31875
G01 X23.75548 Y25.49543
G01 X23.74999 Y25.59997
G01 X23.75548 Y25.70452
G01 X23.77404 Y25.88120
G01 X23.79040 Y25.98463
G01 X23.81750 Y26.08570
G01 X23.87242 Y26.25474
G01 X23.90993 Y26.35245
G01 X23.95746 Y26.44569
G01 X24.04631 Y26.59962
G01 X24.10330 Y26.68740
G01 X24.16917 Y26.76873
G01 X24.26035 Y26.86997
G01 X21.50951 Y26.86997
G01 X20.51997 Y25.93658
G01 X20.16999 Y25.59997
G01 X20.51997 Y25.93658
G01 X21.50951 Y26.86997
G01 X21.94875 Y27.66700
G01 X22.33676 Y28.38889
G01 X22.26249 Y28.25067
G01 X21.97626 Y28.05946
G01 X21.88982 Y28.01325
G01 X21.66803 Y27.90835
G01 X21.43704 Y27.82570
G01 X21.34324 Y27.79725
G01 X21.10527 Y27.73764
G01 X20.86257 Y27.70162
G01 X20.76503 Y27.69202
G01 X20.51997 Y27.67998
G01 X15.00548 Y27.67998
G01 X15.00360 Y27.68747
G01 X15.00548 Y27.67998
G01 X14.70670 Y27.52029
G01 X14.23772 Y27.37802
G01 X13.74999 Y27.32999
G01 X12.04999 Y27.32999
G01 X11.56226 Y27.37802
G01 X11.09327 Y27.52029
G01 X10.66107 Y27.75130
G01 X10.28222 Y28.06222
G01 X9.97130 Y28.44107
G01 X9.74029 Y28.87327
G01 X9.59802 Y29.34226
G01 X9.54999 Y29.82999
G01 X9.54999 Y31.52999
G01 X9.59802 Y32.01772
G01 X9.68842 Y32.31568
G01 X10.20658 Y32.30174
G01 X9.67882 Y32.31584
G01 X9.62320 Y32.52348
G01 X9.58225 Y32.78195
G01 X9.56368 Y32.95866
G01 X9.54999 Y33.22000
G01 X9.56368 Y33.48131
G01 X9.58225 Y33.65802
G01 X9.62320 Y33.91649
G01 X9.69091 Y34.16925
G01 X9.74583 Y34.33826
G01 X9.80407 Y34.48997
G01 X9.74583 Y34.64171
G01 X9.69091 Y34.81073
G01 X9.62320 Y35.06348
G01 X9.58225 Y35.32195
G01 X9.56368 Y35.49866
G01 X9.54999 Y35.76000
G01 X9.56368 Y36.02131
G01 X9.58225 Y36.19802
G01 X9.62320 Y36.45649
G01 X9.69091 Y36.70925
G01 X9.74583 Y36.87826
G01 X9.80407 Y37.02997
G01 X9.74583 Y37.18171
G01 X9.69091 Y37.35073
G01 X9.62320 Y37.60348
G01 X9.58225 Y37.86195
G01 X9.56368 Y38.03866
G01 X9.54999 Y38.30000
G01 X9.55065 Y38.31290
G01 X9.84593 Y38.47437
G01 X9.80745 Y38.45336
G01 X9.46081 Y38.68499
G01 X9.38505 Y38.74717
G01 X9.22144 Y38.89545
G01 X8.41545 Y39.70144
G01 X8.24456 Y39.89083
G01 X8.03704 Y40.17648
G01 X7.99605 Y40.24335
G01 X7.83575 Y40.55796
G01 X7.80572 Y40.63042
G01 X7.69663 Y40.96621
G01 X7.67832 Y41.04251
G01 X7.62307 Y41.39123
G01 X7.61693 Y41.46944
G01 X7.60999 Y41.64599
G01 X7.60999 Y62.49998
G01 X7.62081 Y62.72050
G01 X7.63044 Y62.81804
G01 X7.71647 Y63.25065
G01 X7.74494 Y63.34445
G01 X7.91373 Y63.75194
G01 X7.95993 Y63.83838
G01 X8.20496 Y64.20513
G01 X8.26717 Y64.28090
G01 X8.41543 Y64.44450
G01 X12.15542 Y68.18452
G01 X12.34483 Y68.35541
G01 X12.63045 Y68.56293
G01 X12.69736 Y68.60393
G01 X13.01194 Y68.76423
G01 X13.04999 Y68.77997
G01 X12.50620 Y68.77997
G01 X12.18248 Y68.54551
G01 X12.12281 Y68.49455
G01 X11.97867 Y68.36131
G01 X8.23867 Y64.62128
G01 X8.07390 Y64.43950
G01 X8.01172 Y64.36373
G01 X7.73946 Y63.95623
G01 X7.69325 Y63.86980
G01 X7.50570 Y63.41702
G01 X7.47725 Y63.32322
G01 X7.38162 Y62.84255
G01 X7.37202 Y62.74501
G01 X7.35998 Y62.49998
G01 X7.35998 Y41.64599
G01 X7.36770 Y41.44983
G01 X7.37385 Y41.37162
G01 X7.43522 Y40.98414
G01 X7.45353 Y40.90787
G01 X7.57476 Y40.53477
G01 X7.60479 Y40.46228
G01 X7.78289 Y40.11275
G01 X7.82389 Y40.04584
G01 X8.05447 Y39.72847
G01 X8.23867 Y39.52466
G01 X9.04466 Y38.71867
G01 X9.22645 Y38.55390
G01 X9.30222 Y38.49172
G01 X9.56122 Y38.31867
G01 X9.55065 Y38.31288
G01 X9.80803 Y38.45362
G01 X9.79998 Y38.30000
G01 X9.81232 Y38.06480
G01 X9.83089 Y37.88806
G01 X9.86772 Y37.65545
G01 X9.92868 Y37.42797
G01 X9.98360 Y37.25898
G01 X10.07265 Y37.02997
G01 X9.98360 Y36.80099
G01 X9.92868 Y36.63201
G01 X9.86772 Y36.40452
G01 X9.83089 Y36.17191
G01 X9.81232 Y35.99518
G01 X9.79998 Y35.76000
G01 X9.81232 Y35.52480
G01 X9.83089 Y35.34806
G01 X9.86772 Y35.11545
G01 X9.92868 Y34.88797
G01 X9.98360 Y34.71898
G01 X10.07265 Y34.48997
G01 X9.98360 Y34.26099
G01 X9.92868 Y34.09201
G01 X9.86772 Y33.86452
G01 X9.83089 Y33.63191
G01 X9.81232 Y33.45518
G01 X9.79998 Y33.22000
G01 X9.81232 Y32.98480
G01 X9.83089 Y32.80806
G01 X9.86772 Y32.57545
G01 X9.92868 Y32.34797
G01 X9.94092 Y32.31027
G01 X9.94672 Y32.31010
G01 X9.84321 Y31.96895
G01 X9.79998 Y31.52999
G01 X9.79998 Y29.82999
G01 X9.84321 Y29.39103
G01 X9.97125 Y28.96895
G01 X10.17918 Y28.57995
G01 X10.45901 Y28.23901
G01 X10.79995 Y27.95918
G01 X11.18895 Y27.75125
G01 X11.61103 Y27.62321
G01 X12.04999 Y27.57998
G01 X13.74999 Y27.57998
G01 X14.18895 Y27.62321
G01 X14.61102 Y27.75125
G01 X14.94541 Y27.92999
G01 X14.94353 Y27.93749
G01 X14.94541 Y27.92999
G01 X20.51997 Y27.92999
G01 X20.74052 Y27.94081
G01 X20.83806 Y27.95044
G01 X21.05647 Y27.98282
G01 X21.27067 Y28.03647
G01 X21.36447 Y28.06494
G01 X21.57237 Y28.13931
G01 X21.77197 Y28.23373
G01 X21.85843 Y28.27993
G01 X22.22515 Y28.52499
G01 X22.30092 Y28.58717
G01 X22.46452 Y28.73545
G01 X22.59211 Y28.86304
G01 X22.66864 Y28.99900
G01 X22.58573 Y28.85171
G01 X22.56772 Y28.78452
G01 X22.53089 Y28.55191
G01 X22.51232 Y28.37518
G01 X22.49998 Y28.14000
G01 X22.51232 Y27.90480
G01 X22.53089 Y27.72806
G01 X22.56772 Y27.49545
G01 X22.62868 Y27.26797
G01 X22.68360 Y27.09898
G01 X22.77265 Y26.86997
G01 X22.68360 Y26.64099
G01 X22.62868 Y26.47201
G01 X22.56772 Y26.24452
G01 X22.53089 Y26.01191
G01 X22.51232 Y25.83518
G01 X22.49998 Y25.59997
G01 X22.51232 Y25.36480
G01 X22.53089 Y25.18806
G01 X22.56772 Y24.95545
G01 X22.62868 Y24.72797
G01 X22.68360 Y24.55898
G01 X22.77265 Y24.32997
G01 X22.68360 Y24.10099
G01 X22.62868 Y23.93201
G01 X22.56772 Y23.70452
G01 X22.53089 Y23.47191
G01 X22.51230 Y23.26998
G01 X14.94541 Y23.26998
G01 X14.94353 Y23.26249
G01 X14.94541 Y23.26998
G01 X14.61102 Y23.44872
G01 X14.18895 Y23.57676
G01 X13.74999 Y23.61999
G01 X12.04999 Y23.61999
G01 X11.61103 Y23.57676
G01 X11.18895 Y23.44872
G01 X10.79995 Y23.24080
G01 X10.45901 Y22.96096
G01 X10.17918 Y22.62002
G01 X9.97125 Y22.23102
G01 X9.84321 Y21.80895
G01 X9.79998 Y21.36999
G01 X9.79998 Y19.66999
G01 X9.84321 Y19.23103
G01 X9.97125 Y18.80895
G01 X10.17918 Y18.41995
G01 X10.45901 Y18.07901
G01 X10.79995 Y17.79918
G01 X11.18895 Y17.59125
G01 X11.61103 Y17.46321
G01 X12.04999 Y17.41998
G01 X13.53459 Y17.41998
G01 X12.11090 Y15.99999
G01 X12.11765 Y15.98544
G01 X12.11090 Y15.99999
G01 X12.04999 Y15.99999
G01 X11.61103 Y15.95676
G01 X11.18895 Y15.82872
G01 X10.79995 Y15.62080
G01 X10.45901 Y15.34097
G01 X10.17918 Y15.00002
G01 X9.97125 Y14.61102
G01 X9.84321 Y14.18895
G01 X9.79998 Y13.74999
G01 X9.79998 Y12.04999
G01 X9.84321 Y11.61103
G01 X9.94672 Y11.26985
G01 X10.34743 Y11.28273
G01 X9.82424 Y11.26589
G01 X8.39328 Y11.24836
G01 X8.37204 Y11.31839
G01 X8.29998 Y12.04999
G01 X8.29998 Y13.74999
G01 X8.37204 Y14.48158
G01 X8.58543 Y15.18506
G01 X8.93199 Y15.83337
G01 X9.39833 Y16.40164
G01 X9.77407 Y16.70997
G01 X11.80214 Y16.70997
G01 X11.80308 Y16.70525
G01 X11.80214 Y16.70997
G01 X12.04996 Y16.80657
G01 X13.48075 Y17.39920
G01 X12.92736 Y17.16999
G01 X12.00269 Y16.24533
G01 X12.00932 Y16.23129
G01 X12.00269 Y16.24533
G01 X11.56226 Y16.20195
G01 X11.09327 Y16.05968
G01 X10.66107 Y15.82867
G01 X10.28222 Y15.51775
G01 X9.97130 Y15.13891
G01 X9.74029 Y14.70670
G01 X9.59802 Y14.23772
G01 X9.54999 Y13.74999
G01 X9.54999 Y12.04999
G01 X9.59802 Y11.56226
G01 X9.68842 Y11.26424
G01 X9.82424 Y11.26589
G01 X9.42939 Y11.26106
G01 X9.35284 Y11.51349
G01 X9.29998 Y12.04999
G01 X9.29998 Y13.74999
G01 X9.35284 Y14.28648
G01 X9.50933 Y14.80236
G01 X9.76346 Y15.27780
G01 X10.10544 Y15.69453
G01 X10.52218 Y16.03652
G01 X10.99762 Y16.29065
G01 X11.51349 Y16.44713
G01 X11.88781 Y16.48402
G01 X11.89446 Y16.47000
G01 X11.88781 Y16.48402
G01 X12.32380 Y16.91998
G01 X12.04999 Y16.91998
G01 X11.51349 Y16.97284
G01 X10.99762 Y17.12933
G01 X10.52218 Y17.38346
G01 X10.10544 Y17.72544
G01 X9.76346 Y18.14218
G01 X9.50933 Y18.61762
G01 X9.35284 Y19.13349
G01 X9.29998 Y19.66999
G01 X9.29998 Y21.36999
G01 X9.35284 Y21.90648
G01 X9.50933 Y22.42236
G01 X9.76346 Y22.89780
G01 X10.10544 Y23.31453
G01 X10.52218 Y23.65652
G01 X10.99762 Y23.91065
G01 X11.51349 Y24.06713
G01 X12.04999 Y24.11999
G01 X13.74999 Y24.11999
G01 X14.28648 Y24.06713
G01 X14.80236 Y23.91065
G01 X15.06555 Y23.76998
G01 X15.06367 Y23.76249
G01 X15.06555 Y23.76998
G01 X22.07339 Y23.76998
G01 X22.07865 Y23.80846
G01 X22.15317 Y24.08652
G01 X22.20806 Y24.25550
G01 X22.23666 Y24.32997
G01 X22.20806 Y24.40447
G01 X22.15317 Y24.57346
G01 X22.07865 Y24.85151
G01 X22.03364 Y25.13581
G01 X22.01504 Y25.31252
G01 X21.99998 Y25.59997
G01 X22.01504 Y25.88745
G01 X22.03364 Y26.06416
G01 X22.07865 Y26.34846
G01 X22.15317 Y26.62652
G01 X22.20806 Y26.79550
G01 X22.23666 Y26.86997
G01 X22.20806 Y26.94447
G01 X22.15317 Y27.11346
G01 X22.07865 Y27.39151
G01 X22.03364 Y27.67581
G01 X22.02061 Y27.79967
G01 X21.76371 Y27.67739
G01 X21.50961 Y27.58646
G01 X21.41581 Y27.55801
G01 X21.15403 Y27.49243
G01 X20.88708 Y27.45283
G01 X20.78954 Y27.44323
G01 X20.51997 Y27.42999
G01 X15.06555 Y27.42999
G01 X15.06367 Y27.43749
G01 X15.06555 Y27.42999
G01 X14.80236 Y27.28933
G01 X14.28648 Y27.13284
G01 X13.74999 Y27.07998
G01 X12.04999 Y27.07998
G01 X11.51349 Y27.13284
G01 X10.99762 Y27.28933
G01 X10.52218 Y27.54346
G01 X10.10544 Y27.88544
G01 X9.76346 Y28.30218
G01 X9.50933 Y28.77762
G01 X9.35284 Y29.29349
G01 X9.29998 Y29.82999
G01 X9.29998 Y31.52999
G01 X9.35284 Y32.06648
G01 X9.42939 Y32.31888
G01 X9.41951 Y32.31901
G01 X9.37865 Y32.47151
G01 X9.33364 Y32.75581
G01 X9.31504 Y32.93252
G01 X9.29998 Y33.22000
G01 X9.31504 Y33.50745
G01 X9.33364 Y33.68416
G01 X9.37865 Y33.96846
G01 X9.45317 Y34.24652
G01 X9.50806 Y34.41550
G01 X9.53666 Y34.48997
G01 X9.50806 Y34.56447
G01 X9.45317 Y34.73346
G01 X9.37865 Y35.01151
G01 X9.33364 Y35.29581
G01 X9.31504 Y35.47252
G01 X9.29998 Y35.76000
G01 X9.31504 Y36.04745
G01 X9.33364 Y36.22416
G01 X9.37865 Y36.50846
G01 X9.45317 Y36.78652
G01 X9.50806 Y36.95550
G01 X9.53666 Y37.02997
G01 X9.50806 Y37.10447
G01 X9.45317 Y37.27346
G01 X9.37865 Y37.55151
G01 X9.33364 Y37.83581
G01 X9.31504 Y38.01252
G01 X9.30631 Y38.17925
G01 X9.31497 Y38.18397
G01 X9.14362 Y38.29848
G01 X9.06785 Y38.36065
G01 X8.86788 Y38.54188
G01 X8.06188 Y39.34788
G01 X7.86437 Y39.56611
G01 X7.61073 Y39.91521
G01 X7.56973 Y39.98211
G01 X7.37382 Y40.36659
G01 X7.34380 Y40.43909
G01 X7.21045 Y40.84950
G01 X7.19214 Y40.92578
G01 X7.12462 Y41.35199
G01 X7.11845 Y41.43022
G01 X7.10999 Y41.64599
G01 X7.10999 Y62.49998
G01 X7.12323 Y62.76952
G01 X7.13283 Y62.86706
G01 X7.23801 Y63.39578
G01 X7.26646 Y63.48959
G01 X7.47276 Y63.98763
G01 X7.51896 Y64.07409
G01 X7.81848 Y64.52232
G01 X7.88065 Y64.59809
G01 X8.06188 Y64.79804
G01 X11.80188 Y68.53806
G01 X11.96045 Y68.68465
G01 X12.02009 Y68.73560
G01 X12.08118 Y68.77997
G01 X11.69556 Y68.78000
G01 X11.62510 Y68.71485
G01 X7.88510 Y64.97483
G01 X7.68739 Y64.75669
G01 X7.62521 Y64.68092
G01 X7.29849 Y64.19192
G01 X7.25228 Y64.10549
G01 X7.02721 Y63.56215
G01 X6.99877 Y63.46835
G01 X6.88403 Y62.89157
G01 X6.87443 Y62.79401
G01 X6.85998 Y62.49998
G01 X6.85998 Y41.64599
G01 X6.87540 Y41.33238
G01 X6.94903 Y40.86743
G01 X6.96735 Y40.79113
G01 X7.11281 Y40.34343
G01 X7.14284 Y40.27094
G01 X7.35655 Y39.85148
G01 X7.39755 Y39.78458
G01 X7.67425 Y39.40373
G01 X7.88513 Y39.17112
G01 X8.69112 Y38.36513
G01 X8.90925 Y38.16741
G01 X8.98502 Y38.10523
G01 X9.06871 Y38.04930
G01 X9.30633 Y38.17922
G01 X9.06328 Y38.04633
G01 X9.08500 Y37.80968
G01 X9.13412 Y37.49952
G01 X9.21540 Y37.19622
G01 X9.26940 Y37.02997
G01 X9.21540 Y36.86376
G01 X9.13412 Y36.56046
G01 X9.08500 Y36.25030
G01 X9.06643 Y36.07356
G01 X9.04999 Y35.76000
G01 X9.06643 Y35.44641
G01 X9.08500 Y35.26968
G01 X9.13412 Y34.95952
G01 X9.21540 Y34.65622
G01 X9.26940 Y34.48997
G01 X9.21540 Y34.32376
G01 X9.13412 Y34.02046
G01 X9.08500 Y33.71030
G01 X9.06643 Y33.53356
G01 X9.04999 Y33.22000
G01 X9.06643 Y32.90641
G01 X9.08500 Y32.72968
G01 X9.13412 Y32.41952
G01 X9.16021 Y32.32219
G01 X9.68842 Y32.31568
G01 X7.37669 Y32.34408
G01 X7.34459 Y32.54675
G01 X7.32602 Y32.72348
G01 X7.29999 Y33.22000
G01 X7.32602 Y33.71649
G01 X7.34459 Y33.89323
G01 X7.42236 Y34.38428
G01 X7.45068 Y34.48997
G01 X7.42236 Y34.59569
G01 X7.34459 Y35.08675
G01 X7.32602 Y35.26348
G01 X7.29999 Y35.76000
G01 X7.32602 Y36.25649
G01 X7.34459 Y36.43323
G01 X7.42236 Y36.92428
G01 X7.45068 Y37.02997
G01 X7.41769 Y37.16508
G01 X6.64769 Y37.93368
G01 X6.39448 Y38.20754
G01 X6.34355 Y38.26721
G01 X5.90545 Y38.87023
G01 X5.86445 Y38.93711
G01 X5.52605 Y39.60124
G01 X5.49603 Y39.67373
G01 X5.26570 Y40.38260
G01 X5.24739 Y40.45890
G01 X5.13077 Y41.19509
G01 X5.12463 Y41.27330
G01 X5.11000 Y41.64599
G01 X5.11000 Y62.49998
G01 X5.13286 Y62.96553
G01 X5.14246 Y63.06309
G01 X5.32412 Y63.97635
G01 X5.35257 Y64.07015
G01 X5.70890 Y64.93043
G01 X5.75513 Y65.01686
G01 X6.27245 Y65.79111
G01 X6.33463 Y65.86687
G01 X6.64764 Y66.21226
G01 X9.21537 Y68.77997
G01 X10.62957 Y68.78000
G01 X7.35477 Y65.50515
G01 X7.10763 Y65.23248
G01 X7.04545 Y65.15671
G01 X6.63705 Y64.54549
G01 X6.59084 Y64.45903
G01 X6.30951 Y63.77986
G01 X6.28106 Y63.68608
G01 X6.13766 Y62.96508
G01 X6.12805 Y62.86751
G01 X6.11000 Y62.49998
G01 X6.11000 Y41.64599
G01 X6.12155 Y41.35176
G01 X6.12770 Y41.27355
G01 X6.21975 Y40.69235
G01 X6.23806 Y40.61605
G01 X6.41988 Y40.05641
G01 X6.44992 Y39.98392
G01 X6.71708 Y39.45961
G01 X6.75808 Y39.39271
G01 X7.10395 Y38.91666
G01 X7.15490 Y38.85700
G01 X7.35477 Y38.64077
G01 X8.16077 Y37.83477
G01 X8.35081 Y37.66256
G01 X8.51527 Y37.74996
G01 X8.11644 Y37.53797
G01 X7.98401 Y37.65801
G01 X7.17801 Y38.46401
G01 X6.96481 Y38.69464
G01 X6.91385 Y38.75430
G01 X6.54492 Y39.26210
G01 X6.50392 Y39.32898
G01 X6.21896 Y39.88826
G01 X6.18894 Y39.96073
G01 X5.99498 Y40.55768
G01 X5.97667 Y40.63398
G01 X5.87847 Y41.25392
G01 X5.85998 Y41.64599
G01 X5.85998 Y62.49998
G01 X5.87924 Y62.89203
G01 X5.88886 Y62.98959
G01 X6.04182 Y63.75865
G01 X6.07030 Y63.85245
G01 X6.37035 Y64.57688
G01 X6.41655 Y64.66332
G01 X6.85221 Y65.31531
G01 X6.91439 Y65.39108
G01 X7.17799 Y65.68194
G01 X10.27603 Y68.77997
G01 X9.92248 Y68.77997
G01 X7.00123 Y65.85872
G01 X6.72112 Y65.54968
G01 X6.65894 Y65.47391
G01 X6.19608 Y64.78118
G01 X6.14987 Y64.69474
G01 X5.83105 Y63.92502
G01 X5.80260 Y63.83122
G01 X5.64007 Y63.01407
G01 X5.63044 Y62.91654
G01 X5.61000 Y62.49998
G01 X5.61000 Y41.64599
G01 X5.62308 Y41.31254
G01 X5.62925 Y41.23431
G01 X5.73357 Y40.57561
G01 X5.75188 Y40.49933
G01 X5.95798 Y39.86507
G01 X5.98800 Y39.79258
G01 X6.29077 Y39.19837
G01 X6.33176 Y39.13147
G01 X6.72376 Y38.59192
G01 X6.77471 Y38.53228
G01 X7.00123 Y38.28722
G01 X7.80722 Y37.48123
G01 X7.88378 Y37.41428
G01 X7.91144 Y37.23963
G01 X7.96762 Y37.02997
G01 X7.91144 Y36.82035
G01 X7.84184 Y36.38095
G01 X7.82328 Y36.20425
G01 X7.79998 Y35.76000
G01 X7.82328 Y35.31575
G01 X7.84184 Y35.13902
G01 X7.91144 Y34.69963
G01 X7.96762 Y34.48997
G01 X7.91144 Y34.28035
G01 X7.84184 Y33.84095
G01 X7.82328 Y33.66425
G01 X7.79998 Y33.22000
G01 X7.82328 Y32.77575
G01 X7.84184 Y32.59902
G01 X7.88322 Y32.33786
G01 X8.39328 Y32.33158
G01 X8.13425 Y32.33476
G01 X8.12686 Y32.31035
G01 X8.05000 Y31.52999
G01 X8.05000 Y29.82999
G01 X8.12686 Y29.04962
G01 X8.35447 Y28.29926
G01 X8.72411 Y27.60772
G01 X9.22157 Y27.00157
G01 X9.82772 Y26.50411
G01 X10.51926 Y26.13444
G01 X11.26962 Y25.90686
G01 X12.04999 Y25.83000
G01 X13.74999 Y25.83000
G01 X14.53035 Y25.90686
G01 X15.28072 Y26.13444
G01 X15.36588 Y26.17998
G01 X15.36400 Y26.18745
G01 X15.36588 Y26.17998
G01 X20.51997 Y26.17998
G01 X20.79516 Y26.19416
G01 X20.78987 Y26.18920
G01 X20.77189 Y26.01811
G01 X20.75000 Y25.59997
G01 X20.77189 Y25.18186
G01 X20.78891 Y25.01997
G01 X15.36588 Y25.01999
G01 X15.36400 Y25.01250
G01 X15.36588 Y25.01999
G01 X15.28072 Y25.06551
G01 X14.53035 Y25.29312
G01 X13.74999 Y25.36998
G01 X12.04999 Y25.36998
G01 X11.26962 Y25.29312
G01 X10.51926 Y25.06551
G01 X9.82772 Y24.69586
G01 X9.22157 Y24.19840
G01 X8.72411 Y23.59226
G01 X8.35447 Y22.90072
G01 X8.12686 Y22.15035
G01 X8.05000 Y21.36999
G01 X8.05000 Y19.66999
G01 X8.12686 Y18.88962
G01 X8.35447 Y18.13926
G01 X8.72411 Y17.44772
G01 X9.22157 Y16.84157
G01 X9.38190 Y16.70997
G01 X9.77407 Y16.70997
G01 X9.39833 Y17.01833
G01 X8.93199 Y17.58660
G01 X8.58543 Y18.23491
G01 X8.37204 Y18.93839
G01 X8.29998 Y19.66999
G01 X8.29998 Y21.36999
G01 X8.37204 Y22.10158
G01 X8.58543 Y22.80506
G01 X8.93199 Y23.45337
G01 X9.39833 Y24.02164
G01 X9.96660 Y24.48799
G01 X10.61491 Y24.83455
G01 X11.31839 Y25.04793
G01 X12.04999 Y25.11999
G01 X13.74999 Y25.11999
G01 X14.48158 Y25.04793
G01 X15.18506 Y24.83455
G01 X15.30581 Y24.76998
G01 X15.30393 Y24.76249
G01 X15.30581 Y24.76998
G01 X21.08058 Y24.76937
G01 X21.03910 Y25.03127
G01 X21.02053 Y25.20800
G01 X20.99998 Y25.59997
G01 X21.02053 Y25.99197
G01 X21.03910 Y26.16871
G01 X21.08744 Y26.47282
G01 X20.88756 Y26.44803
G01 X20.51997 Y26.43000
G01 X15.30581 Y26.43000
G01 X15.30396 Y26.43746
G01 X15.30581 Y26.43000
G01 X15.18506 Y26.36543
G01 X14.48158 Y26.15204
G01 X13.74999 Y26.07998
G01 X12.04999 Y26.07998
G01 X11.31839 Y26.15204
G01 X10.61491 Y26.36543
G01 X9.96660 Y26.71199
G01 X9.39833 Y27.17833
G01 X8.93199 Y27.74660
G01 X8.58543 Y28.39491
G01 X8.37204 Y29.09839
G01 X8.29998 Y29.82999
G01 X8.29998 Y31.52999
G01 X8.37204 Y32.26158
G01 X8.39328 Y32.33156
G01 X8.13646 Y32.33473
G01 X8.09048 Y32.62516
G01 X8.07189 Y32.80186
G01 X8.05000 Y33.22000
G01 X8.07189 Y33.63811
G01 X8.09048 Y33.81482
G01 X8.15597 Y34.22835
G01 X8.22607 Y34.48997
G01 X8.15597 Y34.75162
G01 X8.09048 Y35.16516
G01 X8.07189 Y35.34186
G01 X8.05000 Y35.76000
G01 X8.07189 Y36.17811
G01 X8.09048 Y36.35482
G01 X8.15597 Y36.76835
G01 X8.22607 Y37.02997
G01 X8.15597 Y37.29162
G01 X8.11693 Y37.53820
G01 X8.35007 Y37.66210
G01 X8.40052 Y37.34359
G01 X8.48454 Y37.02997
G01 X8.40052 Y36.71639
G01 X8.33910 Y36.32871
G01 X8.32053 Y36.15197
G01 X8.29998 Y35.76000
G01 X8.32053 Y35.36800
G01 X8.33910 Y35.19127
G01 X8.40052 Y34.80359
G01 X8.48454 Y34.48997
G01 X8.40052 Y34.17639
G01 X8.33910 Y33.78871
G01 X8.32053 Y33.61197
G01 X8.29998 Y33.22000
G01 X8.32053 Y32.82800
G01 X8.33910 Y32.65127
G01 X8.38972 Y32.33163
G01 X8.65231 Y32.32838
G01 X8.64298 Y32.32854
G01 X8.58774 Y32.67740
G01 X8.56917 Y32.85414
G01 X8.55000 Y33.22000
G01 X8.56917 Y33.58584
G01 X8.58774 Y33.76257
G01 X8.64504 Y34.12439
G01 X8.74367 Y34.48997
G01 X8.64504 Y34.85558
G01 X8.58774 Y35.21740
G01 X8.56917 Y35.39414
G01 X8.55000 Y35.76000
G01 X8.56917 Y36.12584
G01 X8.58774 Y36.30257
G01 X8.64504 Y36.66439
G01 X8.74367 Y37.02997
G01 X8.64504 Y37.39558
G01 X8.58462 Y37.78705
G01 X8.60702 Y37.79906
G01 X8.58500 Y37.78728
G01 X8.33755 Y38.01156
G01 X7.53156 Y38.81755
G01 X7.29407 Y39.07902
G01 X6.97123 Y39.52334
G01 X6.93024 Y39.59024
G01 X6.68091 Y40.07960
G01 X6.65089 Y40.15209
G01 X6.48117 Y40.67442
G01 X6.46283 Y40.75069
G01 X6.37692 Y41.29316
G01 X6.37075 Y41.37137
G01 X6.35996 Y41.64599
G01 X6.35996 Y62.49998
G01 X6.37682 Y62.84303
G01 X6.38645 Y62.94056
G01 X6.52031 Y63.61351
G01 X6.54875 Y63.70729
G01 X6.81131 Y64.34120
G01 X6.85752 Y64.42763
G01 X7.23872 Y64.99812
G01 X7.30090 Y65.07389
G01 X7.53156 Y65.32839
G01 X10.98314 Y68.77997
G01 X11.33668 Y68.77997
G01 X7.70832 Y65.15161
G01 X7.49414 Y64.91529
G01 X7.43196 Y64.83952
G01 X7.07801 Y64.30978
G01 X7.03179 Y64.22334
G01 X6.78800 Y63.63472
G01 X6.75952 Y63.54092
G01 X6.63524 Y62.91605
G01 X6.62562 Y62.81852
G01 X6.60999 Y62.49998
G01 X6.60999 Y41.64599
G01 X6.61998 Y41.39098
G01 X6.62615 Y41.31277
G01 X6.70593 Y40.80906
G01 X6.72427 Y40.73279
G01 X6.88185 Y40.24775
G01 X6.91187 Y40.17526
G01 X7.14339 Y39.72088
G01 X7.18439 Y39.65397
G01 X7.48416 Y39.24137
G01 X7.70834 Y38.99433
G01 X8.51433 Y38.18834
G01 X8.75066 Y37.97414
G01 X8.82254 Y37.91514
G01 X8.83636 Y37.78354
G01 X8.88959 Y37.44755
G01 X8.97763 Y37.11895
G01 X9.00654 Y37.02997
G01 X8.97763 Y36.94102
G01 X8.88959 Y36.61242
G01 X8.83636 Y36.27643
G01 X8.81779 Y36.09970
G01 X8.79998 Y35.76000
G01 X8.81779 Y35.42027
G01 X8.83636 Y35.24354
G01 X8.88959 Y34.90755
G01 X8.97763 Y34.57895
G01 X9.00654 Y34.48997
G01 X8.97763 Y34.40102
G01 X8.88959 Y34.07242
G01 X8.83636 Y33.73643
G01 X8.81779 Y33.55970
G01 X8.79998 Y33.22000
G01 X8.81779 Y32.88027
G01 X8.83636 Y32.70354
G01 X8.88959 Y32.36755
G01 X8.90090 Y32.32536
G01 X9.17037 Y32.32206
G01 X9.10763 Y32.11525
G01 X9.04999 Y31.52999
G01 X9.04999 Y29.82999
G01 X9.10763 Y29.24472
G01 X9.27834 Y28.68193
G01 X9.55558 Y28.16327
G01 X9.92866 Y27.70866
G01 X10.38327 Y27.33558
G01 X10.90193 Y27.05834
G01 X11.46472 Y26.88763
G01 X12.04999 Y26.82999
G01 X13.74999 Y26.82999
G01 X14.33525 Y26.88763
G01 X14.89804 Y27.05834
G01 X15.12562 Y27.17998
G01 X15.12374 Y27.18747
G01 X15.12562 Y27.17998
G01 X20.51997 Y27.17998
G01 X20.81403 Y27.19443
G01 X20.91159 Y27.20403
G01 X21.20280 Y27.24724
G01 X21.48837 Y27.31877
G01 X21.58218 Y27.34721
G01 X21.81791 Y27.43154
G01 X21.94875 Y27.66700
G01 X21.81918 Y27.43385
G01 X21.83412 Y27.33952
G01 X21.91540 Y27.03622
G01 X21.96940 Y26.86997
G01 X21.91540 Y26.70376
G01 X21.83412 Y26.40046
G01 X21.78500 Y26.09030
G01 X21.76643 Y25.91356
G01 X21.74999 Y25.59997
G01 X21.76643 Y25.28641
G01 X21.78500 Y25.10968
G01 X21.83412 Y24.79952
G01 X21.91540 Y24.49622
G01 X21.96940 Y24.32997
G01 X21.91540 Y24.16376
G01 X21.87674 Y24.01946
G01 X15.12562 Y24.01999
G01 X15.12374 Y24.01250
G01 X15.12562 Y24.01999
G01 X14.89804 Y24.14163
G01 X14.33525 Y24.31235
G01 X13.74999 Y24.36998
G01 X12.04999 Y24.36998
G01 X11.46472 Y24.31235
G01 X10.90193 Y24.14163
G01 X10.38327 Y23.86439
G01 X9.92866 Y23.49132
G01 X9.55558 Y23.03671
G01 X9.27834 Y22.51804
G01 X9.10763 Y21.95525
G01 X9.04999 Y21.36999
G01 X9.04999 Y19.66999
G01 X9.10763 Y19.08472
G01 X9.27834 Y18.52193
G01 X9.55558 Y18.00327
G01 X9.92866 Y17.54866
G01 X10.38327 Y17.17558
G01 X10.90193 Y16.89834
G01 X11.46472 Y16.72763
G01 X11.64400 Y16.70997
G01 X11.46472 Y16.69235
G01 X10.90193 Y16.52163
G01 X10.38327 Y16.24439
G01 X9.92866 Y15.87132
G01 X9.55558 Y15.41671
G01 X9.27834 Y14.89804
G01 X9.10763 Y14.33525
G01 X9.04999 Y13.74999
G01 X9.04999 Y12.04999
G01 X9.10763 Y11.46472
G01 X9.17037 Y11.25789
G01 X9.68842 Y11.26424
G01 X9.67882 Y11.26414
G01 X9.62320 Y11.05649
G01 X9.58225 Y10.79802
G01 X9.56368 Y10.62131
G01 X9.54999 Y10.36000
G01 X9.56368 Y10.09866
G01 X9.58225 Y9.92195
G01 X9.62320 Y9.66348
G01 X9.69091 Y9.41073
G01 X9.74583 Y9.24171
G01 X9.83960 Y8.99742
G01 X9.95840 Y8.76427
G01 X10.04725 Y8.61037
G01 X10.18977 Y8.39092
G01 X10.35446 Y8.18754
G01 X10.47336 Y8.05548
G01 X10.65840 Y7.87044
G01 X10.86175 Y7.70578
G01 X11.00552 Y7.60133
G01 X11.22500 Y7.45881
G01 X11.45814 Y7.33999
G01 X11.62047 Y7.26773
G01 X11.86477 Y7.17395
G01 X12.11755 Y7.10621
G01 X12.29136 Y7.06928
G01 X12.54981 Y7.02833
G01 X12.81115 Y7.01464
G01 X12.98885 Y7.01464
G01 X13.25016 Y7.02833
G01 X13.50861 Y7.06928
G01 X13.68242 Y7.10621
G01 X13.93520 Y7.17395
G01 X14.17950 Y7.26773
G01 X14.34183 Y7.33999
G01 X14.38105 Y7.35998
G01 X14.38008 Y7.36486
G01 X14.38105 Y7.35998
G01 X22.28581 Y7.35998
G01 X22.48446 Y7.58198
G01 X22.91311 Y8.01299
G01 X23.09061 Y8.17319
G01 X23.41479 Y8.43656
G01 X23.59231 Y8.56597
G01 X23.84534 Y8.73049
G01 X24.07564 Y8.85998
G01 X24.04631 Y8.81962
G01 X23.95746 Y8.66572
G01 X23.90993 Y8.57245
G01 X23.87242 Y8.47474
G01 X23.81750 Y8.30572
G01 X23.79040 Y8.20463
G01 X23.77404 Y8.10123
G01 X23.75548 Y7.92452
G01 X23.74999 Y7.82000
G01 X23.75548 Y7.71545
G01 X23.77404 Y7.53875
G01 X23.79040 Y7.43534
G01 X23.81750 Y7.33425
G01 X23.87242 Y7.16524
G01 X23.90993 Y7.06752
G01 X23.95746 Y6.97426
G01 X24.04631 Y6.82036
G01 X24.10330 Y6.73257
G01 X24.16917 Y6.65122
G01 X24.26035 Y6.54997
G01 X24.16917 Y6.44870
G01 X24.10330 Y6.36740
G01 X24.04631 Y6.27962
G01 X23.95746 Y6.12572
G01 X23.90993 Y6.03245
G01 X23.87242 Y5.93474
G01 X23.81750 Y5.76572
G01 X23.79040 Y5.66463
G01 X23.77404 Y5.56123
G01 X23.75548 Y5.38452
G01 X23.74999 Y5.28000
G01 X23.75548 Y5.17545
G01 X23.77404 Y4.99875
G01 X23.79040 Y4.89534
G01 X23.81750 Y4.79425
G01 X23.87242 Y4.62524
G01 X23.90993 Y4.52752
G01 X23.95746 Y4.43426
G01 X24.04631 Y4.28036
G01 X24.10330 Y4.19257
G01 X24.16917 Y4.11124
G01 X24.26035 Y4.00997
G01 X29.69049 Y4.00997
G01 X30.10418 Y3.61988
G01 X30.30756 Y3.58770
G01 X30.68000 Y3.57000
G01 X46.48058 Y3.57055
G01 X46.43910 Y3.30868
G01 X46.42053 Y3.13197
G01 X46.39998 Y2.74000
G01 X46.42053 Y2.34800
G01 X46.43910 Y2.17127
G01 X46.50052 Y1.78359
G01 X46.60209 Y1.40444
G01 X46.65701 Y1.23546
G01 X46.79767 Y0.86901
G01 X46.97588 Y0.51925
G01 X47.06473 Y0.36538
G01 X47.17212 Y0.19997
G01 X47.78835 Y0.20000
G01 X47.68301 Y0.33007
G01 X47.49775 Y0.61537
G01 X47.40890 Y0.76926
G01 X47.25444 Y1.07236
G01 X47.13254 Y1.38996
G01 X47.07763 Y1.55895
G01 X46.98959 Y1.88755
G01 X46.93636 Y2.22354
G01 X46.91779 Y2.40027
G01 X46.89998 Y2.74000
G01 X46.91779 Y3.07970
G01 X46.93636 Y3.25641
G01 X46.98959 Y3.59242
G01 X47.07763 Y3.92102
G01 X47.10654 Y4.00997
G01 X47.08705 Y4.06999
G01 X47.41212 Y4.49786
G01 X47.70674 Y4.84462
G01 X47.88446 Y5.04198
G01 X48.31311 Y5.47299
G01 X48.49081 Y5.63298
G01 X48.81479 Y5.89656
G01 X48.71357 Y5.81419
G01 X48.70135 Y5.76857
G01 X48.67679 Y5.61350
G01 X48.65820 Y5.43677
G01 X48.64999 Y5.28000
G01 X48.65820 Y5.12321
G01 X48.67679 Y4.94647
G01 X48.70135 Y4.79141
G01 X48.74197 Y4.63974
G01 X48.79688 Y4.47073
G01 X48.85317 Y4.32415
G01 X48.92444 Y4.18427
G01 X49.02652 Y4.00997
G01 X48.92444 Y3.83570
G01 X48.85317 Y3.69583
G01 X48.79688 Y3.54924
G01 X48.74197 Y3.38023
G01 X48.70135 Y3.22857
G01 X48.67679 Y3.07350
G01 X48.65820 Y2.89677
G01 X48.64999 Y2.74000
G01 X48.65820 Y2.58321
G01 X48.67679 Y2.40647
G01 X48.70135 Y2.25141
G01 X48.74197 Y2.09974
G01 X48.79688 Y1.93073
G01 X48.85317 Y1.78415
G01 X48.92444 Y1.64427
G01 X49.01329 Y1.49037
G01 X49.09881 Y1.35870
G01 X49.19762 Y1.23668
G01 X49.31651 Y1.10462
G01 X49.42754 Y0.99360
G01 X49.54956 Y0.89479
G01 X49.69332 Y0.79035
G01 X49.82500 Y0.70482
G01 X49.96487 Y0.63355
G01 X50.12723 Y0.56126
G01 X50.27379 Y0.50500
G01 X50.42545 Y0.46436
G01 X50.59926 Y0.42743
G01 X50.75436 Y0.40287
G01 X50.91115 Y0.39464
G01 X51.08885 Y0.39464
G01 X51.24562 Y0.40287
G01 X51.40071 Y0.42743
G01 X51.57450 Y0.46436
G01 X51.72619 Y0.50500
G01 X51.87274 Y0.56126
G01 X52.03510 Y0.63355
G01 X52.17498 Y0.70482
G01 X52.30668 Y0.79035
G01 X52.45039 Y0.89479
G01 X52.57241 Y0.99360
G01 X52.68346 Y1.10462
G01 X52.80236 Y1.23668
G01 X52.90116 Y1.35870
G01 X52.98669 Y1.49037
G01 X53.07554 Y1.64427
G01 X53.14681 Y1.78415
G01 X53.20307 Y1.93073
G01 X53.25801 Y2.09974
G01 X53.29862 Y2.25141
G01 X53.32319 Y2.40647
G01 X53.34178 Y2.58321
G01 X53.34998 Y2.74000
G01 X53.34178 Y2.89677
G01 X53.32319 Y3.07350
G01 X53.29862 Y3.22857
G01 X53.25801 Y3.38023
G01 X53.20307 Y3.54924
G01 X53.14681 Y3.69583
G01 X53.07554 Y3.83570
G01 X52.97345 Y4.00997
G01 X53.07554 Y4.18427
G01 X53.14681 Y4.32415
G01 X53.20307 Y4.47073
G01 X53.25801 Y4.63974
G01 X53.29862 Y4.79141
G01 X53.32319 Y4.94647
G01 X53.34178 Y5.12321
G01 X53.34998 Y5.28000
G01 X53.34178 Y5.43677
G01 X53.32319 Y5.61350
G01 X53.29862 Y5.76857
G01 X53.25801 Y5.92023
G01 X53.20307 Y6.08924
G01 X53.14681 Y6.23583
G01 X53.07554 Y6.37570
G01 X52.97345 Y6.54997
G01 X53.07554 Y6.72427
G01 X53.14681 Y6.86415
G01 X53.20307 Y7.01073
G01 X53.25801 Y7.17974
G01 X53.29862 Y7.33141
G01 X53.32319 Y7.48647
G01 X53.34178 Y7.66321
G01 X53.34998 Y7.82000
G01 X53.34178 Y7.97677
G01 X53.32319 Y8.15350
G01 X53.29862 Y8.30857
G01 X53.25801 Y8.46023
G01 X53.20307 Y8.62924
G01 X53.14681 Y8.77583
G01 X53.07554 Y8.91570
G01 X52.97345 Y9.08997
G01 X53.07554 Y9.26427
G01 X53.14681 Y9.40415
G01 X53.20307 Y9.55073
G01 X53.25801 Y9.71974
G01 X53.29862 Y9.87141
G01 X53.32319 Y10.02647
G01 X53.34178 Y10.20321
G01 X53.34998 Y10.36000
G01 X53.34178 Y10.51677
G01 X53.32319 Y10.69350
G01 X53.29862 Y10.84857
G01 X53.25801 Y11.00023
G01 X53.20307 Y11.16924
G01 X53.14681 Y11.31583
G01 X53.07554 Y11.45570
G01 X52.97345 Y11.62997
G01 X51.45349 Y11.62997
G01 X51.67495 Y11.52911
G01 X51.86263 Y11.39617
G01 X51.90333 Y11.36322
G01 X51.94033 Y11.32622
G01 X52.09215 Y11.15350
G01 X52.20950 Y10.95571
G01 X52.23327 Y10.90907
G01 X52.25204 Y10.86023
G01 X52.32047 Y10.64067
G01 X52.32867 Y10.58898
G01 X52.34998 Y10.36000
G01 X57.09999 Y10.36000
G01 X57.07123 Y10.90877
G01 X57.05264 Y11.08547
G01 X56.96623 Y11.62997
G01 X52.97345 Y11.62997
G01 X53.07554 Y11.80427
G01 X53.14681 Y11.94415
G01 X53.20307 Y12.09073
G01 X53.25801 Y12.25974
G01 X53.29862 Y12.41141
G01 X53.32319 Y12.56647
G01 X53.34178 Y12.74318
G01 X53.34998 Y12.90000
G01 X53.34178 Y13.05677
G01 X53.32319 Y13.23350
G01 X53.29862 Y13.38857
G01 X53.25801 Y13.54023
G01 X53.20307 Y13.70924
G01 X53.14681 Y13.85583
G01 X53.07554 Y13.99570
G01 X52.97345 Y14.16997
G01 X53.07554 Y14.34427
G01 X53.14681 Y14.48415
G01 X53.20307 Y14.63073
G01 X53.25801 Y14.79974
G01 X53.29862 Y14.95141
G01 X53.32319 Y15.10647
G01 X53.34178 Y15.28321
G01 X53.34998 Y15.44000
G01 X53.34178 Y15.59677
G01 X53.32319 Y15.77350
G01 X53.29862 Y15.92857
G01 X53.25801 Y16.08023
G01 X53.20307 Y16.24924
G01 X53.14681 Y16.39583
G01 X53.07554 Y16.53570
G01 X52.97345 Y16.70997
G01 X53.07554 Y16.88427
G01 X53.14681 Y17.02415
G01 X53.20307 Y17.17073
G01 X53.25801 Y17.33974
G01 X53.29862 Y17.49141
G01 X53.32319 Y17.64647
G01 X53.34178 Y17.82321
G01 X53.34998 Y17.98000
G01 X53.34178 Y18.13677
G01 X53.32319 Y18.31350
G01 X53.29862 Y18.46857
G01 X53.25801 Y18.62023
G01 X53.20307 Y18.78924
G01 X53.14681 Y18.93583
G01 X53.07554 Y19.07570
G01 X52.97345 Y19.24997
G01 X53.07554 Y19.42427
G01 X53.14681 Y19.56415
G01 X53.20307 Y19.71073
G01 X53.25801 Y19.87974
G01 X53.29862 Y20.03141
G01 X53.32319 Y20.18647
G01 X53.34178 Y20.36321
G01 X53.34998 Y20.52000
G01 X53.34178 Y20.67677
G01 X53.32319 Y20.85350
G01 X53.29862 Y21.00857
G01 X53.25801 Y21.16023
G01 X53.20307 Y21.32924
G01 X53.14681 Y21.47583
G01 X53.07554 Y21.61570
G01 X52.97345 Y21.78997
G01 X53.07554 Y21.96427
G01 X53.14681 Y22.10415
G01 X53.20307 Y22.25073
G01 X53.25801 Y22.41974
G01 X53.29862 Y22.57141
G01 X53.32319 Y22.72647
G01 X53.34178 Y22.90321
G01 X53.34998 Y23.06000
G01 X53.34178 Y23.21677
G01 X53.32319 Y23.39350
G01 X53.29862 Y23.54857
G01 X53.25801 Y23.70023
G01 X53.20307 Y23.86924
G01 X53.14681 Y24.01583
G01 X53.07554 Y24.15570
G01 X52.97345 Y24.32997
G01 X53.07554 Y24.50427
G01 X53.14681 Y24.64415
G01 X53.20307 Y24.79073
G01 X53.25801 Y24.95974
G01 X53.29862 Y25.11141
G01 X53.32319 Y25.26647
G01 X53.34178 Y25.44321
G01 X53.34998 Y25.59997
G01 X53.34178 Y25.75677
G01 X53.32319 Y25.93350
G01 X53.29862 Y26.08857
G01 X53.25801 Y26.24023
G01 X53.20307 Y26.40922
G01 X53.14681 Y26.55580
G01 X53.07554 Y26.69570
G01 X52.97345 Y26.86997
G01 X53.07554 Y27.04427
G01 X53.14681 Y27.18415
G01 X53.20307 Y27.33073
G01 X53.25801 Y27.49974
G01 X53.29862 Y27.65141
G01 X53.32319 Y27.80647
G01 X53.34178 Y27.98321
G01 X53.34998 Y28.14000
G01 X53.34178 Y28.29677
G01 X53.32319 Y28.47350
G01 X53.29862 Y28.62857
G01 X53.25801 Y28.78023
G01 X53.20307 Y28.94924
G01 X53.14681 Y29.09583
G01 X53.07554 Y29.23570
G01 X52.97345 Y29.40997
G01 X53.07554 Y29.58427
G01 X53.14681 Y29.72415
G01 X53.20307 Y29.87073
G01 X53.25801 Y30.03974
G01 X53.29862 Y30.19141
G01 X53.32319 Y30.34647
G01 X53.34178 Y30.52321
G01 X53.34998 Y30.68000
G01 X53.34178 Y30.83677
G01 X53.32319 Y31.01350
G01 X53.29862 Y31.16857
G01 X53.25801 Y31.32023
G01 X53.20307 Y31.48924
G01 X53.14681 Y31.63583
G01 X53.07554 Y31.77570
G01 X52.97345 Y31.94997
G01 X53.07554 Y32.12427
G01 X53.14681 Y32.26415
G01 X53.20307 Y32.41073
G01 X53.25801 Y32.57974
G01 X53.29862 Y32.73141
G01 X53.32319 Y32.88647
G01 X53.34178 Y33.06321
G01 X53.34998 Y33.22000
G01 X53.34178 Y33.37677
G01 X53.32319 Y33.55350
G01 X53.29862 Y33.70857
G01 X53.25801 Y33.86023
G01 X53.20307 Y34.02924
G01 X53.14681 Y34.17583
G01 X53.07554 Y34.31570
G01 X52.97345 Y34.48997
G01 X53.07554 Y34.66427
G01 X53.14681 Y34.80415
G01 X53.20307 Y34.95073
G01 X53.25801 Y35.11974
G01 X53.29862 Y35.27141
G01 X53.32319 Y35.42647
G01 X53.34178 Y35.60321
G01 X53.34998 Y35.76000
G01 X53.34178 Y35.91677
G01 X53.32319 Y36.09350
G01 X53.29862 Y36.24857
G01 X53.25801 Y36.40023
G01 X53.20307 Y36.56924
G01 X53.14681 Y36.71583
G01 X53.07554 Y36.85570
G01 X52.97345 Y37.02997
G01 X53.07554 Y37.20427
G01 X53.14681 Y37.34415
G01 X53.20307 Y37.49073
G01 X53.25801 Y37.65974
G01 X53.29862 Y37.81141
G01 X53.32319 Y37.96647
G01 X53.34178 Y38.14321
G01 X53.34998 Y38.30000
G01 X53.34178 Y38.45677
G01 X53.32319 Y38.63350
G01 X53.29862 Y38.78857
G01 X53.25801 Y38.94023
G01 X53.20307 Y39.10924
G01 X53.14681 Y39.25583
G01 X53.07554 Y39.39570
G01 X52.97345 Y39.56997
G01 X53.07554 Y39.74427
G01 X53.14681 Y39.88415
G01 X53.20307 Y40.03073
G01 X53.25801 Y40.19974
G01 X53.29862 Y40.35141
G01 X53.32319 Y40.50647
G01 X53.34178 Y40.68321
G01 X53.34998 Y40.84000
G01 X53.34178 Y40.99677
G01 X53.32319 Y41.17350
G01 X53.29862 Y41.32857
G01 X53.25801 Y41.48023
G01 X53.20307 Y41.64924
G01 X53.14681 Y41.79583
G01 X53.07554 Y41.93570
G01 X52.97345 Y42.10997
G01 X53.07554 Y42.28427
G01 X53.14681 Y42.42415
G01 X53.20307 Y42.57073
G01 X53.25801 Y42.73974
G01 X53.29862 Y42.89141
G01 X53.32319 Y43.04647
G01 X53.34178 Y43.22321
G01 X53.34998 Y43.38000
G01 X53.34178 Y43.53677
G01 X53.32319 Y43.71350
G01 X53.29862 Y43.86857
G01 X53.25801 Y44.02023
G01 X53.20307 Y44.18924
G01 X53.14681 Y44.33583
G01 X53.07554 Y44.47570
G01 X52.97345 Y44.64997
G01 X53.07554 Y44.82427
G01 X53.14681 Y44.96415
G01 X53.20307 Y45.11073
G01 X53.25801 Y45.27974
G01 X53.29862 Y45.43141
G01 X53.32319 Y45.58647
G01 X53.34178 Y45.76321
G01 X53.34998 Y45.92000
G01 X53.34178 Y46.07677
G01 X53.32319 Y46.25350
G01 X53.29862 Y46.40857
G01 X53.25801 Y46.56023
G01 X53.20307 Y46.72924
G01 X53.14681 Y46.87583
G01 X53.07554 Y47.01570
G01 X52.97345 Y47.18997
G01 X53.07554 Y47.36427
G01 X53.14681 Y47.50415
G01 X53.20307 Y47.65073
G01 X53.25801 Y47.81974
G01 X53.29862 Y47.97141
G01 X53.32319 Y48.12647
G01 X53.34178 Y48.30321
G01 X53.34998 Y48.46000
G01 X53.34178 Y48.61677
G01 X53.32319 Y48.79350
G01 X53.29862 Y48.94857
G01 X53.25801 Y49.10023
G01 X53.20307 Y49.26924
G01 X53.15110 Y49.40468
G01 X52.84302 Y49.42154
G01 X52.86065 Y49.42060
G01 X52.88930 Y49.45553
G01 X53.00485 Y49.67163
G01 X53.07597 Y49.90612
G01 X53.10000 Y50.14999
G01 X53.10000 Y51.84999
G01 X53.07597 Y52.09385
G01 X53.00485 Y52.32834
G01 X52.88930 Y52.54445
G01 X52.73388 Y52.73388
G01 X52.54445 Y52.88930
G01 X52.32834 Y53.00485
G01 X52.09385 Y53.07597
G01 X51.84999 Y53.10000
G01 X50.14999 Y53.10000
G01 X49.90612 Y53.07597
G01 X49.67163 Y53.00485
G01 X49.45553 Y52.88930
G01 X49.26609 Y52.73388
G01 X49.11065 Y52.54445
G01 X48.99513 Y52.32834
G01 X48.92401 Y52.09385
G01 X48.89998 Y51.84999
G01 X48.89998 Y50.14999
G01 X48.92401 Y49.90612
G01 X48.99513 Y49.67163
G01 X49.11065 Y49.45553
G01 X49.13932 Y49.42060
G01 X49.46294 Y49.45002
G01 X49.72746 Y49.48588
G01 X49.94532 Y49.52906
G01 X50.08623 Y49.56650
G01 X49.94532 Y49.52906
G01 X49.72746 Y49.48588
G01 X49.46294 Y49.45002
G01 X49.15692 Y49.42141
G01 X48.57575 Y49.38979
G01 X48.50422 Y49.17750
G01 X48.45680 Y49.00056
G01 X48.42815 Y48.81964
G01 X48.40958 Y48.64290
G01 X48.39998 Y48.46000
G01 X48.40958 Y48.27707
G01 X48.42815 Y48.10034
G01 X48.45680 Y47.91941
G01 X48.50422 Y47.74247
G01 X48.55914 Y47.57349
G01 X48.62477 Y47.40247
G01 X48.73638 Y47.18997
G01 X48.62477 Y46.97750
G01 X48.55914 Y46.80649
G01 X48.50422 Y46.63750
G01 X48.45680 Y46.46056
G01 X48.42815 Y46.27964
G01 X48.40958 Y46.10290
G01 X48.39998 Y45.92000
G01 X48.40958 Y45.73707
G01 X48.42815 Y45.56034
G01 X48.45680 Y45.37941
G01 X48.50422 Y45.20247
G01 X48.55914 Y45.03349
G01 X48.62477 Y44.86247
G01 X48.73638 Y44.64997
G01 X48.62477 Y44.43750
G01 X48.55914 Y44.26648
G01 X48.50422 Y44.09750
G01 X48.45680 Y43.92056
G01 X48.42815 Y43.73964
G01 X48.40958 Y43.56290
G01 X48.39998 Y43.38000
G01 X48.40958 Y43.19707
G01 X48.42815 Y43.02034
G01 X48.45680 Y42.83941
G01 X48.50422 Y42.66247
G01 X48.55914 Y42.49349
G01 X48.62477 Y42.32247
G01 X48.73638 Y42.10997
G01 X48.62477 Y41.89750
G01 X48.55914 Y41.72648
G01 X48.50422 Y41.55750
G01 X48.45680 Y41.38056
G01 X48.42815 Y41.19964
G01 X48.40958 Y41.02291
G01 X48.39998 Y40.84000
G01 X48.40958 Y40.65707
G01 X48.42815 Y40.48034
G01 X48.45680 Y40.29941
G01 X48.50422 Y40.12248
G01 X48.55914 Y39.95349
G01 X48.62477 Y39.78247
G01 X48.73638 Y39.56997
G01 X48.62477 Y39.35750
G01 X48.55914 Y39.18648
G01 X48.50422 Y39.01750
G01 X48.45680 Y38.84056
G01 X48.42815 Y38.65964
G01 X48.40958 Y38.48290
G01 X48.39998 Y38.30000
G01 X48.40958 Y38.11707
G01 X48.42815 Y37.94034
G01 X48.45680 Y37.75941
G01 X48.50422 Y37.58247
G01 X48.55914 Y37.41349
G01 X48.62477 Y37.24247
G01 X48.73638 Y37.02997
G01 X48.62477 Y36.81750
G01 X48.55914 Y36.64648
G01 X48.50422 Y36.47750
G01 X48.45680 Y36.30056
G01 X48.42815 Y36.11964
G01 X48.40958 Y35.94291
G01 X48.39998 Y35.76000
