( pcb2gcode 2.1.0 )
( Software-independent Gcode )
( This file uses a mill head of 0.50000mm to drill the 2 hole sizes. )
( Hole sizes: [1mm] [3.2mm] )

G94       (Millimeters per minute feed rate.)
G21       (Units == Millimeters.)
G90       (Absolute coordinates.)
S15000    (RPM spindle speed.)

G01 F300.00000 (Feedrate)
G00 Z25.00000 (Retract)

G0 X13.15000 Y10.36000
G1 Z0.50000 F150.00000
G1 F300.00000
G2 X13.15000 Y10.36000 Z-0.00000 I-0.25000 J0.00000
G2 X13.15000 Y10.36000 Z-0.50000 I-0.25000 J0.00000
G2 X13.15000 Y10.36000 Z-1.00000 I-0.25000 J0.00000
G2 X13.15000 Y10.36000 Z-1.50000 I-0.25000 J0.00000
G2 X13.15000 Y10.36000 Z-2.00000 I-0.25000 J0.00000
G2 X13.15000 Y10.36000 I-0.25000 J0.00000
G1 Z5.00000 F150.00000

G0 X13.15000 Y12.90000
G1 Z0.50000 F150.00000
G1 F300.00000
G2 X13.15000 Y12.90000 Z-0.00000 I-0.25000 J0.00000
G2 X13.15000 Y12.90000 Z-0.50000 I-0.25000 J0.00000
G2 X13.15000 Y12.90000 Z-1.00000 I-0.25000 J0.00000
G2 X13.15000 Y12.90000 Z-1.50000 I-0.25000 J0.00000
G2 X13.15000 Y12.90000 Z-2.00000 I-0.25000 J0.00000
G2 X13.15000 Y12.90000 I-0.25000 J0.00000
G1 Z5.00000 F150.00000

G0 X13.15000 Y20.52000
G1 Z0.50000 F150.00000
G1 F300.00000
G2 X13.15000 Y20.52000 Z-0.00000 I-0.25000 J0.00000
G2 X13.15000 Y20.52000 Z-0.50000 I-0.25000 J0.00000
G2 X13.15000 Y20.52000 Z-1.00000 I-0.25000 J0.00000
G2 X13.15000 Y20.52000 Z-1.50000 I-0.25000 J0.00000
G2 X13.15000 Y20.52000 Z-2.00000 I-0.25000 J0.00000
G2 X13.15000 Y20.52000 I-0.25000 J0.00000
G1 Z5.00000 F150.00000

G0 X13.15000 Y30.68000
G1 Z0.50000 F150.00000
G1 F300.00000
G2 X13.15000 Y30.68000 Z-0.00000 I-0.25000 J0.00000
G2 X13.15000 Y30.68000 Z-0.50000 I-0.25000 J0.00000
G2 X13.15000 Y30.68000 Z-1.00000 I-0.25000 J0.00000
G2 X13.15000 Y30.68000 Z-1.50000 I-0.25000 J0.00000
G2 X13.15000 Y30.68000 Z-2.00000 I-0.25000 J0.00000
G2 X13.15000 Y30.68000 I-0.25000 J0.00000
G1 Z5.00000 F150.00000

G0 X13.15000 Y33.22000
G1 Z0.50000 F150.00000
G1 F300.00000
G2 X13.15000 Y33.22000 Z-0.00000 I-0.25000 J0.00000
G2 X13.15000 Y33.22000 Z-0.50000 I-0.25000 J0.00000
G2 X13.15000 Y33.22000 Z-1.00000 I-0.25000 J0.00000
G2 X13.15000 Y33.22000 Z-1.50000 I-0.25000 J0.00000
G2 X13.15000 Y33.22000 Z-2.00000 I-0.25000 J0.00000
G2 X13.15000 Y33.22000 I-0.25000 J0.00000
G1 Z5.00000 F150.00000

G0 X13.15000 Y35.76000
G1 Z0.50000 F150.00000
G1 F300.00000
G2 X13.15000 Y35.76000 Z-0.00000 I-0.25000 J0.00000
G2 X13.15000 Y35.76000 Z-0.50000 I-0.25000 J0.00000
G2 X13.15000 Y35.76000 Z-1.00000 I-0.25000 J0.00000
G2 X13.15000 Y35.76000 Z-1.50000 I-0.25000 J0.00000
G2 X13.15000 Y35.76000 Z-2.00000 I-0.25000 J0.00000
G2 X13.15000 Y35.76000 I-0.25000 J0.00000
G1 Z5.00000 F150.00000

G0 X13.15000 Y38.30000
G1 Z0.50000 F150.00000
G1 F300.00000
G2 X13.15000 Y38.30000 Z-0.00000 I-0.25000 J0.00000
G2 X13.15000 Y38.30000 Z-0.50000 I-0.25000 J0.00000
G2 X13.15000 Y38.30000 Z-1.00000 I-0.25000 J0.00000
G2 X13.15000 Y38.30000 Z-1.50000 I-0.25000 J0.00000
G2 X13.15000 Y38.30000 Z-2.00000 I-0.25000 J0.00000
G2 X13.15000 Y38.30000 I-0.25000 J0.00000
G1 Z5.00000 F150.00000

G0 X13.15000 Y40.84000
G1 Z0.50000 F150.00000
G1 F300.00000
G2 X13.15000 Y40.84000 Z-0.00000 I-0.25000 J0.00000
G2 X13.15000 Y40.84000 Z-0.50000 I-0.25000 J0.00000
G2 X13.15000 Y40.84000 Z-1.00000 I-0.25000 J0.00000
G2 X13.15000 Y40.84000 Z-1.50000 I-0.25000 J0.00000
G2 X13.15000 Y40.84000 Z-2.00000 I-0.25000 J0.00000
G2 X13.15000 Y40.84000 I-0.25000 J0.00000
G1 Z5.00000 F150.00000

G0 X13.15000 Y43.38000
G1 Z0.50000 F150.00000
G1 F300.00000
G2 X13.15000 Y43.38000 Z-0.00000 I-0.25000 J0.00000
G2 X13.15000 Y43.38000 Z-0.50000 I-0.25000 J0.00000
G2 X13.15000 Y43.38000 Z-1.00000 I-0.25000 J0.00000
G2 X13.15000 Y43.38000 Z-1.50000 I-0.25000 J0.00000
G2 X13.15000 Y43.38000 Z-2.00000 I-0.25000 J0.00000
G2 X13.15000 Y43.38000 I-0.25000 J0.00000
G1 Z5.00000 F150.00000

G0 X13.15000 Y45.92000
G1 Z0.50000 F150.00000
G1 F300.00000
G2 X13.15000 Y45.92000 Z-0.00000 I-0.25000 J0.00000
G2 X13.15000 Y45.92000 Z-0.50000 I-0.25000 J0.00000
G2 X13.15000 Y45.92000 Z-1.00000 I-0.25000 J0.00000
G2 X13.15000 Y45.92000 Z-1.50000 I-0.25000 J0.00000
G2 X13.15000 Y45.92000 Z-2.00000 I-0.25000 J0.00000
G2 X13.15000 Y45.92000 I-0.25000 J0.00000
G1 Z5.00000 F150.00000

G0 X25.65000 Y51.00000
G1 Z0.50000 F150.00000
G1 F300.00000
G2 X25.65000 Y51.00000 Z-0.00000 I-0.25000 J0.00000
G2 X25.65000 Y51.00000 Z-0.50000 I-0.25000 J0.00000
G2 X25.65000 Y51.00000 Z-1.00000 I-0.25000 J0.00000
G2 X25.65000 Y51.00000 Z-1.50000 I-0.25000 J0.00000
G2 X25.65000 Y51.00000 Z-2.00000 I-0.25000 J0.00000
G2 X25.65000 Y51.00000 I-0.25000 J0.00000
G1 Z5.00000 F150.00000

G0 X25.65000 Y48.46000
G1 Z0.50000 F150.00000
G1 F300.00000
G2 X25.65000 Y48.46000 Z-0.00000 I-0.25000 J0.00000
G2 X25.65000 Y48.46000 Z-0.50000 I-0.25000 J0.00000
G2 X25.65000 Y48.46000 Z-1.00000 I-0.25000 J0.00000
G2 X25.65000 Y48.46000 Z-1.50000 I-0.25000 J0.00000
G2 X25.65000 Y48.46000 Z-2.00000 I-0.25000 J0.00000
G2 X25.65000 Y48.46000 I-0.25000 J0.00000
G1 Z5.00000 F150.00000

G0 X25.65000 Y45.92000
G1 Z0.50000 F150.00000
G1 F300.00000
G2 X25.65000 Y45.92000 Z-0.00000 I-0.25000 J0.00000
G2 X25.65000 Y45.92000 Z-0.50000 I-0.25000 J0.00000
G2 X25.65000 Y45.92000 Z-1.00000 I-0.25000 J0.00000
G2 X25.65000 Y45.92000 Z-1.50000 I-0.25000 J0.00000
G2 X25.65000 Y45.92000 Z-2.00000 I-0.25000 J0.00000
G2 X25.65000 Y45.92000 I-0.25000 J0.00000
G1 Z5.00000 F150.00000

G0 X25.65000 Y43.38000
G1 Z0.50000 F150.00000
G1 F300.00000
G2 X25.65000 Y43.38000 Z-0.00000 I-0.25000 J0.00000
G2 X25.65000 Y43.38000 Z-0.50000 I-0.25000 J0.00000
G2 X25.65000 Y43.38000 Z-1.00000 I-0.25000 J0.00000
G2 X25.65000 Y43.38000 Z-1.50000 I-0.25000 J0.00000
G2 X25.65000 Y43.38000 Z-2.00000 I-0.25000 J0.00000
G2 X25.65000 Y43.38000 I-0.25000 J0.00000
G1 Z5.00000 F150.00000

G0 X25.65000 Y40.84000
G1 Z0.50000 F150.00000
G1 F300.00000
G2 X25.65000 Y40.84000 Z-0.00000 I-0.25000 J0.00000
G2 X25.65000 Y40.84000 Z-0.50000 I-0.25000 J0.00000
G2 X25.65000 Y40.84000 Z-1.00000 I-0.25000 J0.00000
G2 X25.65000 Y40.84000 Z-1.50000 I-0.25000 J0.00000
G2 X25.65000 Y40.84000 Z-2.00000 I-0.25000 J0.00000
G2 X25.65000 Y40.84000 I-0.25000 J0.00000
G1 Z5.00000 F150.00000

G0 X25.65000 Y38.30000
G1 Z0.50000 F150.00000
G1 F300.00000
G2 X25.65000 Y38.30000 Z-0.00000 I-0.25000 J0.00000
G2 X25.65000 Y38.30000 Z-0.50000 I-0.25000 J0.00000
G2 X25.65000 Y38.30000 Z-1.00000 I-0.25000 J0.00000
G2 X25.65000 Y38.30000 Z-1.50000 I-0.25000 J0.00000
G2 X25.65000 Y38.30000 Z-2.00000 I-0.25000 J0.00000
G2 X25.65000 Y38.30000 I-0.25000 J0.00000
G1 Z5.00000 F150.00000

G0 X25.65000 Y35.76000
G1 Z0.50000 F150.00000
G1 F300.00000
G2 X25.65000 Y35.76000 Z-0.00000 I-0.25000 J0.00000
G2 X25.65000 Y35.76000 Z-0.50000 I-0.25000 J0.00000
G2 X25.65000 Y35.76000 Z-1.00000 I-0.25000 J0.00000
G2 X25.65000 Y35.76000 Z-1.50000 I-0.25000 J0.00000
G2 X25.65000 Y35.76000 Z-2.00000 I-0.25000 J0.00000
G2 X25.65000 Y35.76000 I-0.25000 J0.00000
G1 Z5.00000 F150.00000

G0 X25.65000 Y33.22000
G1 Z0.50000 F150.00000
G1 F300.00000
G2 X25.65000 Y33.22000 Z-0.00000 I-0.25000 J0.00000
G2 X25.65000 Y33.22000 Z-0.50000 I-0.25000 J0.00000
G2 X25.65000 Y33.22000 Z-1.00000 I-0.25000 J0.00000
G2 X25.65000 Y33.22000 Z-1.50000 I-0.25000 J0.00000
G2 X25.65000 Y33.22000 Z-2.00000 I-0.25000 J0.00000
G2 X25.65000 Y33.22000 I-0.25000 J0.00000
G1 Z5.00000 F150.00000

G0 X25.65000 Y30.68000
G1 Z0.50000 F150.00000
G1 F300.00000
G2 X25.65000 Y30.68000 Z-0.00000 I-0.25000 J0.00000
G2 X25.65000 Y30.68000 Z-0.50000 I-0.25000 J0.00000
G2 X25.65000 Y30.68000 Z-1.00000 I-0.25000 J0.00000
G2 X25.65000 Y30.68000 Z-1.50000 I-0.25000 J0.00000
G2 X25.65000 Y30.68000 Z-2.00000 I-0.25000 J0.00000
G2 X25.65000 Y30.68000 I-0.25000 J0.00000
G1 Z5.00000 F150.00000

G0 X25.65000 Y28.14000
G1 Z0.50000 F150.00000
G1 F300.00000
G2 X25.65000 Y28.14000 Z-0.00000 I-0.25000 J0.00000
G2 X25.65000 Y28.14000 Z-0.50000 I-0.25000 J0.00000
G2 X25.65000 Y28.14000 Z-1.00000 I-0.25000 J0.00000
G2 X25.65000 Y28.14000 Z-1.50000 I-0.25000 J0.00000
G2 X25.65000 Y28.14000 Z-2.00000 I-0.25000 J0.00000
G2 X25.65000 Y28.14000 I-0.25000 J0.00000
G1 Z5.00000 F150.00000

G0 X25.65000 Y25.60000
G1 Z0.50000 F150.00000
G1 F300.00000
G2 X25.65000 Y25.60000 Z-0.00000 I-0.25000 J0.00000
G2 X25.65000 Y25.60000 Z-0.50000 I-0.25000 J0.00000
G2 X25.65000 Y25.60000 Z-1.00000 I-0.25000 J0.00000
G2 X25.65000 Y25.60000 Z-1.50000 I-0.25000 J0.00000
G2 X25.65000 Y25.60000 Z-2.00000 I-0.25000 J0.00000
G2 X25.65000 Y25.60000 I-0.25000 J0.00000
G1 Z5.00000 F150.00000

G0 X25.65000 Y23.06000
G1 Z0.50000 F150.00000
G1 F300.00000
G2 X25.65000 Y23.06000 Z-0.00000 I-0.25000 J0.00000
G2 X25.65000 Y23.06000 Z-0.50000 I-0.25000 J0.00000
G2 X25.65000 Y23.06000 Z-1.00000 I-0.25000 J0.00000
G2 X25.65000 Y23.06000 Z-1.50000 I-0.25000 J0.00000
G2 X25.65000 Y23.06000 Z-2.00000 I-0.25000 J0.00000
G2 X25.65000 Y23.06000 I-0.25000 J0.00000
G1 Z5.00000 F150.00000

G0 X25.65000 Y20.52000
G1 Z0.50000 F150.00000
G1 F300.00000
G2 X25.65000 Y20.52000 Z-0.00000 I-0.25000 J0.00000
G2 X25.65000 Y20.52000 Z-0.50000 I-0.25000 J0.00000
G2 X25.65000 Y20.52000 Z-1.00000 I-0.25000 J0.00000
G2 X25.65000 Y20.52000 Z-1.50000 I-0.25000 J0.00000
G2 X25.65000 Y20.52000 Z-2.00000 I-0.25000 J0.00000
G2 X25.65000 Y20.52000 I-0.25000 J0.00000
G1 Z5.00000 F150.00000

G0 X25.65000 Y17.98000
G1 Z0.50000 F150.00000
G1 F300.00000
G2 X25.65000 Y17.98000 Z-0.00000 I-0.25000 J0.00000
G2 X25.65000 Y17.98000 Z-0.50000 I-0.25000 J0.00000
G2 X25.65000 Y17.98000 Z-1.00000 I-0.25000 J0.00000
G2 X25.65000 Y17.98000 Z-1.50000 I-0.25000 J0.00000
G2 X25.65000 Y17.98000 Z-2.00000 I-0.25000 J0.00000
G2 X25.65000 Y17.98000 I-0.25000 J0.00000
G1 Z5.00000 F150.00000

G0 X25.65000 Y15.44000
G1 Z0.50000 F150.00000
G1 F300.00000
G2 X25.65000 Y15.44000 Z-0.00000 I-0.25000 J0.00000
G2 X25.65000 Y15.44000 Z-0.50000 I-0.25000 J0.00000
G2 X25.65000 Y15.44000 Z-1.00000 I-0.25000 J0.00000
G2 X25.65000 Y15.44000 Z-1.50000 I-0.25000 J0.00000
G2 X25.65000 Y15.44000 Z-2.00000 I-0.25000 J0.00000
G2 X25.65000 Y15.44000 I-0.25000 J0.00000
G1 Z5.00000 F150.00000

G0 X25.65000 Y12.90000
G1 Z0.50000 F150.00000
G1 F300.00000
G2 X25.65000 Y12.90000 Z-0.00000 I-0.25000 J0.00000
G2 X25.65000 Y12.90000 Z-0.50000 I-0.25000 J0.00000
G2 X25.65000 Y12.90000 Z-1.00000 I-0.25000 J0.00000
G2 X25.65000 Y12.90000 Z-1.50000 I-0.25000 J0.00000
G2 X25.65000 Y12.90000 Z-2.00000 I-0.25000 J0.00000
G2 X25.65000 Y12.90000 I-0.25000 J0.00000
G1 Z5.00000 F150.00000

G0 X25.65000 Y10.36000
G1 Z0.50000 F150.00000
G1 F300.00000
G2 X25.65000 Y10.36000 Z-0.00000 I-0.25000 J0.00000
G2 X25.65000 Y10.36000 Z-0.50000 I-0.25000 J0.00000
G2 X25.65000 Y10.36000 Z-1.00000 I-0.25000 J0.00000
G2 X25.65000 Y10.36000 Z-1.50000 I-0.25000 J0.00000
G2 X25.65000 Y10.36000 Z-2.00000 I-0.25000 J0.00000
G2 X25.65000 Y10.36000 I-0.25000 J0.00000
G1 Z5.00000 F150.00000

G0 X25.65000 Y7.82000
G1 Z0.50000 F150.00000
G1 F300.00000
G2 X25.65000 Y7.82000 Z-0.00000 I-0.25000 J0.00000
G2 X25.65000 Y7.82000 Z-0.50000 I-0.25000 J0.00000
G2 X25.65000 Y7.82000 Z-1.00000 I-0.25000 J0.00000
G2 X25.65000 Y7.82000 Z-1.50000 I-0.25000 J0.00000
G2 X25.65000 Y7.82000 Z-2.00000 I-0.25000 J0.00000
G2 X25.65000 Y7.82000 I-0.25000 J0.00000
G1 Z5.00000 F150.00000

G0 X25.65000 Y5.28000
G1 Z0.50000 F150.00000
G1 F300.00000
G2 X25.65000 Y5.28000 Z-0.00000 I-0.25000 J0.00000
G2 X25.65000 Y5.28000 Z-0.50000 I-0.25000 J0.00000
G2 X25.65000 Y5.28000 Z-1.00000 I-0.25000 J0.00000
G2 X25.65000 Y5.28000 Z-1.50000 I-0.25000 J0.00000
G2 X25.65000 Y5.28000 Z-2.00000 I-0.25000 J0.00000
G2 X25.65000 Y5.28000 I-0.25000 J0.00000
G1 Z5.00000 F150.00000

G0 X25.65000 Y2.74000
G1 Z0.50000 F150.00000
G1 F300.00000
G2 X25.65000 Y2.74000 Z-0.00000 I-0.25000 J0.00000
G2 X25.65000 Y2.74000 Z-0.50000 I-0.25000 J0.00000
G2 X25.65000 Y2.74000 Z-1.00000 I-0.25000 J0.00000
G2 X25.65000 Y2.74000 Z-1.50000 I-0.25000 J0.00000
G2 X25.65000 Y2.74000 Z-2.00000 I-0.25000 J0.00000
G2 X25.65000 Y2.74000 I-0.25000 J0.00000
G1 Z5.00000 F150.00000

G0 X48.31000 Y2.54000
G1 Z0.50000 F150.00000
G1 F300.00000
G2 X48.31000 Y2.54000 Z-0.00000 I-0.25000 J0.00000
G2 X48.31000 Y2.54000 Z-0.50000 I-0.25000 J0.00000
G2 X48.31000 Y2.54000 Z-1.00000 I-0.25000 J0.00000
G2 X48.31000 Y2.54000 Z-1.50000 I-0.25000 J0.00000
G2 X48.31000 Y2.54000 Z-2.00000 I-0.25000 J0.00000
G2 X48.31000 Y2.54000 I-0.25000 J0.00000
G1 Z5.00000 F150.00000

G0 X48.31000 Y5.08000
G1 Z0.50000 F150.00000
G1 F300.00000
G2 X48.31000 Y5.08000 Z-0.00000 I-0.25000 J0.00000
G2 X48.31000 Y5.08000 Z-0.50000 I-0.25000 J0.00000
G2 X48.31000 Y5.08000 Z-1.00000 I-0.25000 J0.00000
G2 X48.31000 Y5.08000 Z-1.50000 I-0.25000 J0.00000
G2 X48.31000 Y5.08000 Z-2.00000 I-0.25000 J0.00000
G2 X48.31000 Y5.08000 I-0.25000 J0.00000
G1 Z5.00000 F150.00000

G0 X48.31000 Y7.62000
G1 Z0.50000 F150.00000
G1 F300.00000
G2 X48.31000 Y7.62000 Z-0.00000 I-0.25000 J0.00000
G2 X48.31000 Y7.62000 Z-0.50000 I-0.25000 J0.00000
G2 X48.31000 Y7.62000 Z-1.00000 I-0.25000 J0.00000
G2 X48.31000 Y7.62000 Z-1.50000 I-0.25000 J0.00000
G2 X48.31000 Y7.62000 Z-2.00000 I-0.25000 J0.00000
G2 X48.31000 Y7.62000 I-0.25000 J0.00000
G1 Z5.00000 F150.00000

G0 X48.31000 Y10.16000
G1 Z0.50000 F150.00000
G1 F300.00000
G2 X48.31000 Y10.16000 Z-0.00000 I-0.25000 J0.00000
G2 X48.31000 Y10.16000 Z-0.50000 I-0.25000 J0.00000
G2 X48.31000 Y10.16000 Z-1.00000 I-0.25000 J0.00000
G2 X48.31000 Y10.16000 Z-1.50000 I-0.25000 J0.00000
G2 X48.31000 Y10.16000 Z-2.00000 I-0.25000 J0.00000
G2 X48.31000 Y10.16000 I-0.25000 J0.00000
G1 Z5.00000 F150.00000

G0 X48.31000 Y12.70000
G1 Z0.50000 F150.00000
G1 F300.00000
G2 X48.31000 Y12.70000 Z-0.00000 I-0.25000 J0.00000
G2 X48.31000 Y12.70000 Z-0.50000 I-0.25000 J0.00000
G2 X48.31000 Y12.70000 Z-1.00000 I-0.25000 J0.00000
G2 X48.31000 Y12.70000 Z-1.50000 I-0.25000 J0.00000
G2 X48.31000 Y12.70000 Z-2.00000 I-0.25000 J0.00000
G2 X48.31000 Y12.70000 I-0.25000 J0.00000
G1 Z5.00000 F150.00000

G0 X48.31000 Y15.24000
G1 Z0.50000 F150.00000
G1 F300.00000
G2 X48.31000 Y15.24000 Z-0.00000 I-0.25000 J0.00000
G2 X48.31000 Y15.24000 Z-0.50000 I-0.25000 J0.00000
G2 X48.31000 Y15.24000 Z-1.00000 I-0.25000 J0.00000
G2 X48.31000 Y15.24000 Z-1.50000 I-0.25000 J0.00000
G2 X48.31000 Y15.24000 Z-2.00000 I-0.25000 J0.00000
G2 X48.31000 Y15.24000 I-0.25000 J0.00000
G1 Z5.00000 F150.00000

G0 X48.31000 Y17.78000
G1 Z0.50000 F150.00000
G1 F300.00000
G2 X48.31000 Y17.78000 Z-0.00000 I-0.25000 J0.00000
G2 X48.31000 Y17.78000 Z-0.50000 I-0.25000 J0.00000
G2 X48.31000 Y17.78000 Z-1.00000 I-0.25000 J0.00000
G2 X48.31000 Y17.78000 Z-1.50000 I-0.25000 J0.00000
G2 X48.31000 Y17.78000 Z-2.00000 I-0.25000 J0.00000
G2 X48.31000 Y17.78000 I-0.25000 J0.00000
G1 Z5.00000 F150.00000

G0 X48.31000 Y20.32000
G1 Z0.50000 F150.00000
G1 F300.00000
G2 X48.31000 Y20.32000 Z-0.00000 I-0.25000 J0.00000
G2 X48.31000 Y20.32000 Z-0.50000 I-0.25000 J0.00000
G2 X48.31000 Y20.32000 Z-1.00000 I-0.25000 J0.00000
G2 X48.31000 Y20.32000 Z-1.50000 I-0.25000 J0.00000
G2 X48.31000 Y20.32000 Z-2.00000 I-0.25000 J0.00000
G2 X48.31000 Y20.32000 I-0.25000 J0.00000
G1 Z5.00000 F150.00000

G0 X48.31000 Y22.86000
G1 Z0.50000 F150.00000
G1 F300.00000
G2 X48.31000 Y22.86000 Z-0.00000 I-0.25000 J0.00000
G2 X48.31000 Y22.86000 Z-0.50000 I-0.25000 J0.00000
G2 X48.31000 Y22.86000 Z-1.00000 I-0.25000 J0.00000
G2 X48.31000 Y22.86000 Z-1.50000 I-0.25000 J0.00000
G2 X48.31000 Y22.86000 Z-2.00000 I-0.25000 J0.00000
G2 X48.31000 Y22.86000 I-0.25000 J0.00000
G1 Z5.00000 F150.00000

G0 X48.31000 Y25.40000
G1 Z0.50000 F150.00000
G1 F300.00000
G2 X48.31000 Y25.40000 Z-0.00000 I-0.25000 J0.00000
G2 X48.31000 Y25.40000 Z-0.50000 I-0.25000 J0.00000
G2 X48.31000 Y25.40000 Z-1.00000 I-0.25000 J0.00000
G2 X48.31000 Y25.40000 Z-1.50000 I-0.25000 J0.00000
G2 X48.31000 Y25.40000 Z-2.00000 I-0.25000 J0.00000
G2 X48.31000 Y25.40000 I-0.25000 J0.00000
G1 Z5.00000 F150.00000

G0 X48.31000 Y27.94000
G1 Z0.50000 F150.00000
G1 F300.00000
G2 X48.31000 Y27.94000 Z-0.00000 I-0.25000 J0.00000
G2 X48.31000 Y27.94000 Z-0.50000 I-0.25000 J0.00000
G2 X48.31000 Y27.94000 Z-1.00000 I-0.25000 J0.00000
G2 X48.31000 Y27.94000 Z-1.50000 I-0.25000 J0.00000
G2 X48.31000 Y27.94000 Z-2.00000 I-0.25000 J0.00000
G2 X48.31000 Y27.94000 I-0.25000 J0.00000
G1 Z5.00000 F150.00000

G0 X48.31000 Y30.48000
G1 Z0.50000 F150.00000
G1 F300.00000
G2 X48.31000 Y30.48000 Z-0.00000 I-0.25000 J0.00000
G2 X48.31000 Y30.48000 Z-0.50000 I-0.25000 J0.00000
G2 X48.31000 Y30.48000 Z-1.00000 I-0.25000 J0.00000
G2 X48.31000 Y30.48000 Z-1.50000 I-0.25000 J0.00000
G2 X48.31000 Y30.48000 Z-2.00000 I-0.25000 J0.00000
G2 X48.31000 Y30.48000 I-0.25000 J0.00000
G1 Z5.00000 F150.00000

G0 X48.31000 Y33.02000
G1 Z0.50000 F150.00000
G1 F300.00000
G2 X48.31000 Y33.02000 Z-0.00000 I-0.25000 J0.00000
G2 X48.31000 Y33.02000 Z-0.50000 I-0.25000 J0.00000
G2 X48.31000 Y33.02000 Z-1.00000 I-0.25000 J0.00000
G2 X48.31000 Y33.02000 Z-1.50000 I-0.25000 J0.00000
G2 X48.31000 Y33.02000 Z-2.00000 I-0.25000 J0.00000
G2 X48.31000 Y33.02000 I-0.25000 J0.00000
G1 Z5.00000 F150.00000

G0 X48.31000 Y35.56000
G1 Z0.50000 F150.00000
G1 F300.00000
G2 X48.31000 Y35.56000 Z-0.00000 I-0.25000 J0.00000
G2 X48.31000 Y35.56000 Z-0.50000 I-0.25000 J0.00000
G2 X48.31000 Y35.56000 Z-1.00000 I-0.25000 J0.00000
G2 X48.31000 Y35.56000 Z-1.50000 I-0.25000 J0.00000
G2 X48.31000 Y35.56000 Z-2.00000 I-0.25000 J0.00000
G2 X48.31000 Y35.56000 I-0.25000 J0.00000
G1 Z5.00000 F150.00000

G0 X48.31000 Y38.10000
G1 Z0.50000 F150.00000
G1 F300.00000
G2 X48.31000 Y38.10000 Z-0.00000 I-0.25000 J0.00000
G2 X48.31000 Y38.10000 Z-0.50000 I-0.25000 J0.00000
G2 X48.31000 Y38.10000 Z-1.00000 I-0.25000 J0.00000
G2 X48.31000 Y38.10000 Z-1.50000 I-0.25000 J0.00000
G2 X48.31000 Y38.10000 Z-2.00000 I-0.25000 J0.00000
G2 X48.31000 Y38.10000 I-0.25000 J0.00000
G1 Z5.00000 F150.00000

G0 X48.31000 Y40.64000
G1 Z0.50000 F150.00000
G1 F300.00000
G2 X48.31000 Y40.64000 Z-0.00000 I-0.25000 J0.00000
G2 X48.31000 Y40.64000 Z-0.50000 I-0.25000 J0.00000
G2 X48.31000 Y40.64000 Z-1.00000 I-0.25000 J0.00000
G2 X48.31000 Y40.64000 Z-1.50000 I-0.25000 J0.00000
G2 X48.31000 Y40.64000 Z-2.00000 I-0.25000 J0.00000
G2 X48.31000 Y40.64000 I-0.25000 J0.00000
G1 Z5.00000 F150.00000

G0 X48.31000 Y43.18000
G1 Z0.50000 F150.00000
G1 F300.00000
G2 X48.31000 Y43.18000 Z-0.00000 I-0.25000 J0.00000
G2 X48.31000 Y43.18000 Z-0.50000 I-0.25000 J0.00000
G2 X48.31000 Y43.18000 Z-1.00000 I-0.25000 J0.00000
G2 X48.31000 Y43.18000 Z-1.50000 I-0.25000 J0.00000
G2 X48.31000 Y43.18000 Z-2.00000 I-0.25000 J0.00000
G2 X48.31000 Y43.18000 I-0.25000 J0.00000
G1 Z5.00000 F150.00000

G0 X48.31000 Y45.72000
G1 Z0.50000 F150.00000
G1 F300.00000
G2 X48.31000 Y45.72000 Z-0.00000 I-0.25000 J0.00000
G2 X48.31000 Y45.72000 Z-0.50000 I-0.25000 J0.00000
G2 X48.31000 Y45.72000 Z-1.00000 I-0.25000 J0.00000
G2 X48.31000 Y45.72000 Z-1.50000 I-0.25000 J0.00000
G2 X48.31000 Y45.72000 Z-2.00000 I-0.25000 J0.00000
G2 X48.31000 Y45.72000 I-0.25000 J0.00000
G1 Z5.00000 F150.00000

G0 X48.31000 Y48.26000
G1 Z0.50000 F150.00000
G1 F300.00000
G2 X48.31000 Y48.26000 Z-0.00000 I-0.25000 J0.00000
G2 X48.31000 Y48.26000 Z-0.50000 I-0.25000 J0.00000
G2 X48.31000 Y48.26000 Z-1.00000 I-0.25000 J0.00000
G2 X48.31000 Y48.26000 Z-1.50000 I-0.25000 J0.00000
G2 X48.31000 Y48.26000 Z-2.00000 I-0.25000 J0.00000
G2 X48.31000 Y48.26000 I-0.25000 J0.00000
G1 Z5.00000 F150.00000

G0 X48.31000 Y50.80000
G1 Z0.50000 F150.00000
G1 F300.00000
G2 X48.31000 Y50.80000 Z-0.00000 I-0.25000 J0.00000
G2 X48.31000 Y50.80000 Z-0.50000 I-0.25000 J0.00000
G2 X48.31000 Y50.80000 Z-1.00000 I-0.25000 J0.00000
G2 X48.31000 Y50.80000 Z-1.50000 I-0.25000 J0.00000
G2 X48.31000 Y50.80000 Z-2.00000 I-0.25000 J0.00000
G2 X48.31000 Y50.80000 I-0.25000 J0.00000
G1 Z5.00000 F150.00000

G0 X6.43000 Y6.35000
G1 Z0.50000 F150.00000
G1 F300.00000
G2 X6.43000 Y6.35000 Z-0.00000 I-1.35000 J0.00000
G2 X6.43000 Y6.35000 Z-0.50000 I-1.35000 J0.00000
G2 X6.43000 Y6.35000 Z-1.00000 I-1.35000 J0.00000
G2 X6.43000 Y6.35000 Z-1.50000 I-1.35000 J0.00000
G2 X6.43000 Y6.35000 Z-2.00000 I-1.35000 J0.00000
G2 X6.43000 Y6.35000 I-1.35000 J0.00000
G1 Z5.00000 F150.00000

G0 X57.23000 Y6.35000
G1 Z0.50000 F150.00000
G1 F300.00000
G2 X57.23000 Y6.35000 Z-0.00000 I-1.35000 J0.00000
G2 X57.23000 Y6.35000 Z-0.50000 I-1.35000 J0.00000
G2 X57.23000 Y6.35000 Z-1.00000 I-1.35000 J0.00000
G2 X57.23000 Y6.35000 Z-1.50000 I-1.35000 J0.00000
G2 X57.23000 Y6.35000 Z-2.00000 I-1.35000 J0.00000
G2 X57.23000 Y6.35000 I-1.35000 J0.00000
G1 Z5.00000 F150.00000

G0 X6.43000 Y63.50000
G1 Z0.50000 F150.00000
G1 F300.00000
G2 X6.43000 Y63.50000 Z-0.00000 I-1.35000 J0.00000
G2 X6.43000 Y63.50000 Z-0.50000 I-1.35000 J0.00000
G2 X6.43000 Y63.50000 Z-1.00000 I-1.35000 J0.00000
G2 X6.43000 Y63.50000 Z-1.50000 I-1.35000 J0.00000
G2 X6.43000 Y63.50000 Z-2.00000 I-1.35000 J0.00000
G2 X6.43000 Y63.50000 I-1.35000 J0.00000
G1 Z5.00000 F150.00000

G0 X57.23000 Y63.50000
G1 Z0.50000 F150.00000
G1 F300.00000
G2 X57.23000 Y63.50000 Z-0.00000 I-1.35000 J0.00000
G2 X57.23000 Y63.50000 Z-0.50000 I-1.35000 J0.00000
G2 X57.23000 Y63.50000 Z-1.00000 I-1.35000 J0.00000
G2 X57.23000 Y63.50000 Z-1.50000 I-1.35000 J0.00000
G2 X57.23000 Y63.50000 Z-2.00000 I-1.35000 J0.00000
G2 X57.23000 Y63.50000 I-1.35000 J0.00000
G1 Z5.00000 F150.00000

G00 Z25.000000 ( All done -- retract )

M2      (Program end.)

