( pcb2gcode 2.1.0 )
( Software-independent Gcode )

G94 ( Millimeters per minute feed rate. )
G21 ( Units == Millimeters. )

G90 ( Absolute coordinates. )
G00 S15000 ( RPM spindle speed. )
G01 F300.00000 ( Feedrate. )


G00 Z5.00000 ( retract )

G00 X61.40999 Y2.74000 ( rapid move to begin. )
G01 Z-0.50000 F150.00000 ( plunge. )
G04 P0 ( dwell for no time -- G64 should not smooth over this point )
G01 F300.00000
G01 X61.40999 Y33.74000
G00 Z5.00000
G01 X61.40999 Y35.24000
G01 Z-0.50000 F150.00000
G01 F300.00000
G01 X61.40999 Y66.24000
G01 X61.35997 Y66.76001
G01 X61.35040 Y66.80810
G01 X61.20585 Y67.28457
G01 X61.18710 Y67.32984
G01 X60.93976 Y67.79003
G01 X60.60928 Y68.19463
G01 X60.57463 Y68.22928
G01 X60.17003 Y68.55976
G01 X59.70984 Y68.80710
G01 X59.66457 Y68.82585
G01 X59.18810 Y68.97040
G01 X59.14001 Y68.97997
G01 X58.62000 Y69.02999
G01 X31.43000 Y69.02999
G00 Z5.00000
G01 X29.93000 Y69.02999
G01 Z-0.50000 F150.00000
G01 F300.00000
G01 X2.74000 Y69.02999
G01 X2.19565 Y68.97637
G01 X1.69537 Y68.82585
G01 X1.65009 Y68.80710
G01 X1.18991 Y68.55976
G01 X0.78532 Y68.22928
G01 X0.75067 Y68.19463
G01 X0.42019 Y67.79003
G01 X0.17285 Y67.32984
G01 X0.15410 Y67.28457
G01 X0.00358 Y66.78430
G01 X-0.04999 Y66.24000
G01 X-0.04999 Y35.24000
G00 Z5.00000
G01 X-0.04999 Y33.74000
G01 Z-0.50000 F150.00000
G01 F300.00000
G01 X-0.04999 Y2.74000
G01 X0.00358 Y2.19565
G01 X0.15410 Y1.69537
G01 X0.17285 Y1.65009
G01 X0.42019 Y1.18991
G01 X0.75067 Y0.78532
G01 X0.78532 Y0.75067
G01 X1.18991 Y0.42019
G01 X1.65009 Y0.17285
G01 X1.69537 Y0.15410
G01 X2.19565 Y0.00358
G01 X2.74000 Y-0.04999
G01 X29.93000 Y-0.04999
G00 Z5.00000
G01 X31.43000 Y-0.04999
G01 Z-0.50000 F150.00000
G01 F300.00000
G01 X58.62000 Y-0.04999
G01 X59.16430 Y0.00358
G01 X59.66457 Y0.15410
G01 X59.70984 Y0.17285
G01 X60.17003 Y0.42019
G01 X60.57463 Y0.75067
G01 X60.60928 Y0.78532
G01 X60.93976 Y1.18991
G01 X61.18710 Y1.65009
G01 X61.20585 Y1.69537
G01 X61.35637 Y2.19565
G01 X61.40999 Y2.74000
G01 Z-1.00000 F150.00000 ( plunge. )
G04 P0 ( dwell for no time -- G64 should not smooth over this point )
G01 F300.00000
G01 X61.40999 Y33.74000
G00 Z5.00000
G01 X61.40999 Y35.24000
G01 Z-1.00000 F150.00000
G01 F300.00000
G01 X61.40999 Y66.24000
G01 X61.35997 Y66.76001
G01 X61.35040 Y66.80810
G01 X61.20585 Y67.28457
G01 X61.18710 Y67.32984
G01 X60.93976 Y67.79003
G01 X60.60928 Y68.19463
G01 X60.57463 Y68.22928
G01 X60.17003 Y68.55976
G01 X59.70984 Y68.80710
G01 X59.66457 Y68.82585
G01 X59.18810 Y68.97040
G01 X59.14001 Y68.97997
G01 X58.62000 Y69.02999
G01 X31.43000 Y69.02999
G00 Z5.00000
G01 X29.93000 Y69.02999
G01 Z-1.00000 F150.00000
G01 F300.00000
G01 X2.74000 Y69.02999
G01 X2.19565 Y68.97637
G01 X1.69537 Y68.82585
G01 X1.65009 Y68.80710
G01 X1.18991 Y68.55976
G01 X0.78532 Y68.22928
G01 X0.75067 Y68.19463
G01 X0.42019 Y67.79003
G01 X0.17285 Y67.32984
G01 X0.15410 Y67.28457
G01 X0.00358 Y66.78430
G01 X-0.04999 Y66.24000
G01 X-0.04999 Y35.24000
G00 Z5.00000
G01 X-0.04999 Y33.74000
G01 Z-1.00000 F150.00000
G01 F300.00000
G01 X-0.04999 Y2.74000
G01 X0.00358 Y2.19565
G01 X0.15410 Y1.69537
G01 X0.17285 Y1.65009
G01 X0.42019 Y1.18991
G01 X0.75067 Y0.78532
G01 X0.78532 Y0.75067
G01 X1.18991 Y0.42019
G01 X1.65009 Y0.17285
G01 X1.69537 Y0.15410
G01 X2.19565 Y0.00358
G01 X2.74000 Y-0.04999
G01 X29.93000 Y-0.04999
G00 Z5.00000
G01 X31.43000 Y-0.04999
G01 Z-1.00000 F150.00000
G01 F300.00000
G01 X58.62000 Y-0.04999
G01 X59.16430 Y0.00358
G01 X59.66457 Y0.15410
G01 X59.70984 Y0.17285
G01 X60.17003 Y0.42019
G01 X60.57463 Y0.75067
G01 X60.60928 Y0.78532
G01 X60.93976 Y1.18991
G01 X61.18710 Y1.65009
G01 X61.20585 Y1.69537
G01 X61.35637 Y2.19565
G01 X61.40999 Y2.74000
G01 Z-1.50000 F150.00000 ( plunge. )
G04 P0 ( dwell for no time -- G64 should not smooth over this point )
G01 F300.00000
G01 X61.40999 Y33.74000
G00 Z5.00000
G01 X61.40999 Y35.24000
G01 Z-1.50000 F150.00000
G01 F300.00000
G01 X61.40999 Y66.24000
G01 X61.35997 Y66.76001
G01 X61.35040 Y66.80810
G01 X61.20585 Y67.28457
G01 X61.18710 Y67.32984
G01 X60.93976 Y67.79003
G01 X60.60928 Y68.19463
G01 X60.57463 Y68.22928
G01 X60.17003 Y68.55976
G01 X59.70984 Y68.80710
G01 X59.66457 Y68.82585
G01 X59.18810 Y68.97040
G01 X59.14001 Y68.97997
G01 X58.62000 Y69.02999
G01 X31.43000 Y69.02999
G00 Z5.00000
G01 X29.93000 Y69.02999
G01 Z-1.50000 F150.00000
G01 F300.00000
G01 X2.74000 Y69.02999
G01 X2.19565 Y68.97637
G01 X1.69537 Y68.82585
G01 X1.65009 Y68.80710
G01 X1.18991 Y68.55976
G01 X0.78532 Y68.22928
G01 X0.75067 Y68.19463
G01 X0.42019 Y67.79003
G01 X0.17285 Y67.32984
G01 X0.15410 Y67.28457
G01 X0.00358 Y66.78430
G01 X-0.04999 Y66.24000
G01 X-0.04999 Y35.24000
G00 Z5.00000
G01 X-0.04999 Y33.74000
G01 Z-1.50000 F150.00000
G01 F300.00000
G01 X-0.04999 Y2.74000
G01 X0.00358 Y2.19565
G01 X0.15410 Y1.69537
G01 X0.17285 Y1.65009
G01 X0.42019 Y1.18991
G01 X0.75067 Y0.78532
G01 X0.78532 Y0.75067
G01 X1.18991 Y0.42019
G01 X1.65009 Y0.17285
G01 X1.69537 Y0.15410
G01 X2.19565 Y0.00358
G01 X2.74000 Y-0.04999
G01 X29.93000 Y-0.04999
G00 Z5.00000
G01 X31.43000 Y-0.04999
G01 Z-1.50000 F150.00000
G01 F300.00000
G01 X58.62000 Y-0.04999
G01 X59.16430 Y0.00358
G01 X59.66457 Y0.15410
G01 X59.70984 Y0.17285
G01 X60.17003 Y0.42019
G01 X60.57463 Y0.75067
G01 X60.60928 Y0.78532
G01 X60.93976 Y1.18991
G01 X61.18710 Y1.65009
G01 X61.20585 Y1.69537
G01 X61.35637 Y2.19565
G01 X61.40999 Y2.74000
G01 Z-2.00000 F150.00000 ( plunge. )
G04 P0 ( dwell for no time -- G64 should not smooth over this point )
G01 F300.00000
G01 X61.40999 Y33.74000
G00 Z5.00000
G01 X61.40999 Y35.24000
G01 Z-2.00000 F150.00000
G01 F300.00000
G01 X61.40999 Y66.24000
G01 X61.35997 Y66.76001
G01 X61.35040 Y66.80810
G01 X61.20585 Y67.28457
G01 X61.18710 Y67.32984
G01 X60.93976 Y67.79003
G01 X60.60928 Y68.19463
G01 X60.57463 Y68.22928
G01 X60.17003 Y68.55976
G01 X59.70984 Y68.80710
G01 X59.66457 Y68.82585
G01 X59.18810 Y68.97040
G01 X59.14001 Y68.97997
G01 X58.62000 Y69.02999
G01 X31.43000 Y69.02999
G00 Z5.00000
G01 X29.93000 Y69.02999
G01 Z-2.00000 F150.00000
G01 F300.00000
G01 X2.74000 Y69.02999
G01 X2.19565 Y68.97637
G01 X1.69537 Y68.82585
G01 X1.65009 Y68.80710
G01 X1.18991 Y68.55976
G01 X0.78532 Y68.22928
G01 X0.75067 Y68.19463
G01 X0.42019 Y67.79003
G01 X0.17285 Y67.32984
G01 X0.15410 Y67.28457
G01 X0.00358 Y66.78430
G01 X-0.04999 Y66.24000
G01 X-0.04999 Y35.24000
G00 Z5.00000
G01 X-0.04999 Y33.74000
G01 Z-2.00000 F150.00000
G01 F300.00000
G01 X-0.04999 Y2.74000
G01 X0.00358 Y2.19565
G01 X0.15410 Y1.69537
G01 X0.17285 Y1.65009
G01 X0.42019 Y1.18991
G01 X0.75067 Y0.78532
G01 X0.78532 Y0.75067
G01 X1.18991 Y0.42019
G01 X1.65009 Y0.17285
G01 X1.69537 Y0.15410
G01 X2.19565 Y0.00358
G01 X2.74000 Y-0.04999
G01 X29.93000 Y-0.04999
G00 Z5.00000
G01 X31.43000 Y-0.04999
G01 Z-2.00000 F150.00000
G01 F300.00000
G01 X58.62000 Y-0.04999
G01 X59.16430 Y0.00358
G01 X59.66457 Y0.15410
G01 X59.70984 Y0.17285
G01 X60.17003 Y0.42019
G01 X60.57463 Y0.75067
G01 X60.60928 Y0.78532
G01 X60.93976 Y1.18991
G01 X61.18710 Y1.65009
G01 X61.20585 Y1.69537
G01 X61.35637 Y2.19565
G01 X61.40999 Y2.74000

G00 Z25.000000 ( retract )

M2 ( Program end. )

