( pcb2gcode 2.1.0 )
( Software-independent Gcode )

G94 ( Millimeters per minute feed rate. )
G21 ( Units == Millimeters. )

G90 ( Absolute coordinates. )
G00 S15000 ( RPM spindle speed. )
G01 F300.00000 ( Feedrate. )


G00 Z25.00000 (Retract to tool change height)

G00 X66.28999 Y2.74000 ( rapid move to begin. )
G01 Z-0.50000 F150.00000 ( plunge. )
G04 P0 ( dwell for no time -- G64 should not smooth over this point )
G01 F300.00000
G01 X66.28999 Y27.92500
G00 Z5.00000
G01 X66.28999 Y29.42500
G01 Z-0.50000 F150.00000
G01 F300.00000
G01 X66.28999 Y54.61000
G01 X66.23997 Y55.13001
G01 X66.23040 Y55.17810
G01 X66.08585 Y55.65457
G01 X66.06710 Y55.69984
G01 X65.83238 Y56.13898
G01 X65.80515 Y56.17975
G01 X65.48928 Y56.56463
G01 X65.45463 Y56.59928
G01 X65.06975 Y56.91515
G01 X65.02898 Y56.94238
G01 X64.58984 Y57.17710
G01 X64.54457 Y57.19585
G01 X64.06810 Y57.34040
G01 X64.02001 Y57.34997
G01 X63.50000 Y57.39999
G01 X33.77000 Y57.39999
G00 Z5.00000
G01 X32.27000 Y57.39999
G01 Z-0.50000 F150.00000
G01 F300.00000
G01 X2.54000 Y57.39999
G01 X1.99565 Y57.34637
G01 X1.49537 Y57.19585
G01 X1.45011 Y57.17710
G01 X1.01097 Y56.94238
G01 X0.97020 Y56.91515
G01 X0.58532 Y56.59928
G01 X0.55067 Y56.56463
G01 X0.23480 Y56.17975
G01 X0.20757 Y56.13898
G01 X-0.02713 Y55.69984
G01 X-0.04587 Y55.65457
G01 X-0.19639 Y55.15430
G01 X-0.24999 Y54.60903
G01 X-0.15288 Y29.42403
G00 Z5.00000
G01 X-0.14710 Y27.92404
G01 Z-0.50000 F150.00000
G01 F300.00000
G01 X-0.04999 Y2.73903
G01 X0.00358 Y2.19565
G01 X0.15410 Y1.69537
G01 X0.17285 Y1.65009
G01 X0.40757 Y1.21097
G01 X0.43480 Y1.17020
G01 X0.75067 Y0.78532
G01 X0.78532 Y0.75067
G01 X1.17020 Y0.43480
G01 X1.21097 Y0.40757
G01 X1.65009 Y0.17285
G01 X1.69537 Y0.15410
G01 X2.19565 Y0.00358
G01 X2.74000 Y-0.04999
G01 X32.37000 Y-0.04999
G00 Z5.00000
G01 X33.87000 Y-0.04999
G01 Z-0.50000 F150.00000
G01 F300.00000
G01 X63.50000 Y-0.04999
G01 X64.04430 Y0.00358
G01 X64.54457 Y0.15410
G01 X64.58984 Y0.17285
G01 X65.05003 Y0.42019
G01 X65.45463 Y0.75067
G01 X65.48928 Y0.78532
G01 X65.81976 Y1.18991
G01 X66.06710 Y1.65009
G01 X66.08585 Y1.69537
G01 X66.23637 Y2.19565
G01 X66.28999 Y2.74000
G01 Z-1.00000 F150.00000 ( plunge. )
G04 P0 ( dwell for no time -- G64 should not smooth over this point )
G01 F300.00000
G01 X66.28999 Y27.92500
G00 Z5.00000
G01 X66.28999 Y29.42500
G01 Z-1.00000 F150.00000
G01 F300.00000
G01 X66.28999 Y54.61000
G01 X66.23997 Y55.13001
G01 X66.23040 Y55.17810
G01 X66.08585 Y55.65457
G01 X66.06710 Y55.69984
G01 X65.83238 Y56.13898
G01 X65.80515 Y56.17975
G01 X65.48928 Y56.56463
G01 X65.45463 Y56.59928
G01 X65.06975 Y56.91515
G01 X65.02898 Y56.94238
G01 X64.58984 Y57.17710
G01 X64.54457 Y57.19585
G01 X64.06810 Y57.34040
G01 X64.02001 Y57.34997
G01 X63.50000 Y57.39999
G01 X33.77000 Y57.39999
G00 Z5.00000
G01 X32.27000 Y57.39999
G01 Z-1.00000 F150.00000
G01 F300.00000
G01 X2.54000 Y57.39999
G01 X1.99565 Y57.34637
G01 X1.49537 Y57.19585
G01 X1.45011 Y57.17710
G01 X1.01097 Y56.94238
G01 X0.97020 Y56.91515
G01 X0.58532 Y56.59928
G01 X0.55067 Y56.56463
G01 X0.23480 Y56.17975
G01 X0.20757 Y56.13898
G01 X-0.02713 Y55.69984
G01 X-0.04587 Y55.65457
G01 X-0.19639 Y55.15430
G01 X-0.24999 Y54.60903
G01 X-0.15288 Y29.42403
G00 Z5.00000
G01 X-0.14710 Y27.92404
G01 Z-1.00000 F150.00000
G01 F300.00000
G01 X-0.04999 Y2.73903
G01 X0.00358 Y2.19565
G01 X0.15410 Y1.69537
G01 X0.17285 Y1.65009
G01 X0.40757 Y1.21097
G01 X0.43480 Y1.17020
G01 X0.75067 Y0.78532
G01 X0.78532 Y0.75067
G01 X1.17020 Y0.43480
G01 X1.21097 Y0.40757
G01 X1.65009 Y0.17285
G01 X1.69537 Y0.15410
G01 X2.19565 Y0.00358
G01 X2.74000 Y-0.04999
G01 X32.37000 Y-0.04999
G00 Z5.00000
G01 X33.87000 Y-0.04999
G01 Z-1.00000 F150.00000
G01 F300.00000
G01 X63.50000 Y-0.04999
G01 X64.04430 Y0.00358
G01 X64.54457 Y0.15410
G01 X64.58984 Y0.17285
G01 X65.05003 Y0.42019
G01 X65.45463 Y0.75067
G01 X65.48928 Y0.78532
G01 X65.81976 Y1.18991
G01 X66.06710 Y1.65009
G01 X66.08585 Y1.69537
G01 X66.23637 Y2.19565
G01 X66.28999 Y2.74000
G01 Z-1.50000 F150.00000 ( plunge. )
G04 P0 ( dwell for no time -- G64 should not smooth over this point )
G01 F300.00000
G01 X66.28999 Y27.92500
G00 Z5.00000
G01 X66.28999 Y29.42500
G01 Z-1.50000 F150.00000
G01 F300.00000
G01 X66.28999 Y54.61000
G01 X66.23997 Y55.13001
G01 X66.23040 Y55.17810
G01 X66.08585 Y55.65457
G01 X66.06710 Y55.69984
G01 X65.83238 Y56.13898
G01 X65.80515 Y56.17975
G01 X65.48928 Y56.56463
G01 X65.45463 Y56.59928
G01 X65.06975 Y56.91515
G01 X65.02898 Y56.94238
G01 X64.58984 Y57.17710
G01 X64.54457 Y57.19585
G01 X64.06810 Y57.34040
G01 X64.02001 Y57.34997
G01 X63.50000 Y57.39999
G01 X33.77000 Y57.39999
G00 Z5.00000
G01 X32.27000 Y57.39999
G01 Z-1.50000 F150.00000
G01 F300.00000
G01 X2.54000 Y57.39999
G01 X1.99565 Y57.34637
G01 X1.49537 Y57.19585
G01 X1.45011 Y57.17710
G01 X1.01097 Y56.94238
G01 X0.97020 Y56.91515
G01 X0.58532 Y56.59928
G01 X0.55067 Y56.56463
G01 X0.23480 Y56.17975
G01 X0.20757 Y56.13898
G01 X-0.02713 Y55.69984
G01 X-0.04587 Y55.65457
G01 X-0.19639 Y55.15430
G01 X-0.24999 Y54.60903
G01 X-0.15288 Y29.42403
G00 Z5.00000
G01 X-0.14710 Y27.92404
G01 Z-1.50000 F150.00000
G01 F300.00000
G01 X-0.04999 Y2.73903
G01 X0.00358 Y2.19565
G01 X0.15410 Y1.69537
G01 X0.17285 Y1.65009
G01 X0.40757 Y1.21097
G01 X0.43480 Y1.17020
G01 X0.75067 Y0.78532
G01 X0.78532 Y0.75067
G01 X1.17020 Y0.43480
G01 X1.21097 Y0.40757
G01 X1.65009 Y0.17285
G01 X1.69537 Y0.15410
G01 X2.19565 Y0.00358
G01 X2.74000 Y-0.04999
G01 X32.37000 Y-0.04999
G00 Z5.00000
G01 X33.87000 Y-0.04999
G01 Z-1.50000 F150.00000
G01 F300.00000
G01 X63.50000 Y-0.04999
G01 X64.04430 Y0.00358
G01 X64.54457 Y0.15410
G01 X64.58984 Y0.17285
G01 X65.05003 Y0.42019
G01 X65.45463 Y0.75067
G01 X65.48928 Y0.78532
G01 X65.81976 Y1.18991
G01 X66.06710 Y1.65009
G01 X66.08585 Y1.69537
G01 X66.23637 Y2.19565
G01 X66.28999 Y2.74000
G01 Z-2.00000 F150.00000 ( plunge. )
G04 P0 ( dwell for no time -- G64 should not smooth over this point )
G01 F300.00000
G01 X66.28999 Y27.92500
G00 Z5.00000
G01 X66.28999 Y29.42500
G01 Z-2.00000 F150.00000
G01 F300.00000
G01 X66.28999 Y54.61000
G01 X66.23997 Y55.13001
G01 X66.23040 Y55.17810
G01 X66.08585 Y55.65457
G01 X66.06710 Y55.69984
G01 X65.83238 Y56.13898
G01 X65.80515 Y56.17975
G01 X65.48928 Y56.56463
G01 X65.45463 Y56.59928
G01 X65.06975 Y56.91515
G01 X65.02898 Y56.94238
G01 X64.58984 Y57.17710
G01 X64.54457 Y57.19585
G01 X64.06810 Y57.34040
G01 X64.02001 Y57.34997
G01 X63.50000 Y57.39999
G01 X33.77000 Y57.39999
G00 Z5.00000
G01 X32.27000 Y57.39999
G01 Z-2.00000 F150.00000
G01 F300.00000
G01 X2.54000 Y57.39999
G01 X1.99565 Y57.34637
G01 X1.49537 Y57.19585
G01 X1.45011 Y57.17710
G01 X1.01097 Y56.94238
G01 X0.97020 Y56.91515
G01 X0.58532 Y56.59928
G01 X0.55067 Y56.56463
G01 X0.23480 Y56.17975
G01 X0.20757 Y56.13898
G01 X-0.02713 Y55.69984
G01 X-0.04587 Y55.65457
G01 X-0.19639 Y55.15430
G01 X-0.24999 Y54.60903
G01 X-0.15288 Y29.42403
G00 Z5.00000
G01 X-0.14710 Y27.92404
G01 Z-2.00000 F150.00000
G01 F300.00000
G01 X-0.04999 Y2.73903
G01 X0.00358 Y2.19565
G01 X0.15410 Y1.69537
G01 X0.17285 Y1.65009
G01 X0.40757 Y1.21097
G01 X0.43480 Y1.17020
G01 X0.75067 Y0.78532
G01 X0.78532 Y0.75067
G01 X1.17020 Y0.43480
G01 X1.21097 Y0.40757
G01 X1.65009 Y0.17285
G01 X1.69537 Y0.15410
G01 X2.19565 Y0.00358
G01 X2.74000 Y-0.04999
G01 X32.37000 Y-0.04999
G00 Z5.00000
G01 X33.87000 Y-0.04999
G01 Z-2.00000 F150.00000
G01 F300.00000
G01 X63.50000 Y-0.04999
G01 X64.04430 Y0.00358
G01 X64.54457 Y0.15410
G01 X64.58984 Y0.17285
G01 X65.05003 Y0.42019
G01 X65.45463 Y0.75067
G01 X65.48928 Y0.78532
G01 X65.81976 Y1.18991
G01 X66.06710 Y1.65009
G01 X66.08585 Y1.69537
G01 X66.23637 Y2.19565
G01 X66.28999 Y2.74000

G00 Z25.000000 ( retract )

M2 ( Program end. )

