( pcb2gcode 2.1.0 )
( Software-independent Gcode )
( This file uses a mill head of 0.50000mm to drill the 2 hole sizes. )
( Hole sizes: [1mm] [3.2mm] )

G94       (Millimeters per minute feed rate.)
G21       (Units == Millimeters.)
G90       (Absolute coordinates.)
S15000    (RPM spindle speed.)

G01 F300.00000 (Feedrate)
G00 Z25.00000 (Retract)

G0 X5.53000 Y16.51000
G1 Z0.50000 F150.00000
G1 F300.00000
G2 X5.53000 Y16.51000 Z-0.00000 I-0.25000 J0.00000
G2 X5.53000 Y16.51000 Z-0.50000 I-0.25000 J0.00000
G2 X5.53000 Y16.51000 Z-1.00000 I-0.25000 J0.00000
G2 X5.53000 Y16.51000 Z-1.50000 I-0.25000 J0.00000
G2 X5.53000 Y16.51000 Z-2.00000 I-0.25000 J0.00000
G2 X5.53000 Y16.51000 I-0.25000 J0.00000
G1 Z5.00000 F150.00000

G0 X5.53000 Y19.05000
G1 Z0.50000 F150.00000
G1 F300.00000
G2 X5.53000 Y19.05000 Z-0.00000 I-0.25000 J0.00000
G2 X5.53000 Y19.05000 Z-0.50000 I-0.25000 J0.00000
G2 X5.53000 Y19.05000 Z-1.00000 I-0.25000 J0.00000
G2 X5.53000 Y19.05000 Z-1.50000 I-0.25000 J0.00000
G2 X5.53000 Y19.05000 Z-2.00000 I-0.25000 J0.00000
G2 X5.53000 Y19.05000 I-0.25000 J0.00000
G1 Z5.00000 F150.00000

G0 X5.53000 Y21.79000
G1 Z0.50000 F150.00000
G1 F300.00000
G2 X5.53000 Y21.79000 Z-0.00000 I-0.25000 J0.00000
G2 X5.53000 Y21.79000 Z-0.50000 I-0.25000 J0.00000
G2 X5.53000 Y21.79000 Z-1.00000 I-0.25000 J0.00000
G2 X5.53000 Y21.79000 Z-1.50000 I-0.25000 J0.00000
G2 X5.53000 Y21.79000 Z-2.00000 I-0.25000 J0.00000
G2 X5.53000 Y21.79000 I-0.25000 J0.00000
G1 Z5.00000 F150.00000

G0 X18.03000 Y31.95000
G1 Z0.50000 F150.00000
G1 F300.00000
G2 X18.03000 Y31.95000 Z-0.00000 I-0.25000 J0.00000
G2 X18.03000 Y31.95000 Z-0.50000 I-0.25000 J0.00000
G2 X18.03000 Y31.95000 Z-1.00000 I-0.25000 J0.00000
G2 X18.03000 Y31.95000 Z-1.50000 I-0.25000 J0.00000
G2 X18.03000 Y31.95000 Z-2.00000 I-0.25000 J0.00000
G2 X18.03000 Y31.95000 I-0.25000 J0.00000
G1 Z5.00000 F150.00000

G0 X18.03000 Y29.41000
G1 Z0.50000 F150.00000
G1 F300.00000
G2 X18.03000 Y29.41000 Z-0.00000 I-0.25000 J0.00000
G2 X18.03000 Y29.41000 Z-0.50000 I-0.25000 J0.00000
G2 X18.03000 Y29.41000 Z-1.00000 I-0.25000 J0.00000
G2 X18.03000 Y29.41000 Z-1.50000 I-0.25000 J0.00000
G2 X18.03000 Y29.41000 Z-2.00000 I-0.25000 J0.00000
G2 X18.03000 Y29.41000 I-0.25000 J0.00000
G1 Z5.00000 F150.00000

G0 X18.03000 Y26.87000
G1 Z0.50000 F150.00000
G1 F300.00000
G2 X18.03000 Y26.87000 Z-0.00000 I-0.25000 J0.00000
G2 X18.03000 Y26.87000 Z-0.50000 I-0.25000 J0.00000
G2 X18.03000 Y26.87000 Z-1.00000 I-0.25000 J0.00000
G2 X18.03000 Y26.87000 Z-1.50000 I-0.25000 J0.00000
G2 X18.03000 Y26.87000 Z-2.00000 I-0.25000 J0.00000
G2 X18.03000 Y26.87000 I-0.25000 J0.00000
G1 Z5.00000 F150.00000

G0 X18.03000 Y24.33000
G1 Z0.50000 F150.00000
G1 F300.00000
G2 X18.03000 Y24.33000 Z-0.00000 I-0.25000 J0.00000
G2 X18.03000 Y24.33000 Z-0.50000 I-0.25000 J0.00000
G2 X18.03000 Y24.33000 Z-1.00000 I-0.25000 J0.00000
G2 X18.03000 Y24.33000 Z-1.50000 I-0.25000 J0.00000
G2 X18.03000 Y24.33000 Z-2.00000 I-0.25000 J0.00000
G2 X18.03000 Y24.33000 I-0.25000 J0.00000
G1 Z5.00000 F150.00000

G0 X18.03000 Y21.79000
G1 Z0.50000 F150.00000
G1 F300.00000
G2 X18.03000 Y21.79000 Z-0.00000 I-0.25000 J0.00000
G2 X18.03000 Y21.79000 Z-0.50000 I-0.25000 J0.00000
G2 X18.03000 Y21.79000 Z-1.00000 I-0.25000 J0.00000
G2 X18.03000 Y21.79000 Z-1.50000 I-0.25000 J0.00000
G2 X18.03000 Y21.79000 Z-2.00000 I-0.25000 J0.00000
G2 X18.03000 Y21.79000 I-0.25000 J0.00000
G1 Z5.00000 F150.00000

G0 X18.03000 Y19.25000
G1 Z0.50000 F150.00000
G1 F300.00000
G2 X18.03000 Y19.25000 Z-0.00000 I-0.25000 J0.00000
G2 X18.03000 Y19.25000 Z-0.50000 I-0.25000 J0.00000
G2 X18.03000 Y19.25000 Z-1.00000 I-0.25000 J0.00000
G2 X18.03000 Y19.25000 Z-1.50000 I-0.25000 J0.00000
G2 X18.03000 Y19.25000 Z-2.00000 I-0.25000 J0.00000
G2 X18.03000 Y19.25000 I-0.25000 J0.00000
G1 Z5.00000 F150.00000

G0 X18.03000 Y16.71000
G1 Z0.50000 F150.00000
G1 F300.00000
G2 X18.03000 Y16.71000 Z-0.00000 I-0.25000 J0.00000
G2 X18.03000 Y16.71000 Z-0.50000 I-0.25000 J0.00000
G2 X18.03000 Y16.71000 Z-1.00000 I-0.25000 J0.00000
G2 X18.03000 Y16.71000 Z-1.50000 I-0.25000 J0.00000
G2 X18.03000 Y16.71000 Z-2.00000 I-0.25000 J0.00000
G2 X18.03000 Y16.71000 I-0.25000 J0.00000
G1 Z5.00000 F150.00000

G0 X18.03000 Y14.17000
G1 Z0.50000 F150.00000
G1 F300.00000
G2 X18.03000 Y14.17000 Z-0.00000 I-0.25000 J0.00000
G2 X18.03000 Y14.17000 Z-0.50000 I-0.25000 J0.00000
G2 X18.03000 Y14.17000 Z-1.00000 I-0.25000 J0.00000
G2 X18.03000 Y14.17000 Z-1.50000 I-0.25000 J0.00000
G2 X18.03000 Y14.17000 Z-2.00000 I-0.25000 J0.00000
G2 X18.03000 Y14.17000 I-0.25000 J0.00000
G1 Z5.00000 F150.00000

G0 X18.03000 Y11.63000
G1 Z0.50000 F150.00000
G1 F300.00000
G2 X18.03000 Y11.63000 Z-0.00000 I-0.25000 J0.00000
G2 X18.03000 Y11.63000 Z-0.50000 I-0.25000 J0.00000
G2 X18.03000 Y11.63000 Z-1.00000 I-0.25000 J0.00000
G2 X18.03000 Y11.63000 Z-1.50000 I-0.25000 J0.00000
G2 X18.03000 Y11.63000 Z-2.00000 I-0.25000 J0.00000
G2 X18.03000 Y11.63000 I-0.25000 J0.00000
G1 Z5.00000 F150.00000

G0 X18.03000 Y9.09000
G1 Z0.50000 F150.00000
G1 F300.00000
G2 X18.03000 Y9.09000 Z-0.00000 I-0.25000 J0.00000
G2 X18.03000 Y9.09000 Z-0.50000 I-0.25000 J0.00000
G2 X18.03000 Y9.09000 Z-1.00000 I-0.25000 J0.00000
G2 X18.03000 Y9.09000 Z-1.50000 I-0.25000 J0.00000
G2 X18.03000 Y9.09000 Z-2.00000 I-0.25000 J0.00000
G2 X18.03000 Y9.09000 I-0.25000 J0.00000
G1 Z5.00000 F150.00000

G0 X18.03000 Y6.55000
G1 Z0.50000 F150.00000
G1 F300.00000
G2 X18.03000 Y6.55000 Z-0.00000 I-0.25000 J0.00000
G2 X18.03000 Y6.55000 Z-0.50000 I-0.25000 J0.00000
G2 X18.03000 Y6.55000 Z-1.00000 I-0.25000 J0.00000
G2 X18.03000 Y6.55000 Z-1.50000 I-0.25000 J0.00000
G2 X18.03000 Y6.55000 Z-2.00000 I-0.25000 J0.00000
G2 X18.03000 Y6.55000 I-0.25000 J0.00000
G1 Z5.00000 F150.00000

G0 X18.03000 Y4.01000
G1 Z0.50000 F150.00000
G1 F300.00000
G2 X18.03000 Y4.01000 Z-0.00000 I-0.25000 J0.00000
G2 X18.03000 Y4.01000 Z-0.50000 I-0.25000 J0.00000
G2 X18.03000 Y4.01000 Z-1.00000 I-0.25000 J0.00000
G2 X18.03000 Y4.01000 Z-1.50000 I-0.25000 J0.00000
G2 X18.03000 Y4.01000 Z-2.00000 I-0.25000 J0.00000
G2 X18.03000 Y4.01000 I-0.25000 J0.00000
G1 Z5.00000 F150.00000

G0 X40.69000 Y3.81000
G1 Z0.50000 F150.00000
G1 F300.00000
G2 X40.69000 Y3.81000 Z-0.00000 I-0.25000 J0.00000
G2 X40.69000 Y3.81000 Z-0.50000 I-0.25000 J0.00000
G2 X40.69000 Y3.81000 Z-1.00000 I-0.25000 J0.00000
G2 X40.69000 Y3.81000 Z-1.50000 I-0.25000 J0.00000
G2 X40.69000 Y3.81000 Z-2.00000 I-0.25000 J0.00000
G2 X40.69000 Y3.81000 I-0.25000 J0.00000
G1 Z5.00000 F150.00000

G0 X40.69000 Y6.35000
G1 Z0.50000 F150.00000
G1 F300.00000
G2 X40.69000 Y6.35000 Z-0.00000 I-0.25000 J0.00000
G2 X40.69000 Y6.35000 Z-0.50000 I-0.25000 J0.00000
G2 X40.69000 Y6.35000 Z-1.00000 I-0.25000 J0.00000
G2 X40.69000 Y6.35000 Z-1.50000 I-0.25000 J0.00000
G2 X40.69000 Y6.35000 Z-2.00000 I-0.25000 J0.00000
G2 X40.69000 Y6.35000 I-0.25000 J0.00000
G1 Z5.00000 F150.00000

G0 X40.69000 Y8.89000
G1 Z0.50000 F150.00000
G1 F300.00000
G2 X40.69000 Y8.89000 Z-0.00000 I-0.25000 J0.00000
G2 X40.69000 Y8.89000 Z-0.50000 I-0.25000 J0.00000
G2 X40.69000 Y8.89000 Z-1.00000 I-0.25000 J0.00000
G2 X40.69000 Y8.89000 Z-1.50000 I-0.25000 J0.00000
G2 X40.69000 Y8.89000 Z-2.00000 I-0.25000 J0.00000
G2 X40.69000 Y8.89000 I-0.25000 J0.00000
G1 Z5.00000 F150.00000

G0 X40.69000 Y11.43000
G1 Z0.50000 F150.00000
G1 F300.00000
G2 X40.69000 Y11.43000 Z-0.00000 I-0.25000 J0.00000
G2 X40.69000 Y11.43000 Z-0.50000 I-0.25000 J0.00000
G2 X40.69000 Y11.43000 Z-1.00000 I-0.25000 J0.00000
G2 X40.69000 Y11.43000 Z-1.50000 I-0.25000 J0.00000
G2 X40.69000 Y11.43000 Z-2.00000 I-0.25000 J0.00000
G2 X40.69000 Y11.43000 I-0.25000 J0.00000
G1 Z5.00000 F150.00000

G0 X40.69000 Y13.97000
G1 Z0.50000 F150.00000
G1 F300.00000
G2 X40.69000 Y13.97000 Z-0.00000 I-0.25000 J0.00000
G2 X40.69000 Y13.97000 Z-0.50000 I-0.25000 J0.00000
G2 X40.69000 Y13.97000 Z-1.00000 I-0.25000 J0.00000
G2 X40.69000 Y13.97000 Z-1.50000 I-0.25000 J0.00000
G2 X40.69000 Y13.97000 Z-2.00000 I-0.25000 J0.00000
G2 X40.69000 Y13.97000 I-0.25000 J0.00000
G1 Z5.00000 F150.00000

G0 X40.69000 Y16.51000
G1 Z0.50000 F150.00000
G1 F300.00000
G2 X40.69000 Y16.51000 Z-0.00000 I-0.25000 J0.00000
G2 X40.69000 Y16.51000 Z-0.50000 I-0.25000 J0.00000
G2 X40.69000 Y16.51000 Z-1.00000 I-0.25000 J0.00000
G2 X40.69000 Y16.51000 Z-1.50000 I-0.25000 J0.00000
G2 X40.69000 Y16.51000 Z-2.00000 I-0.25000 J0.00000
G2 X40.69000 Y16.51000 I-0.25000 J0.00000
G1 Z5.00000 F150.00000

G0 X40.69000 Y19.05000
G1 Z0.50000 F150.00000
G1 F300.00000
G2 X40.69000 Y19.05000 Z-0.00000 I-0.25000 J0.00000
G2 X40.69000 Y19.05000 Z-0.50000 I-0.25000 J0.00000
G2 X40.69000 Y19.05000 Z-1.00000 I-0.25000 J0.00000
G2 X40.69000 Y19.05000 Z-1.50000 I-0.25000 J0.00000
G2 X40.69000 Y19.05000 Z-2.00000 I-0.25000 J0.00000
G2 X40.69000 Y19.05000 I-0.25000 J0.00000
G1 Z5.00000 F150.00000

G0 X40.69000 Y21.59000
G1 Z0.50000 F150.00000
G1 F300.00000
G2 X40.69000 Y21.59000 Z-0.00000 I-0.25000 J0.00000
G2 X40.69000 Y21.59000 Z-0.50000 I-0.25000 J0.00000
G2 X40.69000 Y21.59000 Z-1.00000 I-0.25000 J0.00000
G2 X40.69000 Y21.59000 Z-1.50000 I-0.25000 J0.00000
G2 X40.69000 Y21.59000 Z-2.00000 I-0.25000 J0.00000
G2 X40.69000 Y21.59000 I-0.25000 J0.00000
G1 Z5.00000 F150.00000

G0 X40.69000 Y24.13000
G1 Z0.50000 F150.00000
G1 F300.00000
G2 X40.69000 Y24.13000 Z-0.00000 I-0.25000 J0.00000
G2 X40.69000 Y24.13000 Z-0.50000 I-0.25000 J0.00000
G2 X40.69000 Y24.13000 Z-1.00000 I-0.25000 J0.00000
G2 X40.69000 Y24.13000 Z-1.50000 I-0.25000 J0.00000
G2 X40.69000 Y24.13000 Z-2.00000 I-0.25000 J0.00000
G2 X40.69000 Y24.13000 I-0.25000 J0.00000
G1 Z5.00000 F150.00000

G0 X40.69000 Y26.67000
G1 Z0.50000 F150.00000
G1 F300.00000
G2 X40.69000 Y26.67000 Z-0.00000 I-0.25000 J0.00000
G2 X40.69000 Y26.67000 Z-0.50000 I-0.25000 J0.00000
G2 X40.69000 Y26.67000 Z-1.00000 I-0.25000 J0.00000
G2 X40.69000 Y26.67000 Z-1.50000 I-0.25000 J0.00000
G2 X40.69000 Y26.67000 Z-2.00000 I-0.25000 J0.00000
G2 X40.69000 Y26.67000 I-0.25000 J0.00000
G1 Z5.00000 F150.00000

G0 X62.48000 Y43.18000
G1 Z0.50000 F150.00000
G1 F300.00000
G2 X62.48000 Y43.18000 Z-0.00000 I-0.25000 J0.00000
G2 X62.48000 Y43.18000 Z-0.50000 I-0.25000 J0.00000
G2 X62.48000 Y43.18000 Z-1.00000 I-0.25000 J0.00000
G2 X62.48000 Y43.18000 Z-1.50000 I-0.25000 J0.00000
G2 X62.48000 Y43.18000 Z-2.00000 I-0.25000 J0.00000
G2 X62.48000 Y43.18000 I-0.25000 J0.00000
G1 Z5.00000 F150.00000

G0 X59.94000 Y43.18000
G1 Z0.50000 F150.00000
G1 F300.00000
G2 X59.94000 Y43.18000 Z-0.00000 I-0.25000 J0.00000
G2 X59.94000 Y43.18000 Z-0.50000 I-0.25000 J0.00000
G2 X59.94000 Y43.18000 Z-1.00000 I-0.25000 J0.00000
G2 X59.94000 Y43.18000 Z-1.50000 I-0.25000 J0.00000
G2 X59.94000 Y43.18000 Z-2.00000 I-0.25000 J0.00000
G2 X59.94000 Y43.18000 I-0.25000 J0.00000
G1 Z5.00000 F150.00000

G0 X57.40000 Y43.18000
G1 Z0.50000 F150.00000
G1 F300.00000
G2 X57.40000 Y43.18000 Z-0.00000 I-0.25000 J0.00000
G2 X57.40000 Y43.18000 Z-0.50000 I-0.25000 J0.00000
G2 X57.40000 Y43.18000 Z-1.00000 I-0.25000 J0.00000
G2 X57.40000 Y43.18000 Z-1.50000 I-0.25000 J0.00000
G2 X57.40000 Y43.18000 Z-2.00000 I-0.25000 J0.00000
G2 X57.40000 Y43.18000 I-0.25000 J0.00000
G1 Z5.00000 F150.00000

G0 X54.86000 Y43.18000
G1 Z0.50000 F150.00000
G1 F300.00000
G2 X54.86000 Y43.18000 Z-0.00000 I-0.25000 J0.00000
G2 X54.86000 Y43.18000 Z-0.50000 I-0.25000 J0.00000
G2 X54.86000 Y43.18000 Z-1.00000 I-0.25000 J0.00000
G2 X54.86000 Y43.18000 Z-1.50000 I-0.25000 J0.00000
G2 X54.86000 Y43.18000 Z-2.00000 I-0.25000 J0.00000
G2 X54.86000 Y43.18000 I-0.25000 J0.00000
G1 Z5.00000 F150.00000

G0 X52.32000 Y43.18000
G1 Z0.50000 F150.00000
G1 F300.00000
G2 X52.32000 Y43.18000 Z-0.00000 I-0.25000 J0.00000
G2 X52.32000 Y43.18000 Z-0.50000 I-0.25000 J0.00000
G2 X52.32000 Y43.18000 Z-1.00000 I-0.25000 J0.00000
G2 X52.32000 Y43.18000 Z-1.50000 I-0.25000 J0.00000
G2 X52.32000 Y43.18000 Z-2.00000 I-0.25000 J0.00000
G2 X52.32000 Y43.18000 I-0.25000 J0.00000
G1 Z5.00000 F150.00000

G0 X49.78000 Y43.18000
G1 Z0.50000 F150.00000
G1 F300.00000
G2 X49.78000 Y43.18000 Z-0.00000 I-0.25000 J0.00000
G2 X49.78000 Y43.18000 Z-0.50000 I-0.25000 J0.00000
G2 X49.78000 Y43.18000 Z-1.00000 I-0.25000 J0.00000
G2 X49.78000 Y43.18000 Z-1.50000 I-0.25000 J0.00000
G2 X49.78000 Y43.18000 Z-2.00000 I-0.25000 J0.00000
G2 X49.78000 Y43.18000 I-0.25000 J0.00000
G1 Z5.00000 F150.00000

G0 X47.24000 Y43.18000
G1 Z0.50000 F150.00000
G1 F300.00000
G2 X47.24000 Y43.18000 Z-0.00000 I-0.25000 J0.00000
G2 X47.24000 Y43.18000 Z-0.50000 I-0.25000 J0.00000
G2 X47.24000 Y43.18000 Z-1.00000 I-0.25000 J0.00000
G2 X47.24000 Y43.18000 Z-1.50000 I-0.25000 J0.00000
G2 X47.24000 Y43.18000 Z-2.00000 I-0.25000 J0.00000
G2 X47.24000 Y43.18000 I-0.25000 J0.00000
G1 Z5.00000 F150.00000

G0 X40.69000 Y52.07000
G1 Z0.50000 F150.00000
G1 F300.00000
G2 X40.69000 Y52.07000 Z-0.00000 I-0.25000 J0.00000
G2 X40.69000 Y52.07000 Z-0.50000 I-0.25000 J0.00000
G2 X40.69000 Y52.07000 Z-1.00000 I-0.25000 J0.00000
G2 X40.69000 Y52.07000 Z-1.50000 I-0.25000 J0.00000
G2 X40.69000 Y52.07000 Z-2.00000 I-0.25000 J0.00000
G2 X40.69000 Y52.07000 I-0.25000 J0.00000
G1 Z5.00000 F150.00000

G0 X40.69000 Y49.53000
G1 Z0.50000 F150.00000
G1 F300.00000
G2 X40.69000 Y49.53000 Z-0.00000 I-0.25000 J0.00000
G2 X40.69000 Y49.53000 Z-0.50000 I-0.25000 J0.00000
G2 X40.69000 Y49.53000 Z-1.00000 I-0.25000 J0.00000
G2 X40.69000 Y49.53000 Z-1.50000 I-0.25000 J0.00000
G2 X40.69000 Y49.53000 Z-2.00000 I-0.25000 J0.00000
G2 X40.69000 Y49.53000 I-0.25000 J0.00000
G1 Z5.00000 F150.00000

G0 X40.69000 Y46.99000
G1 Z0.50000 F150.00000
G1 F300.00000
G2 X40.69000 Y46.99000 Z-0.00000 I-0.25000 J0.00000
G2 X40.69000 Y46.99000 Z-0.50000 I-0.25000 J0.00000
G2 X40.69000 Y46.99000 Z-1.00000 I-0.25000 J0.00000
G2 X40.69000 Y46.99000 Z-1.50000 I-0.25000 J0.00000
G2 X40.69000 Y46.99000 Z-2.00000 I-0.25000 J0.00000
G2 X40.69000 Y46.99000 I-0.25000 J0.00000
G1 Z5.00000 F150.00000

G0 X40.69000 Y44.45000
G1 Z0.50000 F150.00000
G1 F300.00000
G2 X40.69000 Y44.45000 Z-0.00000 I-0.25000 J0.00000
G2 X40.69000 Y44.45000 Z-0.50000 I-0.25000 J0.00000
G2 X40.69000 Y44.45000 Z-1.00000 I-0.25000 J0.00000
G2 X40.69000 Y44.45000 Z-1.50000 I-0.25000 J0.00000
G2 X40.69000 Y44.45000 Z-2.00000 I-0.25000 J0.00000
G2 X40.69000 Y44.45000 I-0.25000 J0.00000
G1 Z5.00000 F150.00000

G0 X40.69000 Y41.91000
G1 Z0.50000 F150.00000
G1 F300.00000
G2 X40.69000 Y41.91000 Z-0.00000 I-0.25000 J0.00000
G2 X40.69000 Y41.91000 Z-0.50000 I-0.25000 J0.00000
G2 X40.69000 Y41.91000 Z-1.00000 I-0.25000 J0.00000
G2 X40.69000 Y41.91000 Z-1.50000 I-0.25000 J0.00000
G2 X40.69000 Y41.91000 Z-2.00000 I-0.25000 J0.00000
G2 X40.69000 Y41.91000 I-0.25000 J0.00000
G1 Z5.00000 F150.00000

G0 X40.69000 Y39.37000
G1 Z0.50000 F150.00000
G1 F300.00000
G2 X40.69000 Y39.37000 Z-0.00000 I-0.25000 J0.00000
G2 X40.69000 Y39.37000 Z-0.50000 I-0.25000 J0.00000
G2 X40.69000 Y39.37000 Z-1.00000 I-0.25000 J0.00000
G2 X40.69000 Y39.37000 Z-1.50000 I-0.25000 J0.00000
G2 X40.69000 Y39.37000 Z-2.00000 I-0.25000 J0.00000
G2 X40.69000 Y39.37000 I-0.25000 J0.00000
G1 Z5.00000 F150.00000

G0 X40.69000 Y36.83000
G1 Z0.50000 F150.00000
G1 F300.00000
G2 X40.69000 Y36.83000 Z-0.00000 I-0.25000 J0.00000
G2 X40.69000 Y36.83000 Z-0.50000 I-0.25000 J0.00000
G2 X40.69000 Y36.83000 Z-1.00000 I-0.25000 J0.00000
G2 X40.69000 Y36.83000 Z-1.50000 I-0.25000 J0.00000
G2 X40.69000 Y36.83000 Z-2.00000 I-0.25000 J0.00000
G2 X40.69000 Y36.83000 I-0.25000 J0.00000
G1 Z5.00000 F150.00000

G0 X40.69000 Y34.29000
G1 Z0.50000 F150.00000
G1 F300.00000
G2 X40.69000 Y34.29000 Z-0.00000 I-0.25000 J0.00000
G2 X40.69000 Y34.29000 Z-0.50000 I-0.25000 J0.00000
G2 X40.69000 Y34.29000 Z-1.00000 I-0.25000 J0.00000
G2 X40.69000 Y34.29000 Z-1.50000 I-0.25000 J0.00000
G2 X40.69000 Y34.29000 Z-2.00000 I-0.25000 J0.00000
G2 X40.69000 Y34.29000 I-0.25000 J0.00000
G1 Z5.00000 F150.00000

G0 X40.69000 Y31.75000
G1 Z0.50000 F150.00000
G1 F300.00000
G2 X40.69000 Y31.75000 Z-0.00000 I-0.25000 J0.00000
G2 X40.69000 Y31.75000 Z-0.50000 I-0.25000 J0.00000
G2 X40.69000 Y31.75000 Z-1.00000 I-0.25000 J0.00000
G2 X40.69000 Y31.75000 Z-1.50000 I-0.25000 J0.00000
G2 X40.69000 Y31.75000 Z-2.00000 I-0.25000 J0.00000
G2 X40.69000 Y31.75000 I-0.25000 J0.00000
G1 Z5.00000 F150.00000

G0 X40.69000 Y29.21000
G1 Z0.50000 F150.00000
G1 F300.00000
G2 X40.69000 Y29.21000 Z-0.00000 I-0.25000 J0.00000
G2 X40.69000 Y29.21000 Z-0.50000 I-0.25000 J0.00000
G2 X40.69000 Y29.21000 Z-1.00000 I-0.25000 J0.00000
G2 X40.69000 Y29.21000 Z-1.50000 I-0.25000 J0.00000
G2 X40.69000 Y29.21000 Z-2.00000 I-0.25000 J0.00000
G2 X40.69000 Y29.21000 I-0.25000 J0.00000
G1 Z5.00000 F150.00000

G0 X18.03000 Y34.49000
G1 Z0.50000 F150.00000
G1 F300.00000
G2 X18.03000 Y34.49000 Z-0.00000 I-0.25000 J0.00000
G2 X18.03000 Y34.49000 Z-0.50000 I-0.25000 J0.00000
G2 X18.03000 Y34.49000 Z-1.00000 I-0.25000 J0.00000
G2 X18.03000 Y34.49000 Z-1.50000 I-0.25000 J0.00000
G2 X18.03000 Y34.49000 Z-2.00000 I-0.25000 J0.00000
G2 X18.03000 Y34.49000 I-0.25000 J0.00000
G1 Z5.00000 F150.00000

G0 X18.03000 Y37.03000
G1 Z0.50000 F150.00000
G1 F300.00000
G2 X18.03000 Y37.03000 Z-0.00000 I-0.25000 J0.00000
G2 X18.03000 Y37.03000 Z-0.50000 I-0.25000 J0.00000
G2 X18.03000 Y37.03000 Z-1.00000 I-0.25000 J0.00000
G2 X18.03000 Y37.03000 Z-1.50000 I-0.25000 J0.00000
G2 X18.03000 Y37.03000 Z-2.00000 I-0.25000 J0.00000
G2 X18.03000 Y37.03000 I-0.25000 J0.00000
G1 Z5.00000 F150.00000

G0 X18.03000 Y39.57000
G1 Z0.50000 F150.00000
G1 F300.00000
G2 X18.03000 Y39.57000 Z-0.00000 I-0.25000 J0.00000
G2 X18.03000 Y39.57000 Z-0.50000 I-0.25000 J0.00000
G2 X18.03000 Y39.57000 Z-1.00000 I-0.25000 J0.00000
G2 X18.03000 Y39.57000 Z-1.50000 I-0.25000 J0.00000
G2 X18.03000 Y39.57000 Z-2.00000 I-0.25000 J0.00000
G2 X18.03000 Y39.57000 I-0.25000 J0.00000
G1 Z5.00000 F150.00000

G0 X18.03000 Y42.11000
G1 Z0.50000 F150.00000
G1 F300.00000
G2 X18.03000 Y42.11000 Z-0.00000 I-0.25000 J0.00000
G2 X18.03000 Y42.11000 Z-0.50000 I-0.25000 J0.00000
G2 X18.03000 Y42.11000 Z-1.00000 I-0.25000 J0.00000
G2 X18.03000 Y42.11000 Z-1.50000 I-0.25000 J0.00000
G2 X18.03000 Y42.11000 Z-2.00000 I-0.25000 J0.00000
G2 X18.03000 Y42.11000 I-0.25000 J0.00000
G1 Z5.00000 F150.00000

G0 X18.03000 Y44.65000
G1 Z0.50000 F150.00000
G1 F300.00000
G2 X18.03000 Y44.65000 Z-0.00000 I-0.25000 J0.00000
G2 X18.03000 Y44.65000 Z-0.50000 I-0.25000 J0.00000
G2 X18.03000 Y44.65000 Z-1.00000 I-0.25000 J0.00000
G2 X18.03000 Y44.65000 Z-1.50000 I-0.25000 J0.00000
G2 X18.03000 Y44.65000 Z-2.00000 I-0.25000 J0.00000
G2 X18.03000 Y44.65000 I-0.25000 J0.00000
G1 Z5.00000 F150.00000

G0 X18.03000 Y47.19000
G1 Z0.50000 F150.00000
G1 F300.00000
G2 X18.03000 Y47.19000 Z-0.00000 I-0.25000 J0.00000
G2 X18.03000 Y47.19000 Z-0.50000 I-0.25000 J0.00000
G2 X18.03000 Y47.19000 Z-1.00000 I-0.25000 J0.00000
G2 X18.03000 Y47.19000 Z-1.50000 I-0.25000 J0.00000
G2 X18.03000 Y47.19000 Z-2.00000 I-0.25000 J0.00000
G2 X18.03000 Y47.19000 I-0.25000 J0.00000
G1 Z5.00000 F150.00000

G0 X18.03000 Y49.73000
G1 Z0.50000 F150.00000
G1 F300.00000
G2 X18.03000 Y49.73000 Z-0.00000 I-0.25000 J0.00000
G2 X18.03000 Y49.73000 Z-0.50000 I-0.25000 J0.00000
G2 X18.03000 Y49.73000 Z-1.00000 I-0.25000 J0.00000
G2 X18.03000 Y49.73000 Z-1.50000 I-0.25000 J0.00000
G2 X18.03000 Y49.73000 Z-2.00000 I-0.25000 J0.00000
G2 X18.03000 Y49.73000 I-0.25000 J0.00000
G1 Z5.00000 F150.00000

G0 X18.03000 Y52.27000
G1 Z0.50000 F150.00000
G1 F300.00000
G2 X18.03000 Y52.27000 Z-0.00000 I-0.25000 J0.00000
G2 X18.03000 Y52.27000 Z-0.50000 I-0.25000 J0.00000
G2 X18.03000 Y52.27000 Z-1.00000 I-0.25000 J0.00000
G2 X18.03000 Y52.27000 Z-1.50000 I-0.25000 J0.00000
G2 X18.03000 Y52.27000 Z-2.00000 I-0.25000 J0.00000
G2 X18.03000 Y52.27000 I-0.25000 J0.00000
G1 Z5.00000 F150.00000

G0 X6.43000 Y6.35000
G1 Z0.50000 F150.00000
G1 F300.00000
G2 X6.43000 Y6.35000 Z-0.00000 I-1.35000 J0.00000
G2 X6.43000 Y6.35000 Z-0.50000 I-1.35000 J0.00000
G2 X6.43000 Y6.35000 Z-1.00000 I-1.35000 J0.00000
G2 X6.43000 Y6.35000 Z-1.50000 I-1.35000 J0.00000
G2 X6.43000 Y6.35000 Z-2.00000 I-1.35000 J0.00000
G2 X6.43000 Y6.35000 I-1.35000 J0.00000
G1 Z5.00000 F150.00000

G0 X6.43000 Y52.07000
G1 Z0.50000 F150.00000
G1 F300.00000
G2 X6.43000 Y52.07000 Z-0.00000 I-1.35000 J0.00000
G2 X6.43000 Y52.07000 Z-0.50000 I-1.35000 J0.00000
G2 X6.43000 Y52.07000 Z-1.00000 I-1.35000 J0.00000
G2 X6.43000 Y52.07000 Z-1.50000 I-1.35000 J0.00000
G2 X6.43000 Y52.07000 Z-2.00000 I-1.35000 J0.00000
G2 X6.43000 Y52.07000 I-1.35000 J0.00000
G1 Z5.00000 F150.00000

G0 X62.31000 Y6.35000
G1 Z0.50000 F150.00000
G1 F300.00000
G2 X62.31000 Y6.35000 Z-0.00000 I-1.35000 J0.00000
G2 X62.31000 Y6.35000 Z-0.50000 I-1.35000 J0.00000
G2 X62.31000 Y6.35000 Z-1.00000 I-1.35000 J0.00000
G2 X62.31000 Y6.35000 Z-1.50000 I-1.35000 J0.00000
G2 X62.31000 Y6.35000 Z-2.00000 I-1.35000 J0.00000
G2 X62.31000 Y6.35000 I-1.35000 J0.00000
G1 Z5.00000 F150.00000

G0 X62.31000 Y52.07000
G1 Z0.50000 F150.00000
G1 F300.00000
G2 X62.31000 Y52.07000 Z-0.00000 I-1.35000 J0.00000
G2 X62.31000 Y52.07000 Z-0.50000 I-1.35000 J0.00000
G2 X62.31000 Y52.07000 Z-1.00000 I-1.35000 J0.00000
G2 X62.31000 Y52.07000 Z-1.50000 I-1.35000 J0.00000
G2 X62.31000 Y52.07000 Z-2.00000 I-1.35000 J0.00000
G2 X62.31000 Y52.07000 I-1.35000 J0.00000
G1 Z5.00000 F150.00000

G00 Z25.000000 ( All done -- retract )

M2      (Program end.)

