( pcb2gcode 2.1.0 )
( Software-independent Gcode )
( This file uses a mill head of 0.50000mm to drill the 2 hole sizes. )
( Hole sizes: [1mm] [2.2mm] )

G94       (Millimeters per minute feed rate.)
G21       (Units == Millimeters.)
G90       (Absolute coordinates.)
S15000    (RPM spindle speed.)

G01 F300.00000 (Feedrate)
G00 Z25.00000 (Retract)
G00 Z5.00000

G0 X13.15000 Y10.36000
G1 Z0.50000 F150.00000
G1 F300.00000
G2 X13.15000 Y10.36000 Z-0.00000 I-0.25000 J0.00000
G2 X13.15000 Y10.36000 Z-0.50000 I-0.25000 J0.00000
G2 X13.15000 Y10.36000 Z-1.00000 I-0.25000 J0.00000
G2 X13.15000 Y10.36000 Z-1.50000 I-0.25000 J0.00000
G2 X13.15000 Y10.36000 Z-2.00000 I-0.25000 J0.00000
G2 X13.15000 Y10.36000 I-0.25000 J0.00000
G1 Z5.00000 F150.00000

G0 X13.15000 Y12.90000
G1 Z0.50000 F150.00000
G1 F300.00000
G2 X13.15000 Y12.90000 Z-0.00000 I-0.25000 J0.00000
G2 X13.15000 Y12.90000 Z-0.50000 I-0.25000 J0.00000
G2 X13.15000 Y12.90000 Z-1.00000 I-0.25000 J0.00000
G2 X13.15000 Y12.90000 Z-1.50000 I-0.25000 J0.00000
G2 X13.15000 Y12.90000 Z-2.00000 I-0.25000 J0.00000
G2 X13.15000 Y12.90000 I-0.25000 J0.00000
G1 Z5.00000 F150.00000

G0 X13.15000 Y20.52000
G1 Z0.50000 F150.00000
G1 F300.00000
G2 X13.15000 Y20.52000 Z-0.00000 I-0.25000 J0.00000
G2 X13.15000 Y20.52000 Z-0.50000 I-0.25000 J0.00000
G2 X13.15000 Y20.52000 Z-1.00000 I-0.25000 J0.00000
G2 X13.15000 Y20.52000 Z-1.50000 I-0.25000 J0.00000
G2 X13.15000 Y20.52000 Z-2.00000 I-0.25000 J0.00000
G2 X13.15000 Y20.52000 I-0.25000 J0.00000
G1 Z5.00000 F150.00000

G0 X13.15000 Y30.68000
G1 Z0.50000 F150.00000
G1 F300.00000
G2 X13.15000 Y30.68000 Z-0.00000 I-0.25000 J0.00000
G2 X13.15000 Y30.68000 Z-0.50000 I-0.25000 J0.00000
G2 X13.15000 Y30.68000 Z-1.00000 I-0.25000 J0.00000
G2 X13.15000 Y30.68000 Z-1.50000 I-0.25000 J0.00000
G2 X13.15000 Y30.68000 Z-2.00000 I-0.25000 J0.00000
G2 X13.15000 Y30.68000 I-0.25000 J0.00000
G1 Z5.00000 F150.00000

G0 X13.15000 Y33.22000
G1 Z0.50000 F150.00000
G1 F300.00000
G2 X13.15000 Y33.22000 Z-0.00000 I-0.25000 J0.00000
G2 X13.15000 Y33.22000 Z-0.50000 I-0.25000 J0.00000
G2 X13.15000 Y33.22000 Z-1.00000 I-0.25000 J0.00000
G2 X13.15000 Y33.22000 Z-1.50000 I-0.25000 J0.00000
G2 X13.15000 Y33.22000 Z-2.00000 I-0.25000 J0.00000
G2 X13.15000 Y33.22000 I-0.25000 J0.00000
G1 Z5.00000 F150.00000

G0 X13.15000 Y35.76000
G1 Z0.50000 F150.00000
G1 F300.00000
G2 X13.15000 Y35.76000 Z-0.00000 I-0.25000 J0.00000
G2 X13.15000 Y35.76000 Z-0.50000 I-0.25000 J0.00000
G2 X13.15000 Y35.76000 Z-1.00000 I-0.25000 J0.00000
G2 X13.15000 Y35.76000 Z-1.50000 I-0.25000 J0.00000
G2 X13.15000 Y35.76000 Z-2.00000 I-0.25000 J0.00000
G2 X13.15000 Y35.76000 I-0.25000 J0.00000
G1 Z5.00000 F150.00000

G0 X13.15000 Y38.30000
G1 Z0.50000 F150.00000
G1 F300.00000
G2 X13.15000 Y38.30000 Z-0.00000 I-0.25000 J0.00000
G2 X13.15000 Y38.30000 Z-0.50000 I-0.25000 J0.00000
G2 X13.15000 Y38.30000 Z-1.00000 I-0.25000 J0.00000
G2 X13.15000 Y38.30000 Z-1.50000 I-0.25000 J0.00000
G2 X13.15000 Y38.30000 Z-2.00000 I-0.25000 J0.00000
G2 X13.15000 Y38.30000 I-0.25000 J0.00000
G1 Z5.00000 F150.00000

G0 X13.15000 Y40.84000
G1 Z0.50000 F150.00000
G1 F300.00000
G2 X13.15000 Y40.84000 Z-0.00000 I-0.25000 J0.00000
G2 X13.15000 Y40.84000 Z-0.50000 I-0.25000 J0.00000
G2 X13.15000 Y40.84000 Z-1.00000 I-0.25000 J0.00000
G2 X13.15000 Y40.84000 Z-1.50000 I-0.25000 J0.00000
G2 X13.15000 Y40.84000 Z-2.00000 I-0.25000 J0.00000
G2 X13.15000 Y40.84000 I-0.25000 J0.00000
G1 Z5.00000 F150.00000

G0 X13.15000 Y43.38000
G1 Z0.50000 F150.00000
G1 F300.00000
G2 X13.15000 Y43.38000 Z-0.00000 I-0.25000 J0.00000
G2 X13.15000 Y43.38000 Z-0.50000 I-0.25000 J0.00000
G2 X13.15000 Y43.38000 Z-1.00000 I-0.25000 J0.00000
G2 X13.15000 Y43.38000 Z-1.50000 I-0.25000 J0.00000
G2 X13.15000 Y43.38000 Z-2.00000 I-0.25000 J0.00000
G2 X13.15000 Y43.38000 I-0.25000 J0.00000
G1 Z5.00000 F150.00000

G0 X13.15000 Y45.92000
G1 Z0.50000 F150.00000
G1 F300.00000
G2 X13.15000 Y45.92000 Z-0.00000 I-0.25000 J0.00000
G2 X13.15000 Y45.92000 Z-0.50000 I-0.25000 J0.00000
G2 X13.15000 Y45.92000 Z-1.00000 I-0.25000 J0.00000
G2 X13.15000 Y45.92000 Z-1.50000 I-0.25000 J0.00000
G2 X13.15000 Y45.92000 Z-2.00000 I-0.25000 J0.00000
G2 X13.15000 Y45.92000 I-0.25000 J0.00000
G1 Z5.00000 F150.00000

G0 X25.85000 Y51.00000
G1 Z0.50000 F150.00000
G1 F300.00000
G2 X25.85000 Y51.00000 Z-0.00000 I-0.25000 J0.00000
G2 X25.85000 Y51.00000 Z-0.50000 I-0.25000 J0.00000
G2 X25.85000 Y51.00000 Z-1.00000 I-0.25000 J0.00000
G2 X25.85000 Y51.00000 Z-1.50000 I-0.25000 J0.00000
G2 X25.85000 Y51.00000 Z-2.00000 I-0.25000 J0.00000
G2 X25.85000 Y51.00000 I-0.25000 J0.00000
G1 Z5.00000 F150.00000

G0 X25.85000 Y48.46000
G1 Z0.50000 F150.00000
G1 F300.00000
G2 X25.85000 Y48.46000 Z-0.00000 I-0.25000 J0.00000
G2 X25.85000 Y48.46000 Z-0.50000 I-0.25000 J0.00000
G2 X25.85000 Y48.46000 Z-1.00000 I-0.25000 J0.00000
G2 X25.85000 Y48.46000 Z-1.50000 I-0.25000 J0.00000
G2 X25.85000 Y48.46000 Z-2.00000 I-0.25000 J0.00000
G2 X25.85000 Y48.46000 I-0.25000 J0.00000
G1 Z5.00000 F150.00000

G0 X25.85000 Y45.92000
G1 Z0.50000 F150.00000
G1 F300.00000
G2 X25.85000 Y45.92000 Z-0.00000 I-0.25000 J0.00000
G2 X25.85000 Y45.92000 Z-0.50000 I-0.25000 J0.00000
G2 X25.85000 Y45.92000 Z-1.00000 I-0.25000 J0.00000
G2 X25.85000 Y45.92000 Z-1.50000 I-0.25000 J0.00000
G2 X25.85000 Y45.92000 Z-2.00000 I-0.25000 J0.00000
G2 X25.85000 Y45.92000 I-0.25000 J0.00000
G1 Z5.00000 F150.00000

G0 X25.85000 Y43.38000
G1 Z0.50000 F150.00000
G1 F300.00000
G2 X25.85000 Y43.38000 Z-0.00000 I-0.25000 J0.00000
G2 X25.85000 Y43.38000 Z-0.50000 I-0.25000 J0.00000
G2 X25.85000 Y43.38000 Z-1.00000 I-0.25000 J0.00000
G2 X25.85000 Y43.38000 Z-1.50000 I-0.25000 J0.00000
G2 X25.85000 Y43.38000 Z-2.00000 I-0.25000 J0.00000
G2 X25.85000 Y43.38000 I-0.25000 J0.00000
G1 Z5.00000 F150.00000

G0 X25.85000 Y40.84000
G1 Z0.50000 F150.00000
G1 F300.00000
G2 X25.85000 Y40.84000 Z-0.00000 I-0.25000 J0.00000
G2 X25.85000 Y40.84000 Z-0.50000 I-0.25000 J0.00000
G2 X25.85000 Y40.84000 Z-1.00000 I-0.25000 J0.00000
G2 X25.85000 Y40.84000 Z-1.50000 I-0.25000 J0.00000
G2 X25.85000 Y40.84000 Z-2.00000 I-0.25000 J0.00000
G2 X25.85000 Y40.84000 I-0.25000 J0.00000
G1 Z5.00000 F150.00000

G0 X25.85000 Y38.30000
G1 Z0.50000 F150.00000
G1 F300.00000
G2 X25.85000 Y38.30000 Z-0.00000 I-0.25000 J0.00000
G2 X25.85000 Y38.30000 Z-0.50000 I-0.25000 J0.00000
G2 X25.85000 Y38.30000 Z-1.00000 I-0.25000 J0.00000
G2 X25.85000 Y38.30000 Z-1.50000 I-0.25000 J0.00000
G2 X25.85000 Y38.30000 Z-2.00000 I-0.25000 J0.00000
G2 X25.85000 Y38.30000 I-0.25000 J0.00000
G1 Z5.00000 F150.00000

G0 X25.85000 Y35.76000
G1 Z0.50000 F150.00000
G1 F300.00000
G2 X25.85000 Y35.76000 Z-0.00000 I-0.25000 J0.00000
G2 X25.85000 Y35.76000 Z-0.50000 I-0.25000 J0.00000
G2 X25.85000 Y35.76000 Z-1.00000 I-0.25000 J0.00000
G2 X25.85000 Y35.76000 Z-1.50000 I-0.25000 J0.00000
G2 X25.85000 Y35.76000 Z-2.00000 I-0.25000 J0.00000
G2 X25.85000 Y35.76000 I-0.25000 J0.00000
G1 Z5.00000 F150.00000

G0 X25.85000 Y33.22000
G1 Z0.50000 F150.00000
G1 F300.00000
G2 X25.85000 Y33.22000 Z-0.00000 I-0.25000 J0.00000
G2 X25.85000 Y33.22000 Z-0.50000 I-0.25000 J0.00000
G2 X25.85000 Y33.22000 Z-1.00000 I-0.25000 J0.00000
G2 X25.85000 Y33.22000 Z-1.50000 I-0.25000 J0.00000
G2 X25.85000 Y33.22000 Z-2.00000 I-0.25000 J0.00000
G2 X25.85000 Y33.22000 I-0.25000 J0.00000
G1 Z5.00000 F150.00000

G0 X25.85000 Y30.68000
G1 Z0.50000 F150.00000
G1 F300.00000
G2 X25.85000 Y30.68000 Z-0.00000 I-0.25000 J0.00000
G2 X25.85000 Y30.68000 Z-0.50000 I-0.25000 J0.00000
G2 X25.85000 Y30.68000 Z-1.00000 I-0.25000 J0.00000
G2 X25.85000 Y30.68000 Z-1.50000 I-0.25000 J0.00000
G2 X25.85000 Y30.68000 Z-2.00000 I-0.25000 J0.00000
G2 X25.85000 Y30.68000 I-0.25000 J0.00000
G1 Z5.00000 F150.00000

G0 X25.85000 Y28.14000
G1 Z0.50000 F150.00000
G1 F300.00000
G2 X25.85000 Y28.14000 Z-0.00000 I-0.25000 J0.00000
G2 X25.85000 Y28.14000 Z-0.50000 I-0.25000 J0.00000
G2 X25.85000 Y28.14000 Z-1.00000 I-0.25000 J0.00000
G2 X25.85000 Y28.14000 Z-1.50000 I-0.25000 J0.00000
G2 X25.85000 Y28.14000 Z-2.00000 I-0.25000 J0.00000
G2 X25.85000 Y28.14000 I-0.25000 J0.00000
G1 Z5.00000 F150.00000

G0 X25.85000 Y25.60000
G1 Z0.50000 F150.00000
G1 F300.00000
G2 X25.85000 Y25.60000 Z-0.00000 I-0.25000 J0.00000
G2 X25.85000 Y25.60000 Z-0.50000 I-0.25000 J0.00000
G2 X25.85000 Y25.60000 Z-1.00000 I-0.25000 J0.00000
G2 X25.85000 Y25.60000 Z-1.50000 I-0.25000 J0.00000
G2 X25.85000 Y25.60000 Z-2.00000 I-0.25000 J0.00000
G2 X25.85000 Y25.60000 I-0.25000 J0.00000
G1 Z5.00000 F150.00000

G0 X25.85000 Y23.06000
G1 Z0.50000 F150.00000
G1 F300.00000
G2 X25.85000 Y23.06000 Z-0.00000 I-0.25000 J0.00000
G2 X25.85000 Y23.06000 Z-0.50000 I-0.25000 J0.00000
G2 X25.85000 Y23.06000 Z-1.00000 I-0.25000 J0.00000
G2 X25.85000 Y23.06000 Z-1.50000 I-0.25000 J0.00000
G2 X25.85000 Y23.06000 Z-2.00000 I-0.25000 J0.00000
G2 X25.85000 Y23.06000 I-0.25000 J0.00000
G1 Z5.00000 F150.00000

G0 X25.85000 Y20.52000
G1 Z0.50000 F150.00000
G1 F300.00000
G2 X25.85000 Y20.52000 Z-0.00000 I-0.25000 J0.00000
G2 X25.85000 Y20.52000 Z-0.50000 I-0.25000 J0.00000
G2 X25.85000 Y20.52000 Z-1.00000 I-0.25000 J0.00000
G2 X25.85000 Y20.52000 Z-1.50000 I-0.25000 J0.00000
G2 X25.85000 Y20.52000 Z-2.00000 I-0.25000 J0.00000
G2 X25.85000 Y20.52000 I-0.25000 J0.00000
G1 Z5.00000 F150.00000

G0 X25.85000 Y17.98000
G1 Z0.50000 F150.00000
G1 F300.00000
G2 X25.85000 Y17.98000 Z-0.00000 I-0.25000 J0.00000
G2 X25.85000 Y17.98000 Z-0.50000 I-0.25000 J0.00000
G2 X25.85000 Y17.98000 Z-1.00000 I-0.25000 J0.00000
G2 X25.85000 Y17.98000 Z-1.50000 I-0.25000 J0.00000
G2 X25.85000 Y17.98000 Z-2.00000 I-0.25000 J0.00000
G2 X25.85000 Y17.98000 I-0.25000 J0.00000
G1 Z5.00000 F150.00000

G0 X25.85000 Y15.44000
G1 Z0.50000 F150.00000
G1 F300.00000
G2 X25.85000 Y15.44000 Z-0.00000 I-0.25000 J0.00000
G2 X25.85000 Y15.44000 Z-0.50000 I-0.25000 J0.00000
G2 X25.85000 Y15.44000 Z-1.00000 I-0.25000 J0.00000
G2 X25.85000 Y15.44000 Z-1.50000 I-0.25000 J0.00000
G2 X25.85000 Y15.44000 Z-2.00000 I-0.25000 J0.00000
G2 X25.85000 Y15.44000 I-0.25000 J0.00000
G1 Z5.00000 F150.00000

G0 X25.85000 Y12.90000
G1 Z0.50000 F150.00000
G1 F300.00000
G2 X25.85000 Y12.90000 Z-0.00000 I-0.25000 J0.00000
G2 X25.85000 Y12.90000 Z-0.50000 I-0.25000 J0.00000
G2 X25.85000 Y12.90000 Z-1.00000 I-0.25000 J0.00000
G2 X25.85000 Y12.90000 Z-1.50000 I-0.25000 J0.00000
G2 X25.85000 Y12.90000 Z-2.00000 I-0.25000 J0.00000
G2 X25.85000 Y12.90000 I-0.25000 J0.00000
G1 Z5.00000 F150.00000

G0 X25.85000 Y10.36000
G1 Z0.50000 F150.00000
G1 F300.00000
G2 X25.85000 Y10.36000 Z-0.00000 I-0.25000 J0.00000
G2 X25.85000 Y10.36000 Z-0.50000 I-0.25000 J0.00000
G2 X25.85000 Y10.36000 Z-1.00000 I-0.25000 J0.00000
G2 X25.85000 Y10.36000 Z-1.50000 I-0.25000 J0.00000
G2 X25.85000 Y10.36000 Z-2.00000 I-0.25000 J0.00000
G2 X25.85000 Y10.36000 I-0.25000 J0.00000
G1 Z5.00000 F150.00000

G0 X25.85000 Y7.82000
G1 Z0.50000 F150.00000
G1 F300.00000
G2 X25.85000 Y7.82000 Z-0.00000 I-0.25000 J0.00000
G2 X25.85000 Y7.82000 Z-0.50000 I-0.25000 J0.00000
G2 X25.85000 Y7.82000 Z-1.00000 I-0.25000 J0.00000
G2 X25.85000 Y7.82000 Z-1.50000 I-0.25000 J0.00000
G2 X25.85000 Y7.82000 Z-2.00000 I-0.25000 J0.00000
G2 X25.85000 Y7.82000 I-0.25000 J0.00000
G1 Z5.00000 F150.00000

G0 X25.85000 Y5.28000
G1 Z0.50000 F150.00000
G1 F300.00000
G2 X25.85000 Y5.28000 Z-0.00000 I-0.25000 J0.00000
G2 X25.85000 Y5.28000 Z-0.50000 I-0.25000 J0.00000
G2 X25.85000 Y5.28000 Z-1.00000 I-0.25000 J0.00000
G2 X25.85000 Y5.28000 Z-1.50000 I-0.25000 J0.00000
G2 X25.85000 Y5.28000 Z-2.00000 I-0.25000 J0.00000
G2 X25.85000 Y5.28000 I-0.25000 J0.00000
G1 Z5.00000 F150.00000

G0 X25.85000 Y2.74000
G1 Z0.50000 F150.00000
G1 F300.00000
G2 X25.85000 Y2.74000 Z-0.00000 I-0.25000 J0.00000
G2 X25.85000 Y2.74000 Z-0.50000 I-0.25000 J0.00000
G2 X25.85000 Y2.74000 Z-1.00000 I-0.25000 J0.00000
G2 X25.85000 Y2.74000 Z-1.50000 I-0.25000 J0.00000
G2 X25.85000 Y2.74000 Z-2.00000 I-0.25000 J0.00000
G2 X25.85000 Y2.74000 I-0.25000 J0.00000
G1 Z5.00000 F150.00000

G0 X51.25000 Y2.74000
G1 Z0.50000 F150.00000
G1 F300.00000
G2 X51.25000 Y2.74000 Z-0.00000 I-0.25000 J0.00000
G2 X51.25000 Y2.74000 Z-0.50000 I-0.25000 J0.00000
G2 X51.25000 Y2.74000 Z-1.00000 I-0.25000 J0.00000
G2 X51.25000 Y2.74000 Z-1.50000 I-0.25000 J0.00000
G2 X51.25000 Y2.74000 Z-2.00000 I-0.25000 J0.00000
G2 X51.25000 Y2.74000 I-0.25000 J0.00000
G1 Z5.00000 F150.00000

G0 X51.25000 Y5.28000
G1 Z0.50000 F150.00000
G1 F300.00000
G2 X51.25000 Y5.28000 Z-0.00000 I-0.25000 J0.00000
G2 X51.25000 Y5.28000 Z-0.50000 I-0.25000 J0.00000
G2 X51.25000 Y5.28000 Z-1.00000 I-0.25000 J0.00000
G2 X51.25000 Y5.28000 Z-1.50000 I-0.25000 J0.00000
G2 X51.25000 Y5.28000 Z-2.00000 I-0.25000 J0.00000
G2 X51.25000 Y5.28000 I-0.25000 J0.00000
G1 Z5.00000 F150.00000

G0 X51.25000 Y7.82000
G1 Z0.50000 F150.00000
G1 F300.00000
G2 X51.25000 Y7.82000 Z-0.00000 I-0.25000 J0.00000
G2 X51.25000 Y7.82000 Z-0.50000 I-0.25000 J0.00000
G2 X51.25000 Y7.82000 Z-1.00000 I-0.25000 J0.00000
G2 X51.25000 Y7.82000 Z-1.50000 I-0.25000 J0.00000
G2 X51.25000 Y7.82000 Z-2.00000 I-0.25000 J0.00000
G2 X51.25000 Y7.82000 I-0.25000 J0.00000
G1 Z5.00000 F150.00000

G0 X51.25000 Y10.36000
G1 Z0.50000 F150.00000
G1 F300.00000
G2 X51.25000 Y10.36000 Z-0.00000 I-0.25000 J0.00000
G2 X51.25000 Y10.36000 Z-0.50000 I-0.25000 J0.00000
G2 X51.25000 Y10.36000 Z-1.00000 I-0.25000 J0.00000
G2 X51.25000 Y10.36000 Z-1.50000 I-0.25000 J0.00000
G2 X51.25000 Y10.36000 Z-2.00000 I-0.25000 J0.00000
G2 X51.25000 Y10.36000 I-0.25000 J0.00000
G1 Z5.00000 F150.00000

G0 X51.25000 Y12.90000
G1 Z0.50000 F150.00000
G1 F300.00000
G2 X51.25000 Y12.90000 Z-0.00000 I-0.25000 J0.00000
G2 X51.25000 Y12.90000 Z-0.50000 I-0.25000 J0.00000
G2 X51.25000 Y12.90000 Z-1.00000 I-0.25000 J0.00000
G2 X51.25000 Y12.90000 Z-1.50000 I-0.25000 J0.00000
G2 X51.25000 Y12.90000 Z-2.00000 I-0.25000 J0.00000
G2 X51.25000 Y12.90000 I-0.25000 J0.00000
G1 Z5.00000 F150.00000

G0 X51.25000 Y15.44000
G1 Z0.50000 F150.00000
G1 F300.00000
G2 X51.25000 Y15.44000 Z-0.00000 I-0.25000 J0.00000
G2 X51.25000 Y15.44000 Z-0.50000 I-0.25000 J0.00000
G2 X51.25000 Y15.44000 Z-1.00000 I-0.25000 J0.00000
G2 X51.25000 Y15.44000 Z-1.50000 I-0.25000 J0.00000
G2 X51.25000 Y15.44000 Z-2.00000 I-0.25000 J0.00000
G2 X51.25000 Y15.44000 I-0.25000 J0.00000
G1 Z5.00000 F150.00000

G0 X51.25000 Y17.98000
G1 Z0.50000 F150.00000
G1 F300.00000
G2 X51.25000 Y17.98000 Z-0.00000 I-0.25000 J0.00000
G2 X51.25000 Y17.98000 Z-0.50000 I-0.25000 J0.00000
G2 X51.25000 Y17.98000 Z-1.00000 I-0.25000 J0.00000
G2 X51.25000 Y17.98000 Z-1.50000 I-0.25000 J0.00000
G2 X51.25000 Y17.98000 Z-2.00000 I-0.25000 J0.00000
G2 X51.25000 Y17.98000 I-0.25000 J0.00000
G1 Z5.00000 F150.00000

G0 X51.25000 Y20.52000
G1 Z0.50000 F150.00000
G1 F300.00000
G2 X51.25000 Y20.52000 Z-0.00000 I-0.25000 J0.00000
G2 X51.25000 Y20.52000 Z-0.50000 I-0.25000 J0.00000
G2 X51.25000 Y20.52000 Z-1.00000 I-0.25000 J0.00000
G2 X51.25000 Y20.52000 Z-1.50000 I-0.25000 J0.00000
G2 X51.25000 Y20.52000 Z-2.00000 I-0.25000 J0.00000
G2 X51.25000 Y20.52000 I-0.25000 J0.00000
G1 Z5.00000 F150.00000

G0 X51.25000 Y23.06000
G1 Z0.50000 F150.00000
G1 F300.00000
G2 X51.25000 Y23.06000 Z-0.00000 I-0.25000 J0.00000
G2 X51.25000 Y23.06000 Z-0.50000 I-0.25000 J0.00000
G2 X51.25000 Y23.06000 Z-1.00000 I-0.25000 J0.00000
G2 X51.25000 Y23.06000 Z-1.50000 I-0.25000 J0.00000
G2 X51.25000 Y23.06000 Z-2.00000 I-0.25000 J0.00000
G2 X51.25000 Y23.06000 I-0.25000 J0.00000
G1 Z5.00000 F150.00000

G0 X51.25000 Y25.60000
G1 Z0.50000 F150.00000
G1 F300.00000
G2 X51.25000 Y25.60000 Z-0.00000 I-0.25000 J0.00000
G2 X51.25000 Y25.60000 Z-0.50000 I-0.25000 J0.00000
G2 X51.25000 Y25.60000 Z-1.00000 I-0.25000 J0.00000
G2 X51.25000 Y25.60000 Z-1.50000 I-0.25000 J0.00000
G2 X51.25000 Y25.60000 Z-2.00000 I-0.25000 J0.00000
G2 X51.25000 Y25.60000 I-0.25000 J0.00000
G1 Z5.00000 F150.00000

G0 X51.25000 Y28.14000
G1 Z0.50000 F150.00000
G1 F300.00000
G2 X51.25000 Y28.14000 Z-0.00000 I-0.25000 J0.00000
G2 X51.25000 Y28.14000 Z-0.50000 I-0.25000 J0.00000
G2 X51.25000 Y28.14000 Z-1.00000 I-0.25000 J0.00000
G2 X51.25000 Y28.14000 Z-1.50000 I-0.25000 J0.00000
G2 X51.25000 Y28.14000 Z-2.00000 I-0.25000 J0.00000
G2 X51.25000 Y28.14000 I-0.25000 J0.00000
G1 Z5.00000 F150.00000

G0 X51.25000 Y30.68000
G1 Z0.50000 F150.00000
G1 F300.00000
G2 X51.25000 Y30.68000 Z-0.00000 I-0.25000 J0.00000
G2 X51.25000 Y30.68000 Z-0.50000 I-0.25000 J0.00000
G2 X51.25000 Y30.68000 Z-1.00000 I-0.25000 J0.00000
G2 X51.25000 Y30.68000 Z-1.50000 I-0.25000 J0.00000
G2 X51.25000 Y30.68000 Z-2.00000 I-0.25000 J0.00000
G2 X51.25000 Y30.68000 I-0.25000 J0.00000
G1 Z5.00000 F150.00000

G0 X51.25000 Y33.22000
G1 Z0.50000 F150.00000
G1 F300.00000
G2 X51.25000 Y33.22000 Z-0.00000 I-0.25000 J0.00000
G2 X51.25000 Y33.22000 Z-0.50000 I-0.25000 J0.00000
G2 X51.25000 Y33.22000 Z-1.00000 I-0.25000 J0.00000
G2 X51.25000 Y33.22000 Z-1.50000 I-0.25000 J0.00000
G2 X51.25000 Y33.22000 Z-2.00000 I-0.25000 J0.00000
G2 X51.25000 Y33.22000 I-0.25000 J0.00000
G1 Z5.00000 F150.00000

G0 X51.25000 Y35.76000
G1 Z0.50000 F150.00000
G1 F300.00000
G2 X51.25000 Y35.76000 Z-0.00000 I-0.25000 J0.00000
G2 X51.25000 Y35.76000 Z-0.50000 I-0.25000 J0.00000
G2 X51.25000 Y35.76000 Z-1.00000 I-0.25000 J0.00000
G2 X51.25000 Y35.76000 Z-1.50000 I-0.25000 J0.00000
G2 X51.25000 Y35.76000 Z-2.00000 I-0.25000 J0.00000
G2 X51.25000 Y35.76000 I-0.25000 J0.00000
G1 Z5.00000 F150.00000

G0 X51.25000 Y38.30000
G1 Z0.50000 F150.00000
G1 F300.00000
G2 X51.25000 Y38.30000 Z-0.00000 I-0.25000 J0.00000
G2 X51.25000 Y38.30000 Z-0.50000 I-0.25000 J0.00000
G2 X51.25000 Y38.30000 Z-1.00000 I-0.25000 J0.00000
G2 X51.25000 Y38.30000 Z-1.50000 I-0.25000 J0.00000
G2 X51.25000 Y38.30000 Z-2.00000 I-0.25000 J0.00000
G2 X51.25000 Y38.30000 I-0.25000 J0.00000
G1 Z5.00000 F150.00000

G0 X51.25000 Y40.84000
G1 Z0.50000 F150.00000
G1 F300.00000
G2 X51.25000 Y40.84000 Z-0.00000 I-0.25000 J0.00000
G2 X51.25000 Y40.84000 Z-0.50000 I-0.25000 J0.00000
G2 X51.25000 Y40.84000 Z-1.00000 I-0.25000 J0.00000
G2 X51.25000 Y40.84000 Z-1.50000 I-0.25000 J0.00000
G2 X51.25000 Y40.84000 Z-2.00000 I-0.25000 J0.00000
G2 X51.25000 Y40.84000 I-0.25000 J0.00000
G1 Z5.00000 F150.00000

G0 X51.25000 Y43.38000
G1 Z0.50000 F150.00000
G1 F300.00000
G2 X51.25000 Y43.38000 Z-0.00000 I-0.25000 J0.00000
G2 X51.25000 Y43.38000 Z-0.50000 I-0.25000 J0.00000
G2 X51.25000 Y43.38000 Z-1.00000 I-0.25000 J0.00000
G2 X51.25000 Y43.38000 Z-1.50000 I-0.25000 J0.00000
G2 X51.25000 Y43.38000 Z-2.00000 I-0.25000 J0.00000
G2 X51.25000 Y43.38000 I-0.25000 J0.00000
G1 Z5.00000 F150.00000

G0 X51.25000 Y45.92000
G1 Z0.50000 F150.00000
G1 F300.00000
G2 X51.25000 Y45.92000 Z-0.00000 I-0.25000 J0.00000
G2 X51.25000 Y45.92000 Z-0.50000 I-0.25000 J0.00000
G2 X51.25000 Y45.92000 Z-1.00000 I-0.25000 J0.00000
G2 X51.25000 Y45.92000 Z-1.50000 I-0.25000 J0.00000
G2 X51.25000 Y45.92000 Z-2.00000 I-0.25000 J0.00000
G2 X51.25000 Y45.92000 I-0.25000 J0.00000
G1 Z5.00000 F150.00000

G0 X51.25000 Y48.46000
G1 Z0.50000 F150.00000
G1 F300.00000
G2 X51.25000 Y48.46000 Z-0.00000 I-0.25000 J0.00000
G2 X51.25000 Y48.46000 Z-0.50000 I-0.25000 J0.00000
G2 X51.25000 Y48.46000 Z-1.00000 I-0.25000 J0.00000
G2 X51.25000 Y48.46000 Z-1.50000 I-0.25000 J0.00000
G2 X51.25000 Y48.46000 Z-2.00000 I-0.25000 J0.00000
G2 X51.25000 Y48.46000 I-0.25000 J0.00000
G1 Z5.00000 F150.00000

G0 X51.25000 Y51.00000
G1 Z0.50000 F150.00000
G1 F300.00000
G2 X51.25000 Y51.00000 Z-0.00000 I-0.25000 J0.00000
G2 X51.25000 Y51.00000 Z-0.50000 I-0.25000 J0.00000
G2 X51.25000 Y51.00000 Z-1.00000 I-0.25000 J0.00000
G2 X51.25000 Y51.00000 Z-1.50000 I-0.25000 J0.00000
G2 X51.25000 Y51.00000 Z-2.00000 I-0.25000 J0.00000
G2 X51.25000 Y51.00000 I-0.25000 J0.00000
G1 Z5.00000 F150.00000

G0 X6.13000 Y5.28000
G1 Z0.50000 F150.00000
G1 F300.00000
G2 X6.13000 Y5.28000 Z-0.00000 I-0.85000 J0.00000
G2 X6.13000 Y5.28000 Z-0.50000 I-0.85000 J0.00000
G2 X6.13000 Y5.28000 Z-1.00000 I-0.85000 J0.00000
G2 X6.13000 Y5.28000 Z-1.50000 I-0.85000 J0.00000
G2 X6.13000 Y5.28000 Z-2.00000 I-0.85000 J0.00000
G2 X6.13000 Y5.28000 I-0.85000 J0.00000
G1 Z5.00000 F150.00000

G0 X56.93000 Y5.28000
G1 Z0.50000 F150.00000
G1 F300.00000
G2 X56.93000 Y5.28000 Z-0.00000 I-0.85000 J0.00000
G2 X56.93000 Y5.28000 Z-0.50000 I-0.85000 J0.00000
G2 X56.93000 Y5.28000 Z-1.00000 I-0.85000 J0.00000
G2 X56.93000 Y5.28000 Z-1.50000 I-0.85000 J0.00000
G2 X56.93000 Y5.28000 Z-2.00000 I-0.85000 J0.00000
G2 X56.93000 Y5.28000 I-0.85000 J0.00000
G1 Z5.00000 F150.00000

G0 X6.13000 Y63.70000
G1 Z0.50000 F150.00000
G1 F300.00000
G2 X6.13000 Y63.70000 Z-0.00000 I-0.85000 J0.00000
G2 X6.13000 Y63.70000 Z-0.50000 I-0.85000 J0.00000
G2 X6.13000 Y63.70000 Z-1.00000 I-0.85000 J0.00000
G2 X6.13000 Y63.70000 Z-1.50000 I-0.85000 J0.00000
G2 X6.13000 Y63.70000 Z-2.00000 I-0.85000 J0.00000
G2 X6.13000 Y63.70000 I-0.85000 J0.00000
G1 Z5.00000 F150.00000

G0 X56.93000 Y63.70000
G1 Z0.50000 F150.00000
G1 F300.00000
G2 X56.93000 Y63.70000 Z-0.00000 I-0.85000 J0.00000
G2 X56.93000 Y63.70000 Z-0.50000 I-0.85000 J0.00000
G2 X56.93000 Y63.70000 Z-1.00000 I-0.85000 J0.00000
G2 X56.93000 Y63.70000 Z-1.50000 I-0.85000 J0.00000
G2 X56.93000 Y63.70000 Z-2.00000 I-0.85000 J0.00000
G2 X56.93000 Y63.70000 I-0.85000 J0.00000
G1 Z5.00000 F150.00000

G00 Z25.000000 ( All done -- retract )

M2      (Program end.)

