( pcb2gcode 2.1.0 )
( Software-independent Gcode )
( This file uses a mill head of 0.50000mm to drill the 2 hole sizes. )
( Hole sizes: [1 mm] [2.2 mm] )

G94       (Millimeters per minute feed rate.)
G21       (Units == Millimeters.)
G90       (Absolute coordinates.)
S15000    (RPM spindle speed.)

G01 F300.00000 (Feedrate)
G00 Z25.00000 (Retract)
T1
M5        (Spindle stop.)
G04 P1.00000
(MSG, Change tool bit to drill size 0.50000mm)
M6        (Tool change.)
M0        (Temporary machine stop.)
M3        (Spindle on clockwise.)
G04 P1.00000
G00 Z5.00000

G0 X-126.75000 Y-63.50000
G1 Z0.50000 F150.00000
G1 F300.00000
G2 X-126.75000 Y-63.50000 Z-0.00000 I-0.25000 J0.00000
G2 X-126.75000 Y-63.50000 Z-0.50000 I-0.25000 J0.00000
G2 X-126.75000 Y-63.50000 Z-1.00000 I-0.25000 J0.00000
G2 X-126.75000 Y-63.50000 Z-1.50000 I-0.25000 J0.00000
G2 X-126.75000 Y-63.50000 Z-2.00000 I-0.25000 J0.00000
G2 X-126.75000 Y-63.50000 I-0.25000 J0.00000
G1 Z5.00000 F150.00000

G0 X-126.75000 Y-66.04000
G1 Z0.50000 F150.00000
G1 F300.00000
G2 X-126.75000 Y-66.04000 Z-0.00000 I-0.25000 J0.00000
G2 X-126.75000 Y-66.04000 Z-0.50000 I-0.25000 J0.00000
G2 X-126.75000 Y-66.04000 Z-1.00000 I-0.25000 J0.00000
G2 X-126.75000 Y-66.04000 Z-1.50000 I-0.25000 J0.00000
G2 X-126.75000 Y-66.04000 Z-2.00000 I-0.25000 J0.00000
G2 X-126.75000 Y-66.04000 I-0.25000 J0.00000
G1 Z5.00000 F150.00000

G0 X-126.75000 Y-68.58000
G1 Z0.50000 F150.00000
G1 F300.00000
G2 X-126.75000 Y-68.58000 Z-0.00000 I-0.25000 J0.00000
G2 X-126.75000 Y-68.58000 Z-0.50000 I-0.25000 J0.00000
G2 X-126.75000 Y-68.58000 Z-1.00000 I-0.25000 J0.00000
G2 X-126.75000 Y-68.58000 Z-1.50000 I-0.25000 J0.00000
G2 X-126.75000 Y-68.58000 Z-2.00000 I-0.25000 J0.00000
G2 X-126.75000 Y-68.58000 I-0.25000 J0.00000
G1 Z5.00000 F150.00000

G0 X-126.75000 Y-71.12000
G1 Z0.50000 F150.00000
G1 F300.00000
G2 X-126.75000 Y-71.12000 Z-0.00000 I-0.25000 J0.00000
G2 X-126.75000 Y-71.12000 Z-0.50000 I-0.25000 J0.00000
G2 X-126.75000 Y-71.12000 Z-1.00000 I-0.25000 J0.00000
G2 X-126.75000 Y-71.12000 Z-1.50000 I-0.25000 J0.00000
G2 X-126.75000 Y-71.12000 Z-2.00000 I-0.25000 J0.00000
G2 X-126.75000 Y-71.12000 I-0.25000 J0.00000
G1 Z5.00000 F150.00000

G0 X-126.75000 Y-73.66000
G1 Z0.50000 F150.00000
G1 F300.00000
G2 X-126.75000 Y-73.66000 Z-0.00000 I-0.25000 J0.00000
G2 X-126.75000 Y-73.66000 Z-0.50000 I-0.25000 J0.00000
G2 X-126.75000 Y-73.66000 Z-1.00000 I-0.25000 J0.00000
G2 X-126.75000 Y-73.66000 Z-1.50000 I-0.25000 J0.00000
G2 X-126.75000 Y-73.66000 Z-2.00000 I-0.25000 J0.00000
G2 X-126.75000 Y-73.66000 I-0.25000 J0.00000
G1 Z5.00000 F150.00000

G0 X-126.75000 Y-76.20000
G1 Z0.50000 F150.00000
G1 F300.00000
G2 X-126.75000 Y-76.20000 Z-0.00000 I-0.25000 J0.00000
G2 X-126.75000 Y-76.20000 Z-0.50000 I-0.25000 J0.00000
G2 X-126.75000 Y-76.20000 Z-1.00000 I-0.25000 J0.00000
G2 X-126.75000 Y-76.20000 Z-1.50000 I-0.25000 J0.00000
G2 X-126.75000 Y-76.20000 Z-2.00000 I-0.25000 J0.00000
G2 X-126.75000 Y-76.20000 I-0.25000 J0.00000
G1 Z5.00000 F150.00000

G0 X-126.75000 Y-78.74000
G1 Z0.50000 F150.00000
G1 F300.00000
G2 X-126.75000 Y-78.74000 Z-0.00000 I-0.25000 J0.00000
G2 X-126.75000 Y-78.74000 Z-0.50000 I-0.25000 J0.00000
G2 X-126.75000 Y-78.74000 Z-1.00000 I-0.25000 J0.00000
G2 X-126.75000 Y-78.74000 Z-1.50000 I-0.25000 J0.00000
G2 X-126.75000 Y-78.74000 Z-2.00000 I-0.25000 J0.00000
G2 X-126.75000 Y-78.74000 I-0.25000 J0.00000
G1 Z5.00000 F150.00000

G0 X-126.75000 Y-81.28000
G1 Z0.50000 F150.00000
G1 F300.00000
G2 X-126.75000 Y-81.28000 Z-0.00000 I-0.25000 J0.00000
G2 X-126.75000 Y-81.28000 Z-0.50000 I-0.25000 J0.00000
G2 X-126.75000 Y-81.28000 Z-1.00000 I-0.25000 J0.00000
G2 X-126.75000 Y-81.28000 Z-1.50000 I-0.25000 J0.00000
G2 X-126.75000 Y-81.28000 Z-2.00000 I-0.25000 J0.00000
G2 X-126.75000 Y-81.28000 I-0.25000 J0.00000
G1 Z5.00000 F150.00000

G0 X-126.75000 Y-83.82000
G1 Z0.50000 F150.00000
G1 F300.00000
G2 X-126.75000 Y-83.82000 Z-0.00000 I-0.25000 J0.00000
G2 X-126.75000 Y-83.82000 Z-0.50000 I-0.25000 J0.00000
G2 X-126.75000 Y-83.82000 Z-1.00000 I-0.25000 J0.00000
G2 X-126.75000 Y-83.82000 Z-1.50000 I-0.25000 J0.00000
G2 X-126.75000 Y-83.82000 Z-2.00000 I-0.25000 J0.00000
G2 X-126.75000 Y-83.82000 I-0.25000 J0.00000
G1 Z5.00000 F150.00000

G0 X-126.75000 Y-86.36000
G1 Z0.50000 F150.00000
G1 F300.00000
G2 X-126.75000 Y-86.36000 Z-0.00000 I-0.25000 J0.00000
G2 X-126.75000 Y-86.36000 Z-0.50000 I-0.25000 J0.00000
G2 X-126.75000 Y-86.36000 Z-1.00000 I-0.25000 J0.00000
G2 X-126.75000 Y-86.36000 Z-1.50000 I-0.25000 J0.00000
G2 X-126.75000 Y-86.36000 Z-2.00000 I-0.25000 J0.00000
G2 X-126.75000 Y-86.36000 I-0.25000 J0.00000
G1 Z5.00000 F150.00000

G0 X-126.75000 Y-88.90000
G1 Z0.50000 F150.00000
G1 F300.00000
G2 X-126.75000 Y-88.90000 Z-0.00000 I-0.25000 J0.00000
G2 X-126.75000 Y-88.90000 Z-0.50000 I-0.25000 J0.00000
G2 X-126.75000 Y-88.90000 Z-1.00000 I-0.25000 J0.00000
G2 X-126.75000 Y-88.90000 Z-1.50000 I-0.25000 J0.00000
G2 X-126.75000 Y-88.90000 Z-2.00000 I-0.25000 J0.00000
G2 X-126.75000 Y-88.90000 I-0.25000 J0.00000
G1 Z5.00000 F150.00000

G0 X-126.75000 Y-91.44000
G1 Z0.50000 F150.00000
G1 F300.00000
G2 X-126.75000 Y-91.44000 Z-0.00000 I-0.25000 J0.00000
G2 X-126.75000 Y-91.44000 Z-0.50000 I-0.25000 J0.00000
G2 X-126.75000 Y-91.44000 Z-1.00000 I-0.25000 J0.00000
G2 X-126.75000 Y-91.44000 Z-1.50000 I-0.25000 J0.00000
G2 X-126.75000 Y-91.44000 Z-2.00000 I-0.25000 J0.00000
G2 X-126.75000 Y-91.44000 I-0.25000 J0.00000
G1 Z5.00000 F150.00000

G0 X-126.75000 Y-93.98000
G1 Z0.50000 F150.00000
G1 F300.00000
G2 X-126.75000 Y-93.98000 Z-0.00000 I-0.25000 J0.00000
G2 X-126.75000 Y-93.98000 Z-0.50000 I-0.25000 J0.00000
G2 X-126.75000 Y-93.98000 Z-1.00000 I-0.25000 J0.00000
G2 X-126.75000 Y-93.98000 Z-1.50000 I-0.25000 J0.00000
G2 X-126.75000 Y-93.98000 Z-2.00000 I-0.25000 J0.00000
G2 X-126.75000 Y-93.98000 I-0.25000 J0.00000
G1 Z5.00000 F150.00000

G0 X-126.75000 Y-96.52000
G1 Z0.50000 F150.00000
G1 F300.00000
G2 X-126.75000 Y-96.52000 Z-0.00000 I-0.25000 J0.00000
G2 X-126.75000 Y-96.52000 Z-0.50000 I-0.25000 J0.00000
G2 X-126.75000 Y-96.52000 Z-1.00000 I-0.25000 J0.00000
G2 X-126.75000 Y-96.52000 Z-1.50000 I-0.25000 J0.00000
G2 X-126.75000 Y-96.52000 Z-2.00000 I-0.25000 J0.00000
G2 X-126.75000 Y-96.52000 I-0.25000 J0.00000
G1 Z5.00000 F150.00000

G0 X-126.75000 Y-99.06000
G1 Z0.50000 F150.00000
G1 F300.00000
G2 X-126.75000 Y-99.06000 Z-0.00000 I-0.25000 J0.00000
G2 X-126.75000 Y-99.06000 Z-0.50000 I-0.25000 J0.00000
G2 X-126.75000 Y-99.06000 Z-1.00000 I-0.25000 J0.00000
G2 X-126.75000 Y-99.06000 Z-1.50000 I-0.25000 J0.00000
G2 X-126.75000 Y-99.06000 Z-2.00000 I-0.25000 J0.00000
G2 X-126.75000 Y-99.06000 I-0.25000 J0.00000
G1 Z5.00000 F150.00000

G0 X-126.75000 Y-101.60000
G1 Z0.50000 F150.00000
G1 F300.00000
G2 X-126.75000 Y-101.60000 Z-0.00000 I-0.25000 J0.00000
G2 X-126.75000 Y-101.60000 Z-0.50000 I-0.25000 J0.00000
G2 X-126.75000 Y-101.60000 Z-1.00000 I-0.25000 J0.00000
G2 X-126.75000 Y-101.60000 Z-1.50000 I-0.25000 J0.00000
G2 X-126.75000 Y-101.60000 Z-2.00000 I-0.25000 J0.00000
G2 X-126.75000 Y-101.60000 I-0.25000 J0.00000
G1 Z5.00000 F150.00000

G0 X-126.75000 Y-104.14000
G1 Z0.50000 F150.00000
G1 F300.00000
G2 X-126.75000 Y-104.14000 Z-0.00000 I-0.25000 J0.00000
G2 X-126.75000 Y-104.14000 Z-0.50000 I-0.25000 J0.00000
G2 X-126.75000 Y-104.14000 Z-1.00000 I-0.25000 J0.00000
G2 X-126.75000 Y-104.14000 Z-1.50000 I-0.25000 J0.00000
G2 X-126.75000 Y-104.14000 Z-2.00000 I-0.25000 J0.00000
G2 X-126.75000 Y-104.14000 I-0.25000 J0.00000
G1 Z5.00000 F150.00000

G0 X-126.75000 Y-106.68000
G1 Z0.50000 F150.00000
G1 F300.00000
G2 X-126.75000 Y-106.68000 Z-0.00000 I-0.25000 J0.00000
G2 X-126.75000 Y-106.68000 Z-0.50000 I-0.25000 J0.00000
G2 X-126.75000 Y-106.68000 Z-1.00000 I-0.25000 J0.00000
G2 X-126.75000 Y-106.68000 Z-1.50000 I-0.25000 J0.00000
G2 X-126.75000 Y-106.68000 Z-2.00000 I-0.25000 J0.00000
G2 X-126.75000 Y-106.68000 I-0.25000 J0.00000
G1 Z5.00000 F150.00000

G0 X-126.75000 Y-109.22000
G1 Z0.50000 F150.00000
G1 F300.00000
G2 X-126.75000 Y-109.22000 Z-0.00000 I-0.25000 J0.00000
G2 X-126.75000 Y-109.22000 Z-0.50000 I-0.25000 J0.00000
G2 X-126.75000 Y-109.22000 Z-1.00000 I-0.25000 J0.00000
G2 X-126.75000 Y-109.22000 Z-1.50000 I-0.25000 J0.00000
G2 X-126.75000 Y-109.22000 Z-2.00000 I-0.25000 J0.00000
G2 X-126.75000 Y-109.22000 I-0.25000 J0.00000
G1 Z5.00000 F150.00000

G0 X-126.75000 Y-111.76000
G1 Z0.50000 F150.00000
G1 F300.00000
G2 X-126.75000 Y-111.76000 Z-0.00000 I-0.25000 J0.00000
G2 X-126.75000 Y-111.76000 Z-0.50000 I-0.25000 J0.00000
G2 X-126.75000 Y-111.76000 Z-1.00000 I-0.25000 J0.00000
G2 X-126.75000 Y-111.76000 Z-1.50000 I-0.25000 J0.00000
G2 X-126.75000 Y-111.76000 Z-2.00000 I-0.25000 J0.00000
G2 X-126.75000 Y-111.76000 I-0.25000 J0.00000
G1 Z5.00000 F150.00000

G0 X-152.15000 Y-86.36000
G1 Z0.50000 F150.00000
G1 F300.00000
G2 X-152.15000 Y-86.36000 Z-0.00000 I-0.25000 J0.00000
G2 X-152.15000 Y-86.36000 Z-0.50000 I-0.25000 J0.00000
G2 X-152.15000 Y-86.36000 Z-1.00000 I-0.25000 J0.00000
G2 X-152.15000 Y-86.36000 Z-1.50000 I-0.25000 J0.00000
G2 X-152.15000 Y-86.36000 Z-2.00000 I-0.25000 J0.00000
G2 X-152.15000 Y-86.36000 I-0.25000 J0.00000
G1 Z5.00000 F150.00000

G0 X-152.15000 Y-83.82000
G1 Z0.50000 F150.00000
G1 F300.00000
G2 X-152.15000 Y-83.82000 Z-0.00000 I-0.25000 J0.00000
G2 X-152.15000 Y-83.82000 Z-0.50000 I-0.25000 J0.00000
G2 X-152.15000 Y-83.82000 Z-1.00000 I-0.25000 J0.00000
G2 X-152.15000 Y-83.82000 Z-1.50000 I-0.25000 J0.00000
G2 X-152.15000 Y-83.82000 Z-2.00000 I-0.25000 J0.00000
G2 X-152.15000 Y-83.82000 I-0.25000 J0.00000
G1 Z5.00000 F150.00000

G0 X-152.15000 Y-81.28000
G1 Z0.50000 F150.00000
G1 F300.00000
G2 X-152.15000 Y-81.28000 Z-0.00000 I-0.25000 J0.00000
G2 X-152.15000 Y-81.28000 Z-0.50000 I-0.25000 J0.00000
G2 X-152.15000 Y-81.28000 Z-1.00000 I-0.25000 J0.00000
G2 X-152.15000 Y-81.28000 Z-1.50000 I-0.25000 J0.00000
G2 X-152.15000 Y-81.28000 Z-2.00000 I-0.25000 J0.00000
G2 X-152.15000 Y-81.28000 I-0.25000 J0.00000
G1 Z5.00000 F150.00000

G0 X-152.15000 Y-78.74000
G1 Z0.50000 F150.00000
G1 F300.00000
G2 X-152.15000 Y-78.74000 Z-0.00000 I-0.25000 J0.00000
G2 X-152.15000 Y-78.74000 Z-0.50000 I-0.25000 J0.00000
G2 X-152.15000 Y-78.74000 Z-1.00000 I-0.25000 J0.00000
G2 X-152.15000 Y-78.74000 Z-1.50000 I-0.25000 J0.00000
G2 X-152.15000 Y-78.74000 Z-2.00000 I-0.25000 J0.00000
G2 X-152.15000 Y-78.74000 I-0.25000 J0.00000
G1 Z5.00000 F150.00000

G0 X-152.15000 Y-76.20000
G1 Z0.50000 F150.00000
G1 F300.00000
G2 X-152.15000 Y-76.20000 Z-0.00000 I-0.25000 J0.00000
G2 X-152.15000 Y-76.20000 Z-0.50000 I-0.25000 J0.00000
G2 X-152.15000 Y-76.20000 Z-1.00000 I-0.25000 J0.00000
G2 X-152.15000 Y-76.20000 Z-1.50000 I-0.25000 J0.00000
G2 X-152.15000 Y-76.20000 Z-2.00000 I-0.25000 J0.00000
G2 X-152.15000 Y-76.20000 I-0.25000 J0.00000
G1 Z5.00000 F150.00000

G0 X-152.15000 Y-73.66000
G1 Z0.50000 F150.00000
G1 F300.00000
G2 X-152.15000 Y-73.66000 Z-0.00000 I-0.25000 J0.00000
G2 X-152.15000 Y-73.66000 Z-0.50000 I-0.25000 J0.00000
G2 X-152.15000 Y-73.66000 Z-1.00000 I-0.25000 J0.00000
G2 X-152.15000 Y-73.66000 Z-1.50000 I-0.25000 J0.00000
G2 X-152.15000 Y-73.66000 Z-2.00000 I-0.25000 J0.00000
G2 X-152.15000 Y-73.66000 I-0.25000 J0.00000
G1 Z5.00000 F150.00000

G0 X-152.15000 Y-71.12000
G1 Z0.50000 F150.00000
G1 F300.00000
G2 X-152.15000 Y-71.12000 Z-0.00000 I-0.25000 J0.00000
G2 X-152.15000 Y-71.12000 Z-0.50000 I-0.25000 J0.00000
G2 X-152.15000 Y-71.12000 Z-1.00000 I-0.25000 J0.00000
G2 X-152.15000 Y-71.12000 Z-1.50000 I-0.25000 J0.00000
G2 X-152.15000 Y-71.12000 Z-2.00000 I-0.25000 J0.00000
G2 X-152.15000 Y-71.12000 I-0.25000 J0.00000
G1 Z5.00000 F150.00000

G0 X-152.15000 Y-68.58000
G1 Z0.50000 F150.00000
G1 F300.00000
G2 X-152.15000 Y-68.58000 Z-0.00000 I-0.25000 J0.00000
G2 X-152.15000 Y-68.58000 Z-0.50000 I-0.25000 J0.00000
G2 X-152.15000 Y-68.58000 Z-1.00000 I-0.25000 J0.00000
G2 X-152.15000 Y-68.58000 Z-1.50000 I-0.25000 J0.00000
G2 X-152.15000 Y-68.58000 Z-2.00000 I-0.25000 J0.00000
G2 X-152.15000 Y-68.58000 I-0.25000 J0.00000
G1 Z5.00000 F150.00000

G0 X-152.15000 Y-66.04000
G1 Z0.50000 F150.00000
G1 F300.00000
G2 X-152.15000 Y-66.04000 Z-0.00000 I-0.25000 J0.00000
G2 X-152.15000 Y-66.04000 Z-0.50000 I-0.25000 J0.00000
G2 X-152.15000 Y-66.04000 Z-1.00000 I-0.25000 J0.00000
G2 X-152.15000 Y-66.04000 Z-1.50000 I-0.25000 J0.00000
G2 X-152.15000 Y-66.04000 Z-2.00000 I-0.25000 J0.00000
G2 X-152.15000 Y-66.04000 I-0.25000 J0.00000
G1 Z5.00000 F150.00000

G0 X-152.15000 Y-63.50000
G1 Z0.50000 F150.00000
G1 F300.00000
G2 X-152.15000 Y-63.50000 Z-0.00000 I-0.25000 J0.00000
G2 X-152.15000 Y-63.50000 Z-0.50000 I-0.25000 J0.00000
G2 X-152.15000 Y-63.50000 Z-1.00000 I-0.25000 J0.00000
G2 X-152.15000 Y-63.50000 Z-1.50000 I-0.25000 J0.00000
G2 X-152.15000 Y-63.50000 Z-2.00000 I-0.25000 J0.00000
G2 X-152.15000 Y-63.50000 I-0.25000 J0.00000
G1 Z5.00000 F150.00000

G0 X-164.85000 Y-68.58000
G1 Z0.50000 F150.00000
G1 F300.00000
G2 X-164.85000 Y-68.58000 Z-0.00000 I-0.25000 J0.00000
G2 X-164.85000 Y-68.58000 Z-0.50000 I-0.25000 J0.00000
G2 X-164.85000 Y-68.58000 Z-1.00000 I-0.25000 J0.00000
G2 X-164.85000 Y-68.58000 Z-1.50000 I-0.25000 J0.00000
G2 X-164.85000 Y-68.58000 Z-2.00000 I-0.25000 J0.00000
G2 X-164.85000 Y-68.58000 I-0.25000 J0.00000
G1 Z5.00000 F150.00000

G0 X-164.85000 Y-71.12000
G1 Z0.50000 F150.00000
G1 F300.00000
G2 X-164.85000 Y-71.12000 Z-0.00000 I-0.25000 J0.00000
G2 X-164.85000 Y-71.12000 Z-0.50000 I-0.25000 J0.00000
G2 X-164.85000 Y-71.12000 Z-1.00000 I-0.25000 J0.00000
G2 X-164.85000 Y-71.12000 Z-1.50000 I-0.25000 J0.00000
G2 X-164.85000 Y-71.12000 Z-2.00000 I-0.25000 J0.00000
G2 X-164.85000 Y-71.12000 I-0.25000 J0.00000
G1 Z5.00000 F150.00000

G0 X-164.85000 Y-73.66000
G1 Z0.50000 F150.00000
G1 F300.00000
G2 X-164.85000 Y-73.66000 Z-0.00000 I-0.25000 J0.00000
G2 X-164.85000 Y-73.66000 Z-0.50000 I-0.25000 J0.00000
G2 X-164.85000 Y-73.66000 Z-1.00000 I-0.25000 J0.00000
G2 X-164.85000 Y-73.66000 Z-1.50000 I-0.25000 J0.00000
G2 X-164.85000 Y-73.66000 Z-2.00000 I-0.25000 J0.00000
G2 X-164.85000 Y-73.66000 I-0.25000 J0.00000
G1 Z5.00000 F150.00000

G0 X-164.85000 Y-76.20000
G1 Z0.50000 F150.00000
G1 F300.00000
G2 X-164.85000 Y-76.20000 Z-0.00000 I-0.25000 J0.00000
G2 X-164.85000 Y-76.20000 Z-0.50000 I-0.25000 J0.00000
G2 X-164.85000 Y-76.20000 Z-1.00000 I-0.25000 J0.00000
G2 X-164.85000 Y-76.20000 Z-1.50000 I-0.25000 J0.00000
G2 X-164.85000 Y-76.20000 Z-2.00000 I-0.25000 J0.00000
G2 X-164.85000 Y-76.20000 I-0.25000 J0.00000
G1 Z5.00000 F150.00000

G0 X-164.85000 Y-78.74000
G1 Z0.50000 F150.00000
G1 F300.00000
G2 X-164.85000 Y-78.74000 Z-0.00000 I-0.25000 J0.00000
G2 X-164.85000 Y-78.74000 Z-0.50000 I-0.25000 J0.00000
G2 X-164.85000 Y-78.74000 Z-1.00000 I-0.25000 J0.00000
G2 X-164.85000 Y-78.74000 Z-1.50000 I-0.25000 J0.00000
G2 X-164.85000 Y-78.74000 Z-2.00000 I-0.25000 J0.00000
G2 X-164.85000 Y-78.74000 I-0.25000 J0.00000
G1 Z5.00000 F150.00000

G0 X-164.85000 Y-81.28000
G1 Z0.50000 F150.00000
G1 F300.00000
G2 X-164.85000 Y-81.28000 Z-0.00000 I-0.25000 J0.00000
G2 X-164.85000 Y-81.28000 Z-0.50000 I-0.25000 J0.00000
G2 X-164.85000 Y-81.28000 Z-1.00000 I-0.25000 J0.00000
G2 X-164.85000 Y-81.28000 Z-1.50000 I-0.25000 J0.00000
G2 X-164.85000 Y-81.28000 Z-2.00000 I-0.25000 J0.00000
G2 X-164.85000 Y-81.28000 I-0.25000 J0.00000
G1 Z5.00000 F150.00000

G0 X-164.85000 Y-83.82000
G1 Z0.50000 F150.00000
G1 F300.00000
G2 X-164.85000 Y-83.82000 Z-0.00000 I-0.25000 J0.00000
G2 X-164.85000 Y-83.82000 Z-0.50000 I-0.25000 J0.00000
G2 X-164.85000 Y-83.82000 Z-1.00000 I-0.25000 J0.00000
G2 X-164.85000 Y-83.82000 Z-1.50000 I-0.25000 J0.00000
G2 X-164.85000 Y-83.82000 Z-2.00000 I-0.25000 J0.00000
G2 X-164.85000 Y-83.82000 I-0.25000 J0.00000
G1 Z5.00000 F150.00000

G0 X-164.85000 Y-93.98000
G1 Z0.50000 F150.00000
G1 F300.00000
G2 X-164.85000 Y-93.98000 Z-0.00000 I-0.25000 J0.00000
G2 X-164.85000 Y-93.98000 Z-0.50000 I-0.25000 J0.00000
G2 X-164.85000 Y-93.98000 Z-1.00000 I-0.25000 J0.00000
G2 X-164.85000 Y-93.98000 Z-1.50000 I-0.25000 J0.00000
G2 X-164.85000 Y-93.98000 Z-2.00000 I-0.25000 J0.00000
G2 X-164.85000 Y-93.98000 I-0.25000 J0.00000
G1 Z5.00000 F150.00000

G0 X-164.85000 Y-101.60000
G1 Z0.50000 F150.00000
G1 F300.00000
G2 X-164.85000 Y-101.60000 Z-0.00000 I-0.25000 J0.00000
G2 X-164.85000 Y-101.60000 Z-0.50000 I-0.25000 J0.00000
G2 X-164.85000 Y-101.60000 Z-1.00000 I-0.25000 J0.00000
G2 X-164.85000 Y-101.60000 Z-1.50000 I-0.25000 J0.00000
G2 X-164.85000 Y-101.60000 Z-2.00000 I-0.25000 J0.00000
G2 X-164.85000 Y-101.60000 I-0.25000 J0.00000
G1 Z5.00000 F150.00000

G0 X-164.85000 Y-104.14000
G1 Z0.50000 F150.00000
G1 F300.00000
G2 X-164.85000 Y-104.14000 Z-0.00000 I-0.25000 J0.00000
G2 X-164.85000 Y-104.14000 Z-0.50000 I-0.25000 J0.00000
G2 X-164.85000 Y-104.14000 Z-1.00000 I-0.25000 J0.00000
G2 X-164.85000 Y-104.14000 Z-1.50000 I-0.25000 J0.00000
G2 X-164.85000 Y-104.14000 Z-2.00000 I-0.25000 J0.00000
G2 X-164.85000 Y-104.14000 I-0.25000 J0.00000
G1 Z5.00000 F150.00000

G0 X-152.15000 Y-111.76000
G1 Z0.50000 F150.00000
G1 F300.00000
G2 X-152.15000 Y-111.76000 Z-0.00000 I-0.25000 J0.00000
G2 X-152.15000 Y-111.76000 Z-0.50000 I-0.25000 J0.00000
G2 X-152.15000 Y-111.76000 Z-1.00000 I-0.25000 J0.00000
G2 X-152.15000 Y-111.76000 Z-1.50000 I-0.25000 J0.00000
G2 X-152.15000 Y-111.76000 Z-2.00000 I-0.25000 J0.00000
G2 X-152.15000 Y-111.76000 I-0.25000 J0.00000
G1 Z5.00000 F150.00000

G0 X-152.15000 Y-109.22000
G1 Z0.50000 F150.00000
G1 F300.00000
G2 X-152.15000 Y-109.22000 Z-0.00000 I-0.25000 J0.00000
G2 X-152.15000 Y-109.22000 Z-0.50000 I-0.25000 J0.00000
G2 X-152.15000 Y-109.22000 Z-1.00000 I-0.25000 J0.00000
G2 X-152.15000 Y-109.22000 Z-1.50000 I-0.25000 J0.00000
G2 X-152.15000 Y-109.22000 Z-2.00000 I-0.25000 J0.00000
G2 X-152.15000 Y-109.22000 I-0.25000 J0.00000
G1 Z5.00000 F150.00000

G0 X-152.15000 Y-106.68000
G1 Z0.50000 F150.00000
G1 F300.00000
G2 X-152.15000 Y-106.68000 Z-0.00000 I-0.25000 J0.00000
G2 X-152.15000 Y-106.68000 Z-0.50000 I-0.25000 J0.00000
G2 X-152.15000 Y-106.68000 Z-1.00000 I-0.25000 J0.00000
G2 X-152.15000 Y-106.68000 Z-1.50000 I-0.25000 J0.00000
G2 X-152.15000 Y-106.68000 Z-2.00000 I-0.25000 J0.00000
G2 X-152.15000 Y-106.68000 I-0.25000 J0.00000
G1 Z5.00000 F150.00000

G0 X-152.15000 Y-104.14000
G1 Z0.50000 F150.00000
G1 F300.00000
G2 X-152.15000 Y-104.14000 Z-0.00000 I-0.25000 J0.00000
G2 X-152.15000 Y-104.14000 Z-0.50000 I-0.25000 J0.00000
G2 X-152.15000 Y-104.14000 Z-1.00000 I-0.25000 J0.00000
G2 X-152.15000 Y-104.14000 Z-1.50000 I-0.25000 J0.00000
G2 X-152.15000 Y-104.14000 Z-2.00000 I-0.25000 J0.00000
G2 X-152.15000 Y-104.14000 I-0.25000 J0.00000
G1 Z5.00000 F150.00000

G0 X-152.15000 Y-101.60000
G1 Z0.50000 F150.00000
G1 F300.00000
G2 X-152.15000 Y-101.60000 Z-0.00000 I-0.25000 J0.00000
G2 X-152.15000 Y-101.60000 Z-0.50000 I-0.25000 J0.00000
G2 X-152.15000 Y-101.60000 Z-1.00000 I-0.25000 J0.00000
G2 X-152.15000 Y-101.60000 Z-1.50000 I-0.25000 J0.00000
G2 X-152.15000 Y-101.60000 Z-2.00000 I-0.25000 J0.00000
G2 X-152.15000 Y-101.60000 I-0.25000 J0.00000
G1 Z5.00000 F150.00000

G0 X-152.15000 Y-99.06000
G1 Z0.50000 F150.00000
G1 F300.00000
G2 X-152.15000 Y-99.06000 Z-0.00000 I-0.25000 J0.00000
G2 X-152.15000 Y-99.06000 Z-0.50000 I-0.25000 J0.00000
G2 X-152.15000 Y-99.06000 Z-1.00000 I-0.25000 J0.00000
G2 X-152.15000 Y-99.06000 Z-1.50000 I-0.25000 J0.00000
G2 X-152.15000 Y-99.06000 Z-2.00000 I-0.25000 J0.00000
G2 X-152.15000 Y-99.06000 I-0.25000 J0.00000
G1 Z5.00000 F150.00000

G0 X-152.15000 Y-96.52000
G1 Z0.50000 F150.00000
G1 F300.00000
G2 X-152.15000 Y-96.52000 Z-0.00000 I-0.25000 J0.00000
G2 X-152.15000 Y-96.52000 Z-0.50000 I-0.25000 J0.00000
G2 X-152.15000 Y-96.52000 Z-1.00000 I-0.25000 J0.00000
G2 X-152.15000 Y-96.52000 Z-1.50000 I-0.25000 J0.00000
G2 X-152.15000 Y-96.52000 Z-2.00000 I-0.25000 J0.00000
G2 X-152.15000 Y-96.52000 I-0.25000 J0.00000
G1 Z5.00000 F150.00000

G0 X-152.15000 Y-93.98000
G1 Z0.50000 F150.00000
G1 F300.00000
G2 X-152.15000 Y-93.98000 Z-0.00000 I-0.25000 J0.00000
G2 X-152.15000 Y-93.98000 Z-0.50000 I-0.25000 J0.00000
G2 X-152.15000 Y-93.98000 Z-1.00000 I-0.25000 J0.00000
G2 X-152.15000 Y-93.98000 Z-1.50000 I-0.25000 J0.00000
G2 X-152.15000 Y-93.98000 Z-2.00000 I-0.25000 J0.00000
G2 X-152.15000 Y-93.98000 I-0.25000 J0.00000
G1 Z5.00000 F150.00000

G0 X-152.15000 Y-91.44000
G1 Z0.50000 F150.00000
G1 F300.00000
G2 X-152.15000 Y-91.44000 Z-0.00000 I-0.25000 J0.00000
G2 X-152.15000 Y-91.44000 Z-0.50000 I-0.25000 J0.00000
G2 X-152.15000 Y-91.44000 Z-1.00000 I-0.25000 J0.00000
G2 X-152.15000 Y-91.44000 Z-1.50000 I-0.25000 J0.00000
G2 X-152.15000 Y-91.44000 Z-2.00000 I-0.25000 J0.00000
G2 X-152.15000 Y-91.44000 I-0.25000 J0.00000
G1 Z5.00000 F150.00000

G0 X-152.15000 Y-88.90000
G1 Z0.50000 F150.00000
G1 F300.00000
G2 X-152.15000 Y-88.90000 Z-0.00000 I-0.25000 J0.00000
G2 X-152.15000 Y-88.90000 Z-0.50000 I-0.25000 J0.00000
G2 X-152.15000 Y-88.90000 Z-1.00000 I-0.25000 J0.00000
G2 X-152.15000 Y-88.90000 Z-1.50000 I-0.25000 J0.00000
G2 X-152.15000 Y-88.90000 Z-2.00000 I-0.25000 J0.00000
G2 X-152.15000 Y-88.90000 I-0.25000 J0.00000
G1 Z5.00000 F150.00000

G0 X-121.07000 Y-50.80000
G1 Z0.50000 F150.00000
G1 F300.00000
G2 X-121.07000 Y-50.80000 Z-0.00000 I-0.85000 J0.00000
G2 X-121.07000 Y-50.80000 Z-0.50000 I-0.85000 J0.00000
G2 X-121.07000 Y-50.80000 Z-1.00000 I-0.85000 J0.00000
G2 X-121.07000 Y-50.80000 Z-1.50000 I-0.85000 J0.00000
G2 X-121.07000 Y-50.80000 Z-2.00000 I-0.85000 J0.00000
G2 X-121.07000 Y-50.80000 I-0.85000 J0.00000
G1 Z5.00000 F150.00000

G0 X-171.87000 Y-50.80000
G1 Z0.50000 F150.00000
G1 F300.00000
G2 X-171.87000 Y-50.80000 Z-0.00000 I-0.85000 J0.00000
G2 X-171.87000 Y-50.80000 Z-0.50000 I-0.85000 J0.00000
G2 X-171.87000 Y-50.80000 Z-1.00000 I-0.85000 J0.00000
G2 X-171.87000 Y-50.80000 Z-1.50000 I-0.85000 J0.00000
G2 X-171.87000 Y-50.80000 Z-2.00000 I-0.85000 J0.00000
G2 X-171.87000 Y-50.80000 I-0.85000 J0.00000
G1 Z5.00000 F150.00000

G0 X-121.07000 Y-109.22000
G1 Z0.50000 F150.00000
G1 F300.00000
G2 X-121.07000 Y-109.22000 Z-0.00000 I-0.85000 J0.00000
G2 X-121.07000 Y-109.22000 Z-0.50000 I-0.85000 J0.00000
G2 X-121.07000 Y-109.22000 Z-1.00000 I-0.85000 J0.00000
G2 X-121.07000 Y-109.22000 Z-1.50000 I-0.85000 J0.00000
G2 X-121.07000 Y-109.22000 Z-2.00000 I-0.85000 J0.00000
G2 X-121.07000 Y-109.22000 I-0.85000 J0.00000
G1 Z5.00000 F150.00000

G0 X-171.87000 Y-109.22000
G1 Z0.50000 F150.00000
G1 F300.00000
G2 X-171.87000 Y-109.22000 Z-0.00000 I-0.85000 J0.00000
G2 X-171.87000 Y-109.22000 Z-0.50000 I-0.85000 J0.00000
G2 X-171.87000 Y-109.22000 Z-1.00000 I-0.85000 J0.00000
G2 X-171.87000 Y-109.22000 Z-1.50000 I-0.85000 J0.00000
G2 X-171.87000 Y-109.22000 Z-2.00000 I-0.85000 J0.00000
G2 X-171.87000 Y-109.22000 I-0.85000 J0.00000
G1 Z5.00000 F150.00000

G00 Z25.000000 ( All done -- retract )

M5      (Spindle off.)
G04 P1.000000
M9      (Coolant off.)
M2      (Program end.)

