( pcb2gcode 2.1.0 )
( Software-independent Gcode )

G94 ( Millimeters per minute feed rate. )
G21 ( Units == Millimeters. )

G90 ( Absolute coordinates. )
G00 S15000 ( RPM spindle speed. )
G01 F600.00000 ( Feedrate. )


G00 Z25.00000 (Retract to tool change height)
T0
M5      (Spindle stop.)
G04 P1.00000 (Wait for spindle to stop)
(MSG, Change tool bit to mill diameter 0.50000mm)
M6      (Tool change.)
M0      (Temporary machine stop.)
M3 ( Spindle on clockwise. )
G04 P1.00000 (Wait for spindle to get up to speed)
G04 P0 ( dwell for no time -- G64 should not smooth over this point )
G00 Z5.00000 ( retract )

G00 X-125.89998 Y-66.04000 ( rapid move to begin. )
G01 F300.00000
( Mill infeed pass 1/1 )
G01 Z-0.05000
G04 P0 ( dwell for no time -- G64 should not smooth over this point )
G01 F600.00000
G01 X-125.89998 Y-66.04000
G01 X-125.92403 Y-65.81127
G01 X-125.99510 Y-65.59258
G01 X-126.11006 Y-65.39342
G01 X-126.24544 Y-65.24104
G01 X-126.28428 Y-65.20607
G01 X-126.44999 Y-65.08735
G01 X-126.63564 Y-65.00320
G01 X-126.68534 Y-64.98704
G01 X-126.85916 Y-64.95011
G01 X-126.91115 Y-64.94465
G01 X-127.11496 Y-64.94602
G01 X-127.33990 Y-64.99382
G01 X-127.54999 Y-65.08735
G01 X-127.73604 Y-65.22253
G01 X-127.88991 Y-65.39342
G01 X-128.00487 Y-65.59258
G01 X-128.07594 Y-65.81127
G01 X-128.10000 Y-66.04000
G01 X-128.07594 Y-66.26870
G01 X-128.00487 Y-66.48740
G01 X-127.88991 Y-66.68656
G01 X-127.75453 Y-66.83893
G01 X-127.71570 Y-66.87391
G01 X-127.54999 Y-66.99263
G01 X-127.36434 Y-67.07678
G01 X-127.31463 Y-67.09293
G01 X-127.14082 Y-67.12986
G01 X-127.08882 Y-67.13532
G01 X-126.88501 Y-67.13395
G01 X-126.66007 Y-67.08615
G01 X-126.44999 Y-66.99263
G01 X-126.26393 Y-66.85745
G01 X-126.11006 Y-66.68656
G01 X-125.99510 Y-66.48740
G01 X-125.92403 Y-66.26870
G01 X-125.89998 Y-66.04000
G01 X-123.39998 Y-66.04000
G01 X-123.41504 Y-66.32745
G01 X-123.43364 Y-66.50416
G01 X-123.47865 Y-66.78846
G01 X-123.55314 Y-67.06652
G01 X-123.60806 Y-67.23550
G01 X-123.63666 Y-67.30997
G01 X-127.45342 Y-67.30997
G01 X-127.62835 Y-67.23289
G01 X-127.67498 Y-67.20911
G01 X-127.71887 Y-67.18061
G01 X-127.90333 Y-67.04322
G01 X-128.05923 Y-66.87416
G01 X-128.09215 Y-66.83350
G01 X-128.12067 Y-66.78960
G01 X-128.23327 Y-66.58907
G01 X-128.30693 Y-66.37122
G01 X-128.32050 Y-66.32067
G01 X-128.32867 Y-66.26898
G01 X-128.34724 Y-66.09225
G01 X-128.34998 Y-66.04000
G01 X-128.34724 Y-65.98773
G01 X-128.32050 Y-65.75930
G01 X-128.25202 Y-65.53975
G01 X-128.23327 Y-65.49090
G01 X-128.12067 Y-65.29037
G01 X-128.09215 Y-65.24648
G01 X-128.05923 Y-65.20581
G01 X-127.90333 Y-65.03675
G01 X-127.71887 Y-64.89936
G01 X-127.63475 Y-64.85034
G01 X-127.45001 Y-64.81069
G01 X-127.35532 Y-64.79565
G01 X-127.17760 Y-64.77696
G01 X-127.08880 Y-64.77229
G01 X-126.91115 Y-64.77229
G01 X-126.82235 Y-64.77696
G01 X-126.64463 Y-64.79565
G01 X-126.54994 Y-64.81069
G01 X-126.36652 Y-64.84998
G01 X-126.14999 Y-64.84998
G01 X-126.05245 Y-64.84038
G01 X-125.95865 Y-64.81194
G01 X-125.87221 Y-64.76573
G01 X-125.79645 Y-64.70353
G01 X-125.73424 Y-64.62776
G01 X-125.68804 Y-64.54132
G01 X-125.65959 Y-64.44752
G01 X-125.64999 Y-64.34999
G01 X-125.64999 Y-62.64999
G01 X-125.65959 Y-62.55245
G01 X-125.68804 Y-62.45865
G01 X-125.73424 Y-62.37221
G01 X-125.79645 Y-62.29645
G01 X-125.87221 Y-62.23424
G01 X-125.95865 Y-62.18804
G01 X-126.05245 Y-62.15959
G01 X-126.14999 Y-62.14999
G01 X-127.84999 Y-62.14999
G01 X-127.94752 Y-62.15959
G01 X-128.04132 Y-62.18804
G01 X-128.12776 Y-62.23424
G01 X-128.20353 Y-62.29645
G01 X-128.26573 Y-62.37221
G01 X-128.31194 Y-62.45865
G01 X-128.34038 Y-62.55245
G01 X-128.34998 Y-62.64999
G01 X-128.34998 Y-64.34999
G01 X-128.34038 Y-64.44752
G01 X-128.31194 Y-64.54132
G01 X-128.26573 Y-64.62776
G01 X-128.20353 Y-64.70353
G01 X-128.12776 Y-64.76573
G01 X-128.04132 Y-64.81194
G01 X-127.94752 Y-64.84038
G01 X-127.84999 Y-64.84998
G01 X-127.63343 Y-64.84998
G01 X-127.45011 Y-64.81013
G01 X-127.35540 Y-64.79504
G01 X-127.17762 Y-64.77663
G01 X-127.08882 Y-64.77168
G01 X-126.91113 Y-64.77152
G01 X-126.82235 Y-64.77696
G01 X-126.64455 Y-64.79504
G01 X-126.54981 Y-64.80995
G01 X-126.37224 Y-64.84846
G01 X-126.26505 Y-64.87726
G01 X-126.08624 Y-64.93345
G01 X-125.94532 Y-64.97089
G01 X-125.72743 Y-65.01387
G01 X-125.46297 Y-65.05021
G01 X-125.15693 Y-65.07841
G01 X-124.44743 Y-65.11719
G01 X-123.92424 Y-65.13403
G01 X-123.51951 Y-65.13899
G01 X-123.47865 Y-65.29151
G01 X-123.43364 Y-65.57581
G01 X-123.41504 Y-65.75252
G01 X-123.39998 Y-66.04000
G01 X-123.41504 Y-66.32745
G01 X-123.43364 Y-66.50416
G01 X-123.47865 Y-66.78846
G01 X-123.55314 Y-67.06652
G01 X-123.60806 Y-67.23550
G01 X-123.63666 Y-67.30997
G01 X-123.60806 Y-67.38447
G01 X-123.55314 Y-67.55346
G01 X-123.47865 Y-67.83151
G01 X-123.43364 Y-68.11581
G01 X-123.41504 Y-68.29252
G01 X-123.39998 Y-68.58000
G01 X-123.41504 Y-68.86745
G01 X-123.43364 Y-69.04416
G01 X-123.47865 Y-69.32846
G01 X-123.55314 Y-69.60652
G01 X-123.60806 Y-69.77550
G01 X-123.63666 Y-69.84997
G01 X-123.60806 Y-69.92447
G01 X-123.55314 Y-70.09346
G01 X-123.47865 Y-70.37151
G01 X-123.43364 Y-70.65581
G01 X-123.41504 Y-70.83252
G01 X-123.39998 Y-71.12000
G01 X-123.41504 Y-71.40745
G01 X-123.43364 Y-71.58416
G01 X-123.47865 Y-71.86846
G01 X-123.55314 Y-72.14652
G01 X-123.60806 Y-72.31550
G01 X-123.63666 Y-72.38997
G01 X-123.60806 Y-72.46447
G01 X-123.55314 Y-72.63346
G01 X-123.47865 Y-72.91151
G01 X-123.43364 Y-73.19581
G01 X-123.41504 Y-73.37252
G01 X-123.39998 Y-73.66000
G01 X-123.41504 Y-73.94745
G01 X-123.43364 Y-74.12416
G01 X-123.47865 Y-74.40846
G01 X-123.55314 Y-74.68652
G01 X-123.60806 Y-74.85550
G01 X-123.63666 Y-74.92997
G01 X-123.60806 Y-75.00447
G01 X-123.55314 Y-75.17346
G01 X-123.47865 Y-75.45151
G01 X-123.43364 Y-75.73581
G01 X-123.41504 Y-75.91252
G01 X-123.39998 Y-76.20000
G01 X-123.41504 Y-76.48745
G01 X-123.43364 Y-76.66416
G01 X-123.47865 Y-76.94846
G01 X-123.55314 Y-77.22652
G01 X-123.60806 Y-77.39550
G01 X-123.63666 Y-77.46997
G01 X-123.60806 Y-77.54447
G01 X-123.55314 Y-77.71346
G01 X-123.47865 Y-77.99151
G01 X-123.43364 Y-78.27581
G01 X-123.41504 Y-78.45252
G01 X-123.39998 Y-78.74000
G01 X-123.41504 Y-79.02745
G01 X-123.43364 Y-79.20416
G01 X-123.47865 Y-79.48846
G01 X-123.55314 Y-79.76652
G01 X-123.60806 Y-79.93550
G01 X-123.63666 Y-80.00997
G01 X-123.60806 Y-80.08447
G01 X-123.55314 Y-80.25346
G01 X-123.47865 Y-80.53151
G01 X-123.43364 Y-80.81582
G01 X-123.41504 Y-80.99252
G01 X-123.39998 Y-81.28000
G01 X-123.41504 Y-81.56745
G01 X-123.43364 Y-81.74416
G01 X-123.47865 Y-82.02846
G01 X-123.55314 Y-82.30652
G01 X-123.60806 Y-82.47550
G01 X-123.63666 Y-82.54997
G01 X-123.60806 Y-82.62447
G01 X-123.55314 Y-82.79346
G01 X-123.47865 Y-83.07151
G01 X-123.43364 Y-83.35581
G01 X-123.41504 Y-83.53252
G01 X-123.39998 Y-83.82000
G01 X-123.41504 Y-84.10745
G01 X-123.43364 Y-84.28416
G01 X-123.47865 Y-84.56846
G01 X-123.55314 Y-84.84652
G01 X-123.60806 Y-85.01550
G01 X-123.63666 Y-85.08997
G01 X-123.60806 Y-85.16447
G01 X-123.55314 Y-85.33346
G01 X-123.47865 Y-85.61151
G01 X-123.43364 Y-85.89581
G01 X-123.41504 Y-86.07252
G01 X-123.39998 Y-86.36000
G01 X-123.41504 Y-86.64745
G01 X-123.43364 Y-86.82416
G01 X-123.47865 Y-87.10846
G01 X-123.55314 Y-87.38652
G01 X-123.60806 Y-87.55550
G01 X-123.63666 Y-87.62997
G01 X-123.60806 Y-87.70447
G01 X-123.55314 Y-87.87346
G01 X-123.47865 Y-88.15151
G01 X-123.43364 Y-88.43581
G01 X-123.41504 Y-88.61252
G01 X-123.39998 Y-88.90000
G01 X-123.41504 Y-89.18745
G01 X-123.43364 Y-89.36416
G01 X-123.47865 Y-89.64846
G01 X-123.55314 Y-89.92652
G01 X-123.60806 Y-90.09550
G01 X-123.63666 Y-90.16997
G01 X-123.60806 Y-90.24447
G01 X-123.55314 Y-90.41346
G01 X-123.47865 Y-90.69151
G01 X-123.43364 Y-90.97581
G01 X-123.41504 Y-91.15252
G01 X-123.39998 Y-91.44000
G01 X-123.41504 Y-91.72745
G01 X-123.43364 Y-91.90416
G01 X-123.47865 Y-92.18846
G01 X-123.55314 Y-92.46652
G01 X-123.60806 Y-92.63550
G01 X-123.63666 Y-92.70997
G01 X-123.60806 Y-92.78447
G01 X-123.55314 Y-92.95346
G01 X-123.47865 Y-93.23151
G01 X-123.43364 Y-93.51582
G01 X-123.41504 Y-93.69252
G01 X-123.39998 Y-93.98000
G01 X-123.41504 Y-94.26745
G01 X-123.43364 Y-94.44416
G01 X-123.47865 Y-94.72846
G01 X-123.55314 Y-95.00652
G01 X-123.60806 Y-95.17550
G01 X-123.63666 Y-95.24997
G01 X-123.60806 Y-95.32447
G01 X-123.55314 Y-95.49346
G01 X-123.47865 Y-95.77151
G01 X-123.43364 Y-96.05581
G01 X-123.41504 Y-96.23252
G01 X-123.39998 Y-96.52000
G01 X-123.41504 Y-96.80745
G01 X-123.43364 Y-96.98416
G01 X-123.47865 Y-97.26846
G01 X-123.55314 Y-97.54652
G01 X-123.60806 Y-97.71550
G01 X-123.63666 Y-97.78997
G01 X-123.60806 Y-97.86447
G01 X-123.55314 Y-98.03346
G01 X-123.47865 Y-98.31151
G01 X-123.43364 Y-98.59581
G01 X-123.41504 Y-98.77252
G01 X-123.39998 Y-99.06000
G01 X-125.39998 Y-99.06000
G01 X-125.40409 Y-98.98159
G01 X-125.42266 Y-98.80486
G01 X-125.43495 Y-98.72734
G01 X-125.45527 Y-98.65149
G01 X-125.51019 Y-98.48251
G01 X-125.53831 Y-98.40920
G01 X-125.57394 Y-98.33925
G01 X-125.66279 Y-98.18538
G01 X-125.70557 Y-98.11954
G01 X-125.75497 Y-98.05853
G01 X-125.87387 Y-97.92647
G01 X-125.92939 Y-97.87095
G01 X-126.03381 Y-97.78997
G01 X-125.92939 Y-97.70902
G01 X-125.87387 Y-97.65350
G01 X-125.75497 Y-97.52145
G01 X-125.70557 Y-97.46044
G01 X-125.66279 Y-97.39460
G01 X-125.57394 Y-97.24072
G01 X-125.53831 Y-97.17077
G01 X-125.51019 Y-97.09747
G01 X-125.45527 Y-96.92848
G01 X-125.43495 Y-96.85264
G01 X-125.42266 Y-96.77512
G01 X-125.40409 Y-96.59838
G01 X-125.39998 Y-96.52000
G01 X-125.40409 Y-96.44159
G01 X-125.42266 Y-96.26486
G01 X-125.43495 Y-96.18734
G01 X-125.45527 Y-96.11149
G01 X-125.51019 Y-95.94251
G01 X-125.53831 Y-95.86920
G01 X-125.57394 Y-95.79925
G01 X-125.66279 Y-95.64538
G01 X-125.70557 Y-95.57954
G01 X-125.75497 Y-95.51853
G01 X-125.87387 Y-95.38647
G01 X-125.92939 Y-95.33095
G01 X-126.03381 Y-95.24997
G01 X-125.92939 Y-95.16902
G01 X-125.87387 Y-95.11350
G01 X-125.75497 Y-94.98145
G01 X-125.70557 Y-94.92043
G01 X-125.66279 Y-94.85460
G01 X-125.57394 Y-94.70073
G01 X-125.53831 Y-94.63077
G01 X-125.51019 Y-94.55747
G01 X-125.45527 Y-94.38848
G01 X-125.43495 Y-94.31264
G01 X-125.42266 Y-94.23512
G01 X-125.40409 Y-94.05838
G01 X-125.39998 Y-93.98000
G01 X-125.40409 Y-93.90159
G01 X-125.42266 Y-93.72486
G01 X-125.43495 Y-93.64734
G01 X-125.45527 Y-93.57149
G01 X-125.51019 Y-93.40251
G01 X-125.53831 Y-93.32920
G01 X-125.57394 Y-93.25925
G01 X-125.66279 Y-93.10538
G01 X-125.70557 Y-93.03954
G01 X-125.75497 Y-92.97853
G01 X-125.87387 Y-92.84647
G01 X-125.92939 Y-92.79095
G01 X-126.03381 Y-92.70997
G01 X-125.92939 Y-92.62902
G01 X-125.87387 Y-92.57350
G01 X-125.75497 Y-92.44145
G01 X-125.70557 Y-92.38043
G01 X-125.66279 Y-92.31460
G01 X-125.57394 Y-92.16072
G01 X-125.53831 Y-92.09077
G01 X-125.51019 Y-92.01747
G01 X-125.45527 Y-91.84848
G01 X-125.43495 Y-91.77264
G01 X-125.42266 Y-91.69512
G01 X-125.40409 Y-91.51838
G01 X-125.39998 Y-91.44000
G01 X-125.40409 Y-91.36159
G01 X-125.42266 Y-91.18486
G01 X-125.43495 Y-91.10734
G01 X-125.45527 Y-91.03149
G01 X-125.51019 Y-90.86251
G01 X-125.53831 Y-90.78920
G01 X-125.57394 Y-90.71925
G01 X-125.66279 Y-90.56538
G01 X-125.70557 Y-90.49954
G01 X-125.75497 Y-90.43853
G01 X-125.87387 Y-90.30647
G01 X-125.92939 Y-90.25095
G01 X-126.03381 Y-90.16997
G01 X-125.92939 Y-90.08902
G01 X-125.87387 Y-90.03350
G01 X-125.75497 Y-89.90145
G01 X-125.70557 Y-89.84043
G01 X-125.66279 Y-89.77460
G01 X-125.57394 Y-89.62072
G01 X-125.53831 Y-89.55077
G01 X-125.51019 Y-89.47747
G01 X-125.45527 Y-89.30848
G01 X-125.43495 Y-89.23264
G01 X-125.42266 Y-89.15512
G01 X-125.40409 Y-88.97838
G01 X-125.39998 Y-88.90000
G01 X-125.40409 Y-88.82159
G01 X-125.42266 Y-88.64486
G01 X-125.43495 Y-88.56734
G01 X-125.45527 Y-88.49149
G01 X-125.51019 Y-88.32251
G01 X-125.53831 Y-88.24920
G01 X-125.57394 Y-88.17925
G01 X-125.66279 Y-88.02538
G01 X-125.70557 Y-87.95954
G01 X-125.75497 Y-87.89853
G01 X-125.87387 Y-87.76647
G01 X-125.92939 Y-87.71095
G01 X-126.03381 Y-87.62997
G01 X-125.92939 Y-87.54902
G01 X-125.87387 Y-87.49350
G01 X-125.75497 Y-87.36145
G01 X-125.70557 Y-87.30044
G01 X-125.66279 Y-87.23460
G01 X-125.57394 Y-87.08072
G01 X-125.53831 Y-87.01077
G01 X-125.51019 Y-86.93747
G01 X-125.45527 Y-86.76848
G01 X-125.43495 Y-86.69264
G01 X-125.42266 Y-86.61512
G01 X-125.40409 Y-86.43838
G01 X-125.39998 Y-86.36000
G01 X-125.40409 Y-86.28159
G01 X-125.42266 Y-86.10486
G01 X-125.43495 Y-86.02734
G01 X-125.45527 Y-85.95149
G01 X-125.51019 Y-85.78251
G01 X-125.53831 Y-85.70920
G01 X-125.57394 Y-85.63925
G01 X-125.66279 Y-85.48538
G01 X-125.70557 Y-85.41954
G01 X-125.75497 Y-85.35853
G01 X-125.87387 Y-85.22647
G01 X-125.92939 Y-85.17095
G01 X-126.03381 Y-85.08997
G01 X-125.92939 Y-85.00902
G01 X-125.87387 Y-84.95350
G01 X-125.75497 Y-84.82145
G01 X-125.70557 Y-84.76044
G01 X-125.66279 Y-84.69460
G01 X-125.57394 Y-84.54072
G01 X-125.53831 Y-84.47077
G01 X-125.51019 Y-84.39747
G01 X-125.45527 Y-84.22848
G01 X-125.43495 Y-84.15264
G01 X-125.42266 Y-84.07512
G01 X-125.40409 Y-83.89838
G01 X-125.39998 Y-83.82000
G01 X-125.40409 Y-83.74159
G01 X-125.42266 Y-83.56486
G01 X-125.43495 Y-83.48734
G01 X-125.45527 Y-83.41149
G01 X-125.51019 Y-83.24251
G01 X-125.53831 Y-83.16920
G01 X-125.57394 Y-83.09925
G01 X-125.66279 Y-82.94538
G01 X-125.70557 Y-82.87954
G01 X-125.75497 Y-82.81853
G01 X-125.87387 Y-82.68647
G01 X-125.92939 Y-82.63095
G01 X-126.03381 Y-82.54997
G01 X-125.92939 Y-82.46902
G01 X-125.87387 Y-82.41350
G01 X-125.75497 Y-82.28145
G01 X-125.70557 Y-82.22043
G01 X-125.66279 Y-82.15460
G01 X-125.57394 Y-82.00073
G01 X-125.53831 Y-81.93077
G01 X-125.51019 Y-81.85747
G01 X-125.45527 Y-81.68848
G01 X-125.43495 Y-81.61264
G01 X-125.42266 Y-81.53512
G01 X-125.40409 Y-81.35838
G01 X-125.39998 Y-81.28000
G01 X-125.40409 Y-81.20159
G01 X-125.42266 Y-81.02486
G01 X-125.43495 Y-80.94734
G01 X-125.45527 Y-80.87149
G01 X-125.51019 Y-80.70251
G01 X-125.53831 Y-80.62920
G01 X-125.57394 Y-80.55925
G01 X-125.66279 Y-80.40538
G01 X-125.70557 Y-80.33954
G01 X-125.75497 Y-80.27853
G01 X-125.87387 Y-80.14647
G01 X-125.92939 Y-80.09095
G01 X-126.03381 Y-80.00997
G01 X-125.92939 Y-79.92902
G01 X-125.87387 Y-79.87350
G01 X-125.75497 Y-79.74145
G01 X-125.70557 Y-79.68043
G01 X-125.66279 Y-79.61460
G01 X-125.57394 Y-79.46072
G01 X-125.53831 Y-79.39077
G01 X-125.51019 Y-79.31747
G01 X-125.45527 Y-79.14848
G01 X-125.43495 Y-79.07264
G01 X-125.42266 Y-78.99512
G01 X-125.40409 Y-78.81838
G01 X-125.39998 Y-78.74000
G01 X-125.40409 Y-78.66159
G01 X-125.42266 Y-78.48486
G01 X-125.43495 Y-78.40734
G01 X-125.45527 Y-78.33149
G01 X-125.51019 Y-78.16251
G01 X-125.53831 Y-78.08920
G01 X-125.57394 Y-78.01925
G01 X-125.66279 Y-77.86538
G01 X-125.70557 Y-77.79954
G01 X-125.75497 Y-77.73853
G01 X-125.87387 Y-77.60647
G01 X-125.92939 Y-77.55095
G01 X-126.03381 Y-77.46997
G01 X-125.92939 Y-77.38902
G01 X-125.87387 Y-77.33350
G01 X-125.75497 Y-77.20145
G01 X-125.70557 Y-77.14043
G01 X-125.66279 Y-77.07460
G01 X-125.57394 Y-76.92072
G01 X-125.53831 Y-76.85077
G01 X-125.51019 Y-76.77747
G01 X-125.45527 Y-76.60848
G01 X-125.43495 Y-76.53264
G01 X-125.42266 Y-76.45512
G01 X-125.40409 Y-76.27838
G01 X-125.39998 Y-76.20000
G01 X-125.40409 Y-76.12159
G01 X-125.42266 Y-75.94486
G01 X-125.43495 Y-75.86734
G01 X-125.45527 Y-75.79149
G01 X-125.51019 Y-75.62251
G01 X-125.53831 Y-75.54920
G01 X-125.57394 Y-75.47925
G01 X-125.66279 Y-75.32538
G01 X-125.70557 Y-75.25954
G01 X-125.75497 Y-75.19853
G01 X-125.87387 Y-75.06647
G01 X-125.92939 Y-75.01095
G01 X-126.03381 Y-74.92997
G01 X-125.92939 Y-74.84902
G01 X-125.87387 Y-74.79350
G01 X-125.75497 Y-74.66145
G01 X-125.70557 Y-74.60044
G01 X-125.66279 Y-74.53460
G01 X-125.57394 Y-74.38072
G01 X-125.53831 Y-74.31077
G01 X-125.51019 Y-74.23747
G01 X-125.45527 Y-74.06848
G01 X-125.43495 Y-73.99264
G01 X-125.42266 Y-73.91512
G01 X-125.40409 Y-73.73838
G01 X-125.39998 Y-73.66000
G01 X-125.40409 Y-73.58159
G01 X-125.42266 Y-73.40486
G01 X-125.43495 Y-73.32734
G01 X-125.45527 Y-73.25149
G01 X-125.51019 Y-73.08251
G01 X-125.53831 Y-73.00920
G01 X-125.57394 Y-72.93925
G01 X-125.66279 Y-72.78538
G01 X-125.70557 Y-72.71954
G01 X-125.75497 Y-72.65853
G01 X-125.87387 Y-72.52647
G01 X-125.92939 Y-72.47095
G01 X-126.03381 Y-72.38997
G01 X-125.92939 Y-72.30902
G01 X-125.87387 Y-72.25350
G01 X-125.75497 Y-72.12145
G01 X-125.70557 Y-72.06043
G01 X-125.66279 Y-71.99460
G01 X-125.57394 Y-71.84072
G01 X-125.53831 Y-71.77077
G01 X-125.51019 Y-71.69747
G01 X-125.45527 Y-71.52848
G01 X-125.43495 Y-71.45264
G01 X-125.42266 Y-71.37512
G01 X-125.40409 Y-71.19838
G01 X-125.39998 Y-71.12000
G01 X-125.40409 Y-71.04159
G01 X-125.42266 Y-70.86486
G01 X-125.43495 Y-70.78734
G01 X-125.45527 Y-70.71149
G01 X-125.51019 Y-70.54251
G01 X-125.53831 Y-70.46920
G01 X-125.57394 Y-70.39925
G01 X-125.66279 Y-70.24538
G01 X-125.70557 Y-70.17954
G01 X-125.75497 Y-70.11853
G01 X-125.87387 Y-69.98647
G01 X-125.92939 Y-69.93095
G01 X-126.03381 Y-69.84997
G01 X-125.92939 Y-69.76902
G01 X-125.87387 Y-69.71350
G01 X-125.75497 Y-69.58145
G01 X-125.70557 Y-69.52043
G01 X-125.66279 Y-69.45460
G01 X-125.57394 Y-69.30072
G01 X-125.53831 Y-69.23077
G01 X-125.51019 Y-69.15747
G01 X-125.45527 Y-68.98848
G01 X-125.43495 Y-68.91264
G01 X-125.42266 Y-68.83512
G01 X-125.40409 Y-68.65838
G01 X-125.39998 Y-68.58000
G01 X-125.40409 Y-68.50159
G01 X-125.42266 Y-68.32486
G01 X-125.43495 Y-68.24734
G01 X-125.45527 Y-68.17149
G01 X-125.51019 Y-68.00251
G01 X-125.53831 Y-67.92920
G01 X-125.57394 Y-67.85925
G01 X-125.66279 Y-67.70538
G01 X-125.70557 Y-67.63954
G01 X-125.75497 Y-67.57853
G01 X-125.87387 Y-67.44647
G01 X-125.92939 Y-67.39095
G01 X-126.03381 Y-67.30997
G01 X-125.92939 Y-67.22902
G01 X-125.87387 Y-67.17350
G01 X-125.75497 Y-67.04145
G01 X-125.70557 Y-66.98043
G01 X-125.66279 Y-66.91460
G01 X-125.57394 Y-66.76072
G01 X-125.53831 Y-66.69077
G01 X-125.51019 Y-66.61747
G01 X-125.45527 Y-66.44848
G01 X-125.43495 Y-66.37264
G01 X-125.42266 Y-66.29512
G01 X-125.40409 Y-66.11838
G01 X-125.39998 Y-66.04000
G01 X-125.40409 Y-65.96159
G01 X-125.42266 Y-65.78486
G01 X-125.43495 Y-65.70734
G01 X-125.45527 Y-65.63149
G01 X-125.51019 Y-65.46251
G01 X-125.53831 Y-65.38920
G01 X-125.57394 Y-65.31925
G01 X-125.66279 Y-65.16538
G01 X-125.70557 Y-65.09954
G01 X-125.78789 Y-65.00195
G01 X-125.94537 Y-64.97117
G01 X-125.78677 Y-65.00216
G01 X-125.73330 Y-64.97358
G01 X-125.61966 Y-64.88031
G01 X-125.52639 Y-64.76667
G01 X-125.45708 Y-64.63701
G01 X-125.41440 Y-64.49631
G01 X-125.39998 Y-64.34999
G01 X-125.39998 Y-62.64999
G01 X-125.41440 Y-62.50366
G01 X-125.45708 Y-62.36297
G01 X-125.52639 Y-62.23330
G01 X-125.61966 Y-62.11966
G01 X-125.73330 Y-62.02639
G01 X-125.86297 Y-61.95708
G01 X-126.00366 Y-61.91440
G01 X-126.14999 Y-61.89998
G01 X-127.84999 Y-61.89998
G01 X-127.99631 Y-61.91440
G01 X-128.13701 Y-61.95708
G01 X-128.26667 Y-62.02639
G01 X-128.38031 Y-62.11966
G01 X-128.47358 Y-62.23330
G01 X-128.54290 Y-62.36297
G01 X-128.58557 Y-62.50366
G01 X-128.60000 Y-62.64999
G01 X-128.60000 Y-64.34999
G01 X-128.58557 Y-64.49631
G01 X-128.54290 Y-64.63701
G01 X-128.47358 Y-64.76667
G01 X-128.38031 Y-64.88031
G01 X-128.26667 Y-64.97358
G01 X-128.21321 Y-65.00216
G01 X-128.05458 Y-64.97119
G01 X-128.21224 Y-65.00213
G01 X-128.29441 Y-65.09954
G01 X-128.33718 Y-65.16538
G01 X-128.42603 Y-65.31925
G01 X-128.46167 Y-65.38920
G01 X-128.48979 Y-65.46251
G01 X-128.54470 Y-65.63149
G01 X-128.56502 Y-65.70734
G01 X-128.57731 Y-65.78486
G01 X-128.59588 Y-65.96159
G01 X-128.60000 Y-66.04000
G01 X-128.59588 Y-66.11838
G01 X-128.57731 Y-66.29512
G01 X-128.56502 Y-66.37264
G01 X-128.54470 Y-66.44848
G01 X-128.48979 Y-66.61747
G01 X-128.46167 Y-66.69077
G01 X-128.42603 Y-66.76072
G01 X-128.33718 Y-66.91460
G01 X-128.29441 Y-66.98043
G01 X-128.24501 Y-67.04145
G01 X-128.12611 Y-67.17350
G01 X-128.07058 Y-67.22902
G01 X-127.96611 Y-67.30997
G01 X-128.07058 Y-67.39095
G01 X-128.12611 Y-67.44647
G01 X-128.24501 Y-67.57853
G01 X-128.29441 Y-67.63954
G01 X-128.33718 Y-67.70538
G01 X-128.42603 Y-67.85925
G01 X-128.46167 Y-67.92920
G01 X-128.48979 Y-68.00251
G01 X-128.54470 Y-68.17149
G01 X-128.56502 Y-68.24734
G01 X-128.57731 Y-68.32486
G01 X-128.59588 Y-68.50159
G01 X-128.60000 Y-68.58000
G01 X-128.59588 Y-68.65838
G01 X-128.57731 Y-68.83512
G01 X-128.56502 Y-68.91264
G01 X-128.54470 Y-68.98848
G01 X-128.48979 Y-69.15747
G01 X-128.46167 Y-69.23077
G01 X-128.42603 Y-69.30072
G01 X-128.33718 Y-69.45460
G01 X-128.29441 Y-69.52043
G01 X-128.24501 Y-69.58145
G01 X-128.12611 Y-69.71350
G01 X-128.07058 Y-69.76902
G01 X-127.96611 Y-69.84997
G01 X-128.07058 Y-69.93095
G01 X-128.12611 Y-69.98647
G01 X-128.24501 Y-70.11853
G01 X-128.29441 Y-70.17954
G01 X-128.33718 Y-70.24538
G01 X-128.42603 Y-70.39925
G01 X-128.46167 Y-70.46920
G01 X-128.48979 Y-70.54251
G01 X-128.54470 Y-70.71149
G01 X-128.56502 Y-70.78734
G01 X-128.57731 Y-70.86486
G01 X-128.59588 Y-71.04159
G01 X-128.60000 Y-71.12000
G01 X-128.59588 Y-71.19838
G01 X-128.57731 Y-71.37512
G01 X-128.56502 Y-71.45264
G01 X-128.54470 Y-71.52848
G01 X-128.48979 Y-71.69747
G01 X-128.46167 Y-71.77077
G01 X-128.42603 Y-71.84072
G01 X-128.33718 Y-71.99460
G01 X-128.29441 Y-72.06043
G01 X-128.24501 Y-72.12145
G01 X-128.12611 Y-72.25350
G01 X-128.07058 Y-72.30902
G01 X-127.96611 Y-72.38997
G01 X-128.07058 Y-72.47095
G01 X-128.12611 Y-72.52647
G01 X-128.24501 Y-72.65853
G01 X-128.29441 Y-72.71954
G01 X-128.33718 Y-72.78538
G01 X-128.42603 Y-72.93925
G01 X-128.46167 Y-73.00920
G01 X-128.48979 Y-73.08251
G01 X-128.54470 Y-73.25149
G01 X-128.56502 Y-73.32734
G01 X-128.57731 Y-73.40486
G01 X-128.59588 Y-73.58159
G01 X-128.60000 Y-73.66000
G01 X-128.59588 Y-73.73838
G01 X-128.57731 Y-73.91512
G01 X-128.56502 Y-73.99264
G01 X-128.54470 Y-74.06848
G01 X-128.48979 Y-74.23747
G01 X-128.46167 Y-74.31077
G01 X-128.42603 Y-74.38072
G01 X-128.33718 Y-74.53460
G01 X-128.29441 Y-74.60044
G01 X-128.24501 Y-74.66145
G01 X-128.12611 Y-74.79350
G01 X-128.07058 Y-74.84902
G01 X-127.96611 Y-74.92997
G01 X-128.07058 Y-75.01095
G01 X-128.12611 Y-75.06647
G01 X-128.24501 Y-75.19853
G01 X-128.29441 Y-75.25954
G01 X-128.33718 Y-75.32538
G01 X-128.42603 Y-75.47925
G01 X-128.46167 Y-75.54920
G01 X-128.48979 Y-75.62251
G01 X-128.54470 Y-75.79149
G01 X-128.56502 Y-75.86734
G01 X-128.57731 Y-75.94486
G01 X-128.59588 Y-76.12159
G01 X-128.60000 Y-76.20000
G01 X-128.59588 Y-76.27838
G01 X-128.57731 Y-76.45512
G01 X-128.56502 Y-76.53264
G01 X-128.54470 Y-76.60848
G01 X-128.48979 Y-76.77747
G01 X-128.46167 Y-76.85077
G01 X-128.42603 Y-76.92072
G01 X-128.33718 Y-77.07460
G01 X-128.29441 Y-77.14043
G01 X-128.24501 Y-77.20145
G01 X-128.12611 Y-77.33350
G01 X-128.07058 Y-77.38902
G01 X-127.96611 Y-77.46997
G01 X-128.07058 Y-77.55095
G01 X-128.12611 Y-77.60647
G01 X-128.24501 Y-77.73853
G01 X-128.29441 Y-77.79954
G01 X-128.33718 Y-77.86538
G01 X-128.42603 Y-78.01925
G01 X-128.46167 Y-78.08920
G01 X-128.48979 Y-78.16251
G01 X-128.54470 Y-78.33149
G01 X-128.56502 Y-78.40734
G01 X-128.57731 Y-78.48486
G01 X-128.59588 Y-78.66159
G01 X-128.60000 Y-78.74000
G01 X-128.59588 Y-78.81838
G01 X-128.57731 Y-78.99512
G01 X-128.56502 Y-79.07264
G01 X-128.54470 Y-79.14848
G01 X-128.48979 Y-79.31747
G01 X-128.46167 Y-79.39077
G01 X-128.42603 Y-79.46072
G01 X-128.33718 Y-79.61460
G01 X-128.29441 Y-79.68043
G01 X-128.24501 Y-79.74145
G01 X-128.12611 Y-79.87350
G01 X-128.07058 Y-79.92902
G01 X-127.96614 Y-80.00997
G01 X-128.07058 Y-80.09095
G01 X-128.12611 Y-80.14647
G01 X-128.24501 Y-80.27853
G01 X-128.29441 Y-80.33954
G01 X-128.33718 Y-80.40538
G01 X-128.42603 Y-80.55925
G01 X-128.46167 Y-80.62920
G01 X-128.48979 Y-80.70251
G01 X-128.54470 Y-80.87149
G01 X-128.56502 Y-80.94734
G01 X-128.57731 Y-81.02486
G01 X-128.59588 Y-81.20159
G01 X-128.60000 Y-81.28000
G01 X-128.59588 Y-81.35838
G01 X-128.57731 Y-81.53512
G01 X-128.56502 Y-81.61264
G01 X-128.54470 Y-81.68848
G01 X-128.48979 Y-81.85747
G01 X-128.46167 Y-81.93077
G01 X-128.42603 Y-82.00073
G01 X-128.33718 Y-82.15460
G01 X-128.29441 Y-82.22043
G01 X-128.24501 Y-82.28145
G01 X-128.12611 Y-82.41350
G01 X-128.07058 Y-82.46902
G01 X-127.96611 Y-82.54997
G01 X-127.99367 Y-82.56999
G01 X-127.98969 Y-82.58223
G01 X-127.99367 Y-82.56999
G01 X-134.10222 Y-82.56999
G01 X-134.11010 Y-82.58901
G01 X-134.10222 Y-82.56999
G01 X-135.90999 Y-80.76222
G01 X-135.92901 Y-80.77009
G01 X-135.90999 Y-80.76222
G01 X-135.90999 Y-50.80000
G01 X-135.92320 Y-50.62893
G01 X-135.93402 Y-50.55613
G01 X-135.98035 Y-50.39093
G01 X-136.00514 Y-50.32164
G01 X-136.08281 Y-50.16866
G01 X-136.16450 Y-50.04641
G01 X-136.27611 Y-49.91611
G01 X-138.81611 Y-47.37611
G01 X-138.87064 Y-47.32668
G01 X-139.00551 Y-47.22066
G01 X-139.15509 Y-47.13661
G01 X-139.29093 Y-47.08035
G01 X-139.45613 Y-47.03402
G01 X-139.52893 Y-47.02320
G01 X-139.70000 Y-47.00999
G01 X-163.89998 Y-47.00999
G01 X-164.07102 Y-47.02320
G01 X-164.21522 Y-47.05190
G01 X-164.30902 Y-47.08035
G01 X-164.44486 Y-47.13661
G01 X-164.53129 Y-47.18281
G01 X-164.65354 Y-47.26450
G01 X-164.72931 Y-47.32668
G01 X-164.78385 Y-47.37611
G01 X-168.52387 Y-51.11610
G01 X-168.61480 Y-51.21900
G01 X-168.68397 Y-51.31422
G01 X-168.72496 Y-51.38110
G01 X-168.77840 Y-51.48595
G01 X-168.80843 Y-51.55847
G01 X-168.84480 Y-51.67036
G01 X-168.86311 Y-51.74668
G01 X-168.88153 Y-51.86291
G01 X-168.88998 Y-52.00000
G01 X-168.88998 Y-72.85398
G01 X-168.88638 Y-72.92749
G01 X-168.86596 Y-73.09782
G01 X-168.81963 Y-73.26302
G01 X-168.79484 Y-73.33231
G01 X-168.71716 Y-73.48530
G01 X-168.63548 Y-73.60755
G01 X-168.52387 Y-73.73785
G01 X-167.71785 Y-74.54387
G01 X-167.66332 Y-74.59330
G01 X-167.52844 Y-74.69932
G01 X-167.37886 Y-74.78337
G01 X-167.24302 Y-74.83963
G01 X-167.07782 Y-74.88596
G01 X-167.00503 Y-74.89678
G01 X-166.83398 Y-74.90998
G01 X-166.09367 Y-74.90998
G01 X-166.08969 Y-74.89774
G01 X-166.09367 Y-74.90998
G01 X-166.06611 Y-74.92997
G01 X-166.17058 Y-75.01095
G01 X-166.22611 Y-75.06647
G01 X-166.34501 Y-75.19853
G01 X-166.39441 Y-75.25954
G01 X-166.43718 Y-75.32538
G01 X-166.52603 Y-75.47925
G01 X-166.56167 Y-75.54920
G01 X-166.58979 Y-75.62251
G01 X-166.64470 Y-75.79149
G01 X-166.66502 Y-75.86734
G01 X-166.67731 Y-75.94486
G01 X-166.69588 Y-76.12159
G01 X-166.70000 Y-76.20000
G01 X-166.69588 Y-76.27838
G01 X-166.67731 Y-76.45512
G01 X-166.66502 Y-76.53264
G01 X-166.64470 Y-76.60848
G01 X-166.58979 Y-76.77747
G01 X-166.56167 Y-76.85077
G01 X-166.52603 Y-76.92072
G01 X-166.43718 Y-77.07460
G01 X-166.39441 Y-77.14043
G01 X-166.34501 Y-77.20145
G01 X-166.22611 Y-77.33350
G01 X-166.17058 Y-77.38902
G01 X-166.06611 Y-77.46997
G01 X-166.17058 Y-77.55095
G01 X-166.22611 Y-77.60647
G01 X-166.34501 Y-77.73853
G01 X-166.39441 Y-77.79954
G01 X-166.43718 Y-77.86538
G01 X-166.52603 Y-78.01925
G01 X-166.56167 Y-78.08920
G01 X-166.58979 Y-78.16251
G01 X-166.64470 Y-78.33149
G01 X-166.66502 Y-78.40734
G01 X-166.67731 Y-78.48486
G01 X-166.69588 Y-78.66159
G01 X-166.70000 Y-78.74000
G01 X-166.69588 Y-78.81838
G01 X-166.67731 Y-78.99512
G01 X-166.66502 Y-79.07264
G01 X-166.64470 Y-79.14848
G01 X-166.58979 Y-79.31747
G01 X-166.56167 Y-79.39077
G01 X-166.52603 Y-79.46072
G01 X-166.43718 Y-79.61460
G01 X-166.39441 Y-79.68043
G01 X-166.34501 Y-79.74145
G01 X-166.22611 Y-79.87350
G01 X-166.17058 Y-79.92902
G01 X-166.06611 Y-80.00997
G01 X-166.17058 Y-80.09095
G01 X-166.22611 Y-80.14647
G01 X-166.34501 Y-80.27853
G01 X-166.39441 Y-80.33954
G01 X-166.43718 Y-80.40538
G01 X-166.52603 Y-80.55925
G01 X-166.56167 Y-80.62920
G01 X-166.58979 Y-80.70251
G01 X-166.64470 Y-80.87149
G01 X-166.66502 Y-80.94734
G01 X-166.67731 Y-81.02486
G01 X-166.69588 Y-81.20159
G01 X-166.70000 Y-81.28000
G01 X-166.69588 Y-81.35838
G01 X-166.67731 Y-81.53512
G01 X-166.66502 Y-81.61264
G01 X-166.64470 Y-81.68848
G01 X-166.58979 Y-81.85747
G01 X-166.56167 Y-81.93077
G01 X-166.52603 Y-82.00073
G01 X-166.43718 Y-82.15460
G01 X-166.39441 Y-82.22043
G01 X-166.31211 Y-82.31800
G01 X-166.15463 Y-82.34906
G01 X-166.37249 Y-82.30588
G01 X-166.15463 Y-82.34906
G01 X-166.01371 Y-82.38650
G01 X-166.15463 Y-82.34906
G01 X-166.31318 Y-82.31779
G01 X-166.36667 Y-82.34639
G01 X-166.48031 Y-82.43966
G01 X-166.57358 Y-82.55330
G01 X-166.64290 Y-82.68297
G01 X-166.68557 Y-82.82366
G01 X-166.70000 Y-82.96999
G01 X-166.70000 Y-84.66999
G01 X-166.68557 Y-84.81631
G01 X-166.64290 Y-84.95701
G01 X-166.57358 Y-85.08667
G01 X-166.48031 Y-85.20031
G01 X-166.36667 Y-85.29358
G01 X-166.23701 Y-85.36290
G01 X-166.09632 Y-85.40557
G01 X-165.94999 Y-85.42000
G01 X-164.24999 Y-85.42000
G01 X-164.10366 Y-85.40557
G01 X-163.96297 Y-85.36290
G01 X-163.83330 Y-85.29358
G01 X-163.71966 Y-85.20031
G01 X-163.62639 Y-85.08667
G01 X-163.61748 Y-85.06998
G01 X-163.62975 Y-85.04479
G01 X-163.61748 Y-85.06998
G01 X-157.48000 Y-85.06998
G01 X-157.30893 Y-85.05678
G01 X-157.23613 Y-85.04596
G01 X-157.07093 Y-84.99963
G01 X-156.93509 Y-84.94337
G01 X-156.78551 Y-84.85932
G01 X-156.65064 Y-84.75330
G01 X-156.59611 Y-84.70387
G01 X-154.05611 Y-82.16387
G01 X-153.94450 Y-82.03357
G01 X-153.86677 Y-81.91741
G01 X-153.82603 Y-82.00073
G01 X-153.73718 Y-82.15460
G01 X-153.69441 Y-82.22043
G01 X-153.64501 Y-82.28145
G01 X-153.52611 Y-82.41350
G01 X-153.47058 Y-82.46902
G01 X-153.36611 Y-82.54997
G01 X-153.47058 Y-82.63095
G01 X-153.52611 Y-82.68647
G01 X-153.64501 Y-82.81853
G01 X-153.69441 Y-82.87954
G01 X-153.73718 Y-82.94538
G01 X-153.82603 Y-83.09925
G01 X-153.86167 Y-83.16920
G01 X-153.88979 Y-83.24251
G01 X-153.94470 Y-83.41149
G01 X-153.96502 Y-83.48734
G01 X-153.97731 Y-83.56486
G01 X-153.99588 Y-83.74159
G01 X-154.00000 Y-83.82000
G01 X-153.99588 Y-83.89838
G01 X-153.97731 Y-84.07512
G01 X-153.96502 Y-84.15264
G01 X-153.94470 Y-84.22848
G01 X-153.88979 Y-84.39747
G01 X-153.86167 Y-84.47077
G01 X-153.82603 Y-84.54072
G01 X-153.73718 Y-84.69460
G01 X-153.69441 Y-84.76044
G01 X-153.64501 Y-84.82145
G01 X-153.52611 Y-84.95350
G01 X-153.47058 Y-85.00902
G01 X-153.36611 Y-85.08997
G01 X-153.47058 Y-85.17095
G01 X-153.52611 Y-85.22647
G01 X-153.64501 Y-85.35853
G01 X-153.69441 Y-85.41954
G01 X-153.73718 Y-85.48538
G01 X-153.82603 Y-85.63925
G01 X-153.86167 Y-85.70920
G01 X-153.88979 Y-85.78251
G01 X-153.94470 Y-85.95149
G01 X-153.96502 Y-86.02734
G01 X-153.97731 Y-86.10486
G01 X-153.99588 Y-86.28159
G01 X-154.00000 Y-86.36000
G01 X-153.99588 Y-86.43838
G01 X-153.97731 Y-86.61512
G01 X-153.96502 Y-86.69264
G01 X-153.94470 Y-86.76848
G01 X-153.88979 Y-86.93747
G01 X-153.86167 Y-87.01077
G01 X-153.82603 Y-87.08072
G01 X-153.73718 Y-87.23460
G01 X-153.69441 Y-87.30044
G01 X-153.64501 Y-87.36145
G01 X-153.52611 Y-87.49350
G01 X-153.47058 Y-87.54902
G01 X-153.36611 Y-87.62997
G01 X-153.47058 Y-87.71095
G01 X-153.52611 Y-87.76647
G01 X-153.64501 Y-87.89853
G01 X-153.69441 Y-87.95954
G01 X-153.73718 Y-88.02538
G01 X-153.82603 Y-88.17925
G01 X-153.86167 Y-88.24920
G01 X-153.88979 Y-88.32251
G01 X-153.94470 Y-88.49149
G01 X-153.96502 Y-88.56734
G01 X-153.97731 Y-88.64486
G01 X-153.99588 Y-88.82159
G01 X-154.00000 Y-88.90000
G01 X-153.99588 Y-88.97838
G01 X-153.97731 Y-89.15512
G01 X-153.96502 Y-89.23264
G01 X-153.94470 Y-89.30848
G01 X-153.88979 Y-89.47747
G01 X-153.86167 Y-89.55077
G01 X-153.82603 Y-89.62072
G01 X-153.73718 Y-89.77460
G01 X-153.69441 Y-89.84043
G01 X-153.64501 Y-89.90145
G01 X-153.52611 Y-90.03350
G01 X-153.47058 Y-90.08902
G01 X-153.36611 Y-90.16997
G01 X-153.47058 Y-90.25095
G01 X-153.52611 Y-90.30647
G01 X-153.64501 Y-90.43853
G01 X-153.69441 Y-90.49954
G01 X-153.73718 Y-90.56538
G01 X-153.82603 Y-90.71925
G01 X-153.86167 Y-90.78920
G01 X-153.88979 Y-90.86251
G01 X-153.94470 Y-91.03149
G01 X-153.96502 Y-91.10734
G01 X-153.97731 Y-91.18486
G01 X-153.99588 Y-91.36159
G01 X-154.00000 Y-91.44000
G01 X-153.99588 Y-91.51838
G01 X-153.97731 Y-91.69512
G01 X-153.96502 Y-91.77264
G01 X-153.94470 Y-91.84848
G01 X-153.88979 Y-92.01747
G01 X-153.86167 Y-92.09077
G01 X-153.82603 Y-92.16072
G01 X-153.73718 Y-92.31460
G01 X-153.69441 Y-92.38043
G01 X-153.64501 Y-92.44145
G01 X-153.52611 Y-92.57350
G01 X-153.47058 Y-92.62902
G01 X-153.36611 Y-92.70997
G01 X-153.39367 Y-92.72999
G01 X-153.38969 Y-92.74223
G01 X-153.39367 Y-92.72999
G01 X-163.61748 Y-92.72999
G01 X-163.62975 Y-92.75519
G01 X-163.61748 Y-92.72999
G01 X-163.62639 Y-92.71330
G01 X-163.71966 Y-92.59966
G01 X-163.83330 Y-92.50639
G01 X-163.96297 Y-92.43708
G01 X-164.10366 Y-92.39440
G01 X-164.24999 Y-92.37998
G01 X-165.94999 Y-92.37998
G01 X-166.09632 Y-92.39440
G01 X-166.23701 Y-92.43708
G01 X-166.36667 Y-92.50639
G01 X-166.48031 Y-92.59966
G01 X-166.57358 Y-92.71330
G01 X-166.64290 Y-92.84297
G01 X-166.68557 Y-92.98366
G01 X-166.70000 Y-93.12999
G01 X-166.70000 Y-94.82999
G01 X-166.68557 Y-94.97631
G01 X-166.64290 Y-95.11701
G01 X-166.57358 Y-95.24667
G01 X-166.48031 Y-95.36031
G01 X-166.36667 Y-95.45358
G01 X-166.23701 Y-95.52290
G01 X-166.09632 Y-95.56557
G01 X-165.94999 Y-95.58000
G01 X-164.24999 Y-95.58000
G01 X-164.10366 Y-95.56557
G01 X-163.96297 Y-95.52290
G01 X-163.83330 Y-95.45358
G01 X-163.71966 Y-95.36031
G01 X-163.62639 Y-95.24667
G01 X-163.61748 Y-95.22998
G01 X-163.62975 Y-95.20479
G01 X-163.61748 Y-95.22998
G01 X-153.39367 Y-95.22998
G01 X-153.38969 Y-95.21774
G01 X-153.39367 Y-95.22998
G01 X-153.36611 Y-95.24997
G01 X-153.47058 Y-95.33095
G01 X-153.52611 Y-95.38647
G01 X-153.64501 Y-95.51853
G01 X-153.69441 Y-95.57954
G01 X-153.73718 Y-95.64538
G01 X-153.82603 Y-95.79925
G01 X-153.86167 Y-95.86920
G01 X-153.88979 Y-95.94251
G01 X-153.94470 Y-96.11149
G01 X-153.96502 Y-96.18734
G01 X-153.97731 Y-96.26486
G01 X-153.99588 Y-96.44159
G01 X-154.00000 Y-96.52000
G01 X-153.99588 Y-96.59838
G01 X-153.97731 Y-96.77512
G01 X-153.96502 Y-96.85264
G01 X-153.94470 Y-96.92848
G01 X-153.88979 Y-97.09747
G01 X-153.86167 Y-97.17077
G01 X-153.82603 Y-97.24072
G01 X-153.73718 Y-97.39460
G01 X-153.69441 Y-97.46044
G01 X-153.64501 Y-97.52145
G01 X-153.52611 Y-97.65350
G01 X-153.47058 Y-97.70902
G01 X-153.36614 Y-97.78997
G01 X-153.40015 Y-97.78997
G01 X-153.59586 Y-97.71619
G01 X-153.77358 Y-97.63704
G01 X-153.92428 Y-97.55998
G01 X-162.56000 Y-97.55998
G01 X-162.75555 Y-97.57440
G01 X-162.85263 Y-97.58881
G01 X-163.04161 Y-97.64111
G01 X-163.22274 Y-97.71614
G01 X-163.39335 Y-97.81278
G01 X-163.47216 Y-97.87125
G01 X-163.62065 Y-97.99932
G01 X-165.37130 Y-99.74999
G01 X-165.36347 Y-99.76894
G01 X-165.37130 Y-99.74999
G01 X-165.94999 Y-99.74999
G01 X-166.14508 Y-99.76919
G01 X-166.33266 Y-99.82611
G01 X-166.50556 Y-99.91852
G01 X-166.65710 Y-100.04288
G01 X-166.78145 Y-100.19441
G01 X-166.87386 Y-100.36731
G01 X-166.93078 Y-100.55489
G01 X-166.94998 Y-100.74999
G01 X-166.94998 Y-102.44999
G01 X-166.93078 Y-102.64508
G01 X-166.87386 Y-102.83266
G01 X-166.78145 Y-103.00553
G01 X-166.66113 Y-103.15217
G01 X-166.63698 Y-103.15021
G01 X-166.66045 Y-103.15212
G01 X-166.74252 Y-103.29426
G01 X-166.79004 Y-103.38752
G01 X-166.82756 Y-103.48524
G01 X-166.88247 Y-103.65425
G01 X-166.90957 Y-103.75534
G01 X-166.92593 Y-103.85875
G01 X-166.94450 Y-104.03545
G01 X-166.94998 Y-104.13997
G01 X-166.94450 Y-104.24452
G01 X-166.92593 Y-104.42123
G01 X-166.90957 Y-104.52463
G01 X-166.88247 Y-104.62572
G01 X-166.82756 Y-104.79474
G01 X-166.79004 Y-104.89242
G01 X-166.74252 Y-104.98569
G01 X-166.65367 Y-105.13962
G01 X-166.59667 Y-105.22740
G01 X-166.53081 Y-105.30873
G01 X-166.41188 Y-105.44078
G01 X-166.33787 Y-105.51477
G01 X-166.25654 Y-105.58069
G01 X-166.11277 Y-105.68513
G01 X-166.02499 Y-105.74213
G01 X-165.93172 Y-105.78963
G01 X-165.76939 Y-105.86192
G01 X-165.67168 Y-105.89943
G01 X-165.57056 Y-105.92653
G01 X-165.39675 Y-105.96344
G01 X-165.29337 Y-105.97985
G01 X-165.18882 Y-105.98534
G01 X-165.01115 Y-105.98534
G01 X-164.90660 Y-105.97985
G01 X-164.80323 Y-105.96344
G01 X-164.62941 Y-105.92653
G01 X-164.52830 Y-105.89943
G01 X-164.43058 Y-105.86192
G01 X-164.26825 Y-105.78963
G01 X-164.17498 Y-105.74213
G01 X-164.02505 Y-105.63997
G01 X-164.02845 Y-105.62885
G01 X-164.02505 Y-105.63997
G01 X-153.92433 Y-105.63997
G01 X-153.77373 Y-105.56253
G01 X-153.92898 Y-105.64236
G01 X-154.04252 Y-105.83426
G01 X-154.09004 Y-105.92752
G01 X-154.12756 Y-106.02524
G01 X-154.18247 Y-106.19423
G01 X-154.20957 Y-106.29534
G01 X-154.22593 Y-106.39872
G01 X-154.24450 Y-106.57545
G01 X-154.24998 Y-106.68000
G01 X-154.24450 Y-106.78452
G01 X-154.22593 Y-106.96123
G01 X-154.20957 Y-107.06463
G01 X-154.18247 Y-107.16572
G01 X-154.12756 Y-107.33474
G01 X-154.09004 Y-107.43245
G01 X-154.04252 Y-107.52572
G01 X-153.95367 Y-107.67962
G01 X-153.89667 Y-107.76740
G01 X-153.83081 Y-107.84873
G01 X-153.73962 Y-107.94997
G01 X-153.83081 Y-108.05124
G01 X-153.89667 Y-108.13258
G01 X-153.95367 Y-108.22036
G01 X-154.04252 Y-108.37426
G01 X-154.09004 Y-108.46752
G01 X-154.12756 Y-108.56524
G01 X-154.18247 Y-108.73425
G01 X-154.20957 Y-108.83534
G01 X-154.22593 Y-108.93875
G01 X-154.24450 Y-109.11545
G01 X-154.24998 Y-109.22000
G01 X-154.24450 Y-109.32452
G01 X-154.22593 Y-109.50123
G01 X-154.20957 Y-109.60463
G01 X-154.18247 Y-109.70572
G01 X-154.12756 Y-109.87474
G01 X-154.09004 Y-109.97245
G01 X-154.04252 Y-110.06572
G01 X-153.95367 Y-110.21962
G01 X-153.89667 Y-110.30740
G01 X-153.83081 Y-110.38873
G01 X-153.73962 Y-110.48997
G01 X-153.83081 Y-110.59124
G01 X-153.89667 Y-110.67258
G01 X-153.95367 Y-110.76036
G01 X-154.04252 Y-110.91426
G01 X-154.09004 Y-111.00753
G01 X-154.12756 Y-111.10524
G01 X-154.18247 Y-111.27425
G01 X-154.20957 Y-111.37534
G01 X-154.22593 Y-111.47875
G01 X-154.24450 Y-111.65545
G01 X-154.24998 Y-111.76000
G01 X-154.24450 Y-111.86452
G01 X-154.22593 Y-112.04123
G01 X-154.20957 Y-112.14463
G01 X-154.18247 Y-112.24572
G01 X-154.12756 Y-112.41474
G01 X-154.09004 Y-112.51245
G01 X-154.04252 Y-112.60572
G01 X-153.95367 Y-112.75962
G01 X-153.89667 Y-112.84740
G01 X-153.83081 Y-112.92873
G01 X-153.71188 Y-113.06078
G01 X-153.63787 Y-113.13480
G01 X-153.55654 Y-113.20069
G01 X-153.41277 Y-113.30513
G01 X-153.32499 Y-113.36213
G01 X-153.23172 Y-113.40965
G01 X-153.06939 Y-113.48194
G01 X-152.97168 Y-113.51943
G01 X-152.87056 Y-113.54653
G01 X-152.69675 Y-113.58347
G01 X-152.59337 Y-113.59985
G01 X-152.48882 Y-113.60534
G01 X-152.31115 Y-113.60534
G01 X-152.20660 Y-113.59985
G01 X-152.10323 Y-113.58347
G01 X-151.92941 Y-113.54653
G01 X-151.82830 Y-113.51943
G01 X-151.73058 Y-113.48194
G01 X-151.56825 Y-113.40965
G01 X-151.47498 Y-113.36213
G01 X-151.38720 Y-113.30513
G01 X-151.24344 Y-113.20069
G01 X-151.16211 Y-113.13480
G01 X-151.08809 Y-113.06078
G01 X-150.96917 Y-112.92873
G01 X-150.90330 Y-112.84740
G01 X-150.84631 Y-112.75962
G01 X-150.75746 Y-112.60572
G01 X-150.70993 Y-112.51245
G01 X-150.67242 Y-112.41474
G01 X-150.61750 Y-112.24572
G01 X-150.59040 Y-112.14463
G01 X-150.57404 Y-112.04123
G01 X-150.55548 Y-111.86452
G01 X-150.54999 Y-111.76000
G01 X-150.55548 Y-111.65545
G01 X-150.57404 Y-111.47875
G01 X-150.59040 Y-111.37534
G01 X-150.61750 Y-111.27425
G01 X-150.67242 Y-111.10524
G01 X-150.70993 Y-111.00753
G01 X-150.75746 Y-110.91426
G01 X-150.84631 Y-110.76036
G01 X-150.90330 Y-110.67258
G01 X-150.96917 Y-110.59124
G01 X-151.06033 Y-110.48997
G01 X-150.96917 Y-110.38873
G01 X-150.90330 Y-110.30740
G01 X-150.84631 Y-110.21962
G01 X-150.75746 Y-110.06572
G01 X-150.70993 Y-109.97245
G01 X-150.67242 Y-109.87474
G01 X-150.61750 Y-109.70572
G01 X-150.59040 Y-109.60463
G01 X-150.57404 Y-109.50123
G01 X-150.55548 Y-109.32452
G01 X-150.54999 Y-109.22000
G01 X-150.55548 Y-109.11545
G01 X-150.57404 Y-108.93875
G01 X-150.59040 Y-108.83534
G01 X-150.61750 Y-108.73425
G01 X-150.67242 Y-108.56524
G01 X-150.70993 Y-108.46752
G01 X-150.75746 Y-108.37426
G01 X-150.84631 Y-108.22036
G01 X-150.90330 Y-108.13258
G01 X-150.96917 Y-108.05124
G01 X-151.06033 Y-107.94997
G01 X-150.96917 Y-107.84873
G01 X-150.90330 Y-107.76740
G01 X-150.84631 Y-107.67962
G01 X-150.75746 Y-107.52572
G01 X-150.70993 Y-107.43245
G01 X-150.67242 Y-107.33474
G01 X-150.61750 Y-107.16572
G01 X-150.59040 Y-107.06463
G01 X-150.57404 Y-106.96123
G01 X-150.55548 Y-106.78452
G01 X-150.54999 Y-106.68000
G01 X-150.55548 Y-106.57545
G01 X-150.57404 Y-106.39872
G01 X-150.59040 Y-106.29534
G01 X-150.61750 Y-106.19423
G01 X-150.67242 Y-106.02524
G01 X-150.70993 Y-105.92752
G01 X-150.75746 Y-105.83426
G01 X-150.84631 Y-105.68033
G01 X-150.90330 Y-105.59255
G01 X-150.96917 Y-105.51122
G01 X-151.06033 Y-105.40997
G01 X-150.96917 Y-105.30873
G01 X-150.90330 Y-105.22740
G01 X-150.90043 Y-105.22295
G01 X-150.90285 Y-105.18282
G01 X-150.90056 Y-105.22069
G01 X-148.38065 Y-107.74065
G01 X-148.32300 Y-107.79394
G01 X-148.26333 Y-107.84489
G01 X-148.13638 Y-107.93712
G01 X-148.06948 Y-107.97812
G01 X-147.92968 Y-108.04936
G01 X-147.85718 Y-108.07939
G01 X-147.70793 Y-108.12788
G01 X-147.63166 Y-108.14619
G01 X-147.47667 Y-108.17075
G01 X-147.32000 Y-108.18000
G01 X-128.52436 Y-108.18000
G01 X-128.55367 Y-108.22036
G01 X-128.64252 Y-108.37426
G01 X-128.69004 Y-108.46752
G01 X-128.72756 Y-108.56524
G01 X-128.78247 Y-108.73425
G01 X-128.80957 Y-108.83534
G01 X-128.82593 Y-108.93875
G01 X-128.84450 Y-109.11545
G01 X-128.84998 Y-109.22000
G01 X-128.84450 Y-109.32452
G01 X-128.82593 Y-109.50123
G01 X-128.80957 Y-109.60463
G01 X-128.78247 Y-109.70572
G01 X-128.72756 Y-109.87474
G01 X-128.69004 Y-109.97245
G01 X-128.64252 Y-110.06572
G01 X-128.55367 Y-110.21962
G01 X-128.49667 Y-110.30740
G01 X-128.43081 Y-110.38873
G01 X-128.33962 Y-110.48997
G01 X-128.43081 Y-110.59124
G01 X-128.49667 Y-110.67258
G01 X-128.55367 Y-110.76036
G01 X-128.64252 Y-110.91426
G01 X-128.69004 Y-111.00753
G01 X-128.72756 Y-111.10524
G01 X-128.78247 Y-111.27425
G01 X-128.80957 Y-111.37534
G01 X-128.82593 Y-111.47875
G01 X-128.84450 Y-111.65545
G01 X-128.84998 Y-111.76000
G01 X-128.84450 Y-111.86452
G01 X-128.82593 Y-112.04123
G01 X-128.80957 Y-112.14463
G01 X-128.78247 Y-112.24572
G01 X-128.72756 Y-112.41474
G01 X-128.69004 Y-112.51245
G01 X-128.64252 Y-112.60572
G01 X-128.55367 Y-112.75962
G01 X-128.49667 Y-112.84740
G01 X-128.43081 Y-112.92873
G01 X-128.31188 Y-113.06078
G01 X-128.23787 Y-113.13480
G01 X-128.15654 Y-113.20069
G01 X-128.01277 Y-113.30513
G01 X-127.92499 Y-113.36213
G01 X-127.83172 Y-113.40965
G01 X-127.66939 Y-113.48194
G01 X-127.57168 Y-113.51943
G01 X-127.47056 Y-113.54653
G01 X-127.29675 Y-113.58347
G01 X-127.19337 Y-113.59985
G01 X-127.08882 Y-113.60534
G01 X-126.91115 Y-113.60534
G01 X-126.80660 Y-113.59985
G01 X-126.70323 Y-113.58347
G01 X-126.52941 Y-113.54653
G01 X-126.42830 Y-113.51943
G01 X-126.33058 Y-113.48194
G01 X-126.16825 Y-113.40965
G01 X-126.07498 Y-113.36213
G01 X-125.98720 Y-113.30513
G01 X-125.84344 Y-113.20069
G01 X-125.76211 Y-113.13480
G01 X-125.68809 Y-113.06078
G01 X-125.56917 Y-112.92873
G01 X-125.50330 Y-112.84740
G01 X-125.44631 Y-112.75962
G01 X-125.35746 Y-112.60572
G01 X-125.30993 Y-112.51245
G01 X-125.27242 Y-112.41474
G01 X-125.21750 Y-112.24572
G01 X-125.19040 Y-112.14463
G01 X-125.17404 Y-112.04123
G01 X-125.15548 Y-111.86452
G01 X-125.14999 Y-111.76000
G01 X-125.15548 Y-111.65545
G01 X-125.17404 Y-111.47875
G01 X-125.19040 Y-111.37534
G01 X-125.21750 Y-111.27425
G01 X-125.27242 Y-111.10524
G01 X-125.30993 Y-111.00753
G01 X-125.35746 Y-110.91426
G01 X-125.44631 Y-110.76036
G01 X-125.50330 Y-110.67258
G01 X-125.56917 Y-110.59124
G01 X-125.66033 Y-110.48997
G01 X-125.56917 Y-110.38873
G01 X-125.50330 Y-110.30740
G01 X-125.44631 Y-110.21962
G01 X-125.35746 Y-110.06572
G01 X-125.30993 Y-109.97245
G01 X-125.27242 Y-109.87474
G01 X-125.21750 Y-109.70572
G01 X-125.19040 Y-109.60463
G01 X-125.17404 Y-109.50123
G01 X-125.15548 Y-109.32452
G01 X-125.14999 Y-109.22000
G01 X-125.15548 Y-109.11545
G01 X-125.17404 Y-108.93875
G01 X-125.19040 Y-108.83534
G01 X-125.21750 Y-108.73425
G01 X-125.27242 Y-108.56524
G01 X-125.30993 Y-108.46752
G01 X-125.35746 Y-108.37426
G01 X-125.44631 Y-108.22036
G01 X-125.50330 Y-108.13258
G01 X-125.56917 Y-108.05124
G01 X-125.66033 Y-107.94997
G01 X-125.56917 Y-107.84873
G01 X-125.50330 Y-107.76740
G01 X-125.44631 Y-107.67962
G01 X-125.35746 Y-107.52572
G01 X-125.30993 Y-107.43245
G01 X-125.27242 Y-107.33474
G01 X-125.21750 Y-107.16572
G01 X-125.19040 Y-107.06463
G01 X-125.17404 Y-106.96123
G01 X-125.15548 Y-106.78452
G01 X-125.14999 Y-106.68000
G01 X-125.15548 Y-106.57545
G01 X-125.17404 Y-106.39872
G01 X-125.19040 Y-106.29534
G01 X-125.21750 Y-106.19423
G01 X-125.27242 Y-106.02524
G01 X-125.30993 Y-105.92752
G01 X-125.35746 Y-105.83426
G01 X-125.44631 Y-105.68033
G01 X-125.50330 Y-105.59255
G01 X-125.56917 Y-105.51122
G01 X-125.66033 Y-105.40997
G01 X-125.56917 Y-105.30873
G01 X-125.50330 Y-105.22740
G01 X-125.44631 Y-105.13962
G01 X-125.35746 Y-104.98569
G01 X-125.30993 Y-104.89242
G01 X-125.27242 Y-104.79474
G01 X-125.21750 Y-104.62572
G01 X-125.19040 Y-104.52463
G01 X-125.17404 Y-104.42123
G01 X-125.15548 Y-104.24452
G01 X-125.14999 Y-104.13997
G01 X-125.15548 Y-104.03545
G01 X-125.17404 Y-103.85875
G01 X-125.19040 Y-103.75534
G01 X-125.21750 Y-103.65425
G01 X-125.27242 Y-103.48524
G01 X-125.30993 Y-103.38752
G01 X-125.35746 Y-103.29426
G01 X-125.44631 Y-103.14036
G01 X-125.50330 Y-103.05258
G01 X-125.56917 Y-102.97124
G01 X-125.66033 Y-102.86995
G01 X-125.56917 Y-102.76873
G01 X-125.50330 Y-102.68740
G01 X-125.44631 Y-102.59959
G01 X-125.35746 Y-102.44572
G01 X-125.30993 Y-102.35245
G01 X-125.27242 Y-102.25471
G01 X-125.21750 Y-102.08570
G01 X-125.19040 Y-101.98463
G01 X-125.17404 Y-101.88123
G01 X-125.15548 Y-101.70450
G01 X-125.14999 Y-101.60000
G01 X-125.15548 Y-101.49545
G01 X-125.17404 Y-101.31875
G01 X-125.19040 Y-101.21534
G01 X-125.21750 Y-101.11425
G01 X-125.27242 Y-100.94524
G01 X-125.30993 Y-100.84753
G01 X-125.35746 Y-100.75426
G01 X-125.44631 Y-100.60036
G01 X-125.50330 Y-100.51258
G01 X-125.56917 Y-100.43124
G01 X-125.66033 Y-100.32997
G01 X-125.56917 Y-100.22873
G01 X-125.50330 Y-100.14740
G01 X-125.44631 Y-100.05962
G01 X-125.35746 Y-99.90572
G01 X-125.30993 Y-99.81245
G01 X-125.27242 Y-99.71474
G01 X-125.21750 Y-99.54572
G01 X-125.19040 Y-99.44463
G01 X-125.17404 Y-99.34123
G01 X-125.15548 Y-99.16452
G01 X-125.14999 Y-99.06000
G01 X-125.15548 Y-98.95545
G01 X-125.17404 Y-98.77875
G01 X-125.19040 Y-98.67534
G01 X-125.21750 Y-98.57425
G01 X-125.27242 Y-98.40524
G01 X-125.30993 Y-98.30752
G01 X-125.35746 Y-98.21426
G01 X-125.44631 Y-98.06036
G01 X-125.50330 Y-97.97258
G01 X-125.56917 Y-97.89124
G01 X-125.66033 Y-97.78997
G01 X-125.56917 Y-97.68873
G01 X-125.50330 Y-97.60740
G01 X-125.44631 Y-97.51962
G01 X-125.35746 Y-97.36572
G01 X-125.30993 Y-97.27245
G01 X-125.27242 Y-97.17474
G01 X-125.21750 Y-97.00572
G01 X-125.19040 Y-96.90463
G01 X-125.17404 Y-96.80123
G01 X-125.15548 Y-96.62452
G01 X-125.14999 Y-96.52000
G01 X-125.15548 Y-96.41545
G01 X-125.17404 Y-96.23875
G01 X-125.19040 Y-96.13534
G01 X-125.21750 Y-96.03425
G01 X-125.27242 Y-95.86524
G01 X-125.30993 Y-95.76752
G01 X-125.35746 Y-95.67426
G01 X-125.44631 Y-95.52036
G01 X-125.50330 Y-95.43258
G01 X-125.56917 Y-95.35124
G01 X-125.66033 Y-95.24997
G01 X-125.56917 Y-95.14873
G01 X-125.50330 Y-95.06740
G01 X-125.44631 Y-94.97962
G01 X-125.35746 Y-94.82572
G01 X-125.30993 Y-94.73245
G01 X-125.27242 Y-94.63474
G01 X-125.21750 Y-94.46572
G01 X-125.19040 Y-94.36463
G01 X-125.17404 Y-94.26123
G01 X-125.15548 Y-94.08452
G01 X-125.14999 Y-93.98000
G01 X-125.15548 Y-93.87545
G01 X-125.17404 Y-93.69875
G01 X-125.19040 Y-93.59534
G01 X-125.21750 Y-93.49425
G01 X-125.27242 Y-93.32524
G01 X-125.30993 Y-93.22752
G01 X-125.35746 Y-93.13426
G01 X-125.44631 Y-92.98036
G01 X-125.50330 Y-92.89258
G01 X-125.56917 Y-92.81124
G01 X-125.66033 Y-92.70997
G01 X-125.56917 Y-92.60873
G01 X-125.50330 Y-92.52740
G01 X-125.44631 Y-92.43962
G01 X-125.35746 Y-92.28572
G01 X-125.30993 Y-92.19245
G01 X-125.27242 Y-92.09474
G01 X-125.21750 Y-91.92572
G01 X-125.19040 Y-91.82463
G01 X-125.17404 Y-91.72123
G01 X-125.15548 Y-91.54452
G01 X-125.14999 Y-91.44000
G01 X-125.15548 Y-91.33545
G01 X-125.17404 Y-91.15875
G01 X-125.19040 Y-91.05534
G01 X-125.21750 Y-90.95425
G01 X-125.27242 Y-90.78524
G01 X-125.30993 Y-90.68752
G01 X-125.35746 Y-90.59426
G01 X-125.44631 Y-90.44036
G01 X-125.50330 Y-90.35258
G01 X-125.56917 Y-90.27124
G01 X-125.66033 Y-90.16997
G01 X-125.56917 Y-90.06873
G01 X-125.50330 Y-89.98740
G01 X-125.44631 Y-89.89962
G01 X-125.35746 Y-89.74572
G01 X-125.30993 Y-89.65245
G01 X-125.27242 Y-89.55474
G01 X-125.21750 Y-89.38572
G01 X-125.19040 Y-89.28463
G01 X-125.17404 Y-89.18123
G01 X-125.15548 Y-89.00452
G01 X-125.14999 Y-88.90000
G01 X-125.15548 Y-88.79545
G01 X-125.17404 Y-88.61875
G01 X-125.19040 Y-88.51534
G01 X-125.21750 Y-88.41425
G01 X-125.27242 Y-88.24524
G01 X-125.30993 Y-88.14753
G01 X-125.35746 Y-88.05426
G01 X-125.44631 Y-87.90036
G01 X-125.50330 Y-87.81258
G01 X-125.56917 Y-87.73124
G01 X-125.66033 Y-87.62997
G01 X-125.56917 Y-87.52873
G01 X-125.50330 Y-87.44740
G01 X-125.44631 Y-87.35962
G01 X-125.35746 Y-87.20572
G01 X-125.30993 Y-87.11245
G01 X-125.27242 Y-87.01474
G01 X-125.21750 Y-86.84572
G01 X-125.19040 Y-86.74463
G01 X-125.17404 Y-86.64123
G01 X-125.15548 Y-86.46452
G01 X-125.14999 Y-86.36000
G01 X-125.15548 Y-86.25545
G01 X-125.17404 Y-86.07875
G01 X-125.19040 Y-85.97534
G01 X-125.21750 Y-85.87425
G01 X-125.27242 Y-85.70524
G01 X-125.30993 Y-85.60752
G01 X-125.35746 Y-85.51426
G01 X-125.44631 Y-85.36036
G01 X-125.50330 Y-85.27258
G01 X-125.56917 Y-85.19124
G01 X-125.66033 Y-85.08997
G01 X-125.56917 Y-84.98873
G01 X-125.50330 Y-84.90740
G01 X-125.44631 Y-84.81962
G01 X-125.35746 Y-84.66572
G01 X-125.30993 Y-84.57245
G01 X-125.27242 Y-84.47474
G01 X-125.21750 Y-84.30572
G01 X-125.19040 Y-84.20463
G01 X-125.17404 Y-84.10123
G01 X-125.15548 Y-83.92452
G01 X-125.14999 Y-83.82000
G01 X-125.15548 Y-83.71545
G01 X-125.17404 Y-83.53875
G01 X-125.19040 Y-83.43534
G01 X-125.21750 Y-83.33425
G01 X-125.27242 Y-83.16524
G01 X-125.30993 Y-83.06752
G01 X-125.35746 Y-82.97426
G01 X-125.44631 Y-82.82036
G01 X-125.50330 Y-82.73258
G01 X-125.56917 Y-82.65124
G01 X-125.66033 Y-82.54997
G01 X-125.56917 Y-82.44873
G01 X-125.50330 Y-82.36740
G01 X-125.44631 Y-82.27962
G01 X-125.35746 Y-82.12572
G01 X-125.30993 Y-82.03245
G01 X-125.27242 Y-81.93474
G01 X-125.21750 Y-81.76572
G01 X-125.19040 Y-81.66463
G01 X-125.17404 Y-81.56123
G01 X-125.15548 Y-81.38452
G01 X-125.14999 Y-81.28000
G01 X-125.15548 Y-81.17545
G01 X-125.17404 Y-80.99875
G01 X-125.19040 Y-80.89534
G01 X-125.21750 Y-80.79425
G01 X-125.27242 Y-80.62524
G01 X-125.30993 Y-80.52752
G01 X-125.35746 Y-80.43426
G01 X-125.44631 Y-80.28036
G01 X-125.50330 Y-80.19258
G01 X-125.56917 Y-80.11124
G01 X-125.66033 Y-80.00997
G01 X-125.56917 Y-79.90873
G01 X-125.50330 Y-79.82740
G01 X-125.44631 Y-79.73962
G01 X-125.35746 Y-79.58572
G01 X-125.30993 Y-79.49245
G01 X-125.27242 Y-79.39474
G01 X-125.21750 Y-79.22572
G01 X-125.19040 Y-79.12463
G01 X-125.17404 Y-79.02123
G01 X-125.15548 Y-78.84452
G01 X-125.14999 Y-78.74000
G01 X-125.15548 Y-78.63545
G01 X-125.17404 Y-78.45875
G01 X-125.19040 Y-78.35534
G01 X-125.21750 Y-78.25425
G01 X-125.27242 Y-78.08524
G01 X-125.30993 Y-77.98752
G01 X-125.35746 Y-77.89426
G01 X-125.44631 Y-77.74036
G01 X-125.50330 Y-77.65258
G01 X-125.56917 Y-77.57124
G01 X-125.66033 Y-77.46997
G01 X-125.56917 Y-77.36873
G01 X-125.50330 Y-77.28740
G01 X-125.44631 Y-77.19962
G01 X-125.35746 Y-77.04572
G01 X-125.30993 Y-76.95245
G01 X-125.27242 Y-76.85474
G01 X-125.21750 Y-76.68572
G01 X-125.19040 Y-76.58463
G01 X-125.17404 Y-76.48123
G01 X-125.15548 Y-76.30452
G01 X-125.14999 Y-76.20000
G01 X-125.15548 Y-76.09545
G01 X-125.17404 Y-75.91875
G01 X-125.19040 Y-75.81534
G01 X-125.21750 Y-75.71425
G01 X-125.27242 Y-75.54524
G01 X-125.30993 Y-75.44752
G01 X-125.35746 Y-75.35426
G01 X-125.44631 Y-75.20036
G01 X-125.50330 Y-75.11258
G01 X-125.56917 Y-75.03124
G01 X-125.66033 Y-74.92997
G01 X-125.56917 Y-74.82873
G01 X-125.50330 Y-74.74740
G01 X-125.44631 Y-74.65962
G01 X-125.35746 Y-74.50572
G01 X-125.30993 Y-74.41245
G01 X-125.27242 Y-74.31474
G01 X-125.21750 Y-74.14572
G01 X-125.19040 Y-74.04463
G01 X-125.17404 Y-73.94123
G01 X-125.15548 Y-73.76452
G01 X-125.14999 Y-73.66000
G01 X-125.15548 Y-73.55545
G01 X-125.17404 Y-73.37875
G01 X-125.19040 Y-73.27534
G01 X-125.21750 Y-73.17425
G01 X-125.27242 Y-73.00524
G01 X-125.30993 Y-72.90752
G01 X-125.35746 Y-72.81426
G01 X-125.44631 Y-72.66036
G01 X-125.50330 Y-72.57258
G01 X-125.56917 Y-72.49124
G01 X-125.66033 Y-72.38997
G01 X-125.56917 Y-72.28873
G01 X-125.50330 Y-72.20740
G01 X-125.44631 Y-72.11962
G01 X-125.35746 Y-71.96572
G01 X-125.30993 Y-71.87245
G01 X-125.27242 Y-71.77474
G01 X-125.21750 Y-71.60572
G01 X-125.19040 Y-71.50463
G01 X-125.17404 Y-71.40123
G01 X-125.15548 Y-71.22452
G01 X-125.14999 Y-71.12000
G01 X-125.15548 Y-71.01545
G01 X-125.17404 Y-70.83875
G01 X-125.19040 Y-70.73534
G01 X-125.21750 Y-70.63425
G01 X-125.27242 Y-70.46524
G01 X-125.30993 Y-70.36753
G01 X-125.35746 Y-70.27426
G01 X-125.44631 Y-70.12036
G01 X-125.50330 Y-70.03258
G01 X-125.56917 Y-69.95124
G01 X-125.66033 Y-69.84997
G01 X-125.56917 Y-69.74873
G01 X-125.50330 Y-69.66740
G01 X-125.44631 Y-69.57962
G01 X-125.35746 Y-69.42572
G01 X-125.30993 Y-69.33245
G01 X-125.27242 Y-69.23474
G01 X-125.21750 Y-69.06572
G01 X-125.19040 Y-68.96463
G01 X-125.17404 Y-68.86123
G01 X-125.15548 Y-68.68452
G01 X-125.14999 Y-68.58000
G01 X-125.15548 Y-68.47545
G01 X-125.17404 Y-68.29875
G01 X-125.19040 Y-68.19534
G01 X-125.21750 Y-68.09425
G01 X-125.27242 Y-67.92524
G01 X-125.30993 Y-67.82752
G01 X-125.35746 Y-67.73426
G01 X-125.44631 Y-67.58036
G01 X-125.50330 Y-67.49258
G01 X-125.56917 Y-67.41124
G01 X-125.66033 Y-67.30997
G01 X-125.56917 Y-67.20873
G01 X-125.50330 Y-67.12740
G01 X-125.44631 Y-67.03962
G01 X-125.35746 Y-66.88572
G01 X-125.30993 Y-66.79245
G01 X-125.27242 Y-66.69474
G01 X-125.21750 Y-66.52572
G01 X-125.19040 Y-66.42463
G01 X-125.17404 Y-66.32123
G01 X-125.15548 Y-66.14452
G01 X-125.14999 Y-66.04000
G01 X-125.15548 Y-65.93545
G01 X-125.17404 Y-65.75875
G01 X-125.19040 Y-65.65534
G01 X-125.21750 Y-65.55425
G01 X-125.27242 Y-65.38524
G01 X-125.30993 Y-65.28752
G01 X-125.35746 Y-65.19426
G01 X-125.43953 Y-65.05212
G01 X-125.31852 Y-64.90556
G01 X-125.22611 Y-64.73266
G01 X-125.16919 Y-64.54508
G01 X-125.14999 Y-64.34999
G01 X-125.14999 Y-62.64999
G01 X-125.16919 Y-62.45489
G01 X-125.22611 Y-62.26731
G01 X-125.31852 Y-62.09441
G01 X-125.44288 Y-61.94288
G01 X-125.59441 Y-61.81852
G01 X-125.76731 Y-61.72611
G01 X-125.95489 Y-61.66919
G01 X-126.14999 Y-61.64999
G01 X-127.84999 Y-61.64999
G01 X-128.04508 Y-61.66919
G01 X-128.23266 Y-61.72611
G01 X-128.40556 Y-61.81852
G01 X-128.55710 Y-61.94288
G01 X-128.68145 Y-62.09441
G01 X-128.77386 Y-62.26731
G01 X-128.83078 Y-62.45489
G01 X-128.84998 Y-62.64999
G01 X-128.84998 Y-64.34999
G01 X-128.83078 Y-64.54508
G01 X-128.77386 Y-64.73266
G01 X-128.68145 Y-64.90556
G01 X-128.56113 Y-65.05217
G01 X-128.53698 Y-65.05024
G01 X-128.56045 Y-65.05212
G01 X-128.64252 Y-65.19426
G01 X-128.69004 Y-65.28752
G01 X-128.72756 Y-65.38524
G01 X-128.78247 Y-65.55425
G01 X-128.80957 Y-65.65534
G01 X-128.82593 Y-65.75875
G01 X-128.84450 Y-65.93545
G01 X-128.84998 Y-66.04000
G01 X-128.84450 Y-66.14452
G01 X-128.82593 Y-66.32123
G01 X-128.80957 Y-66.42463
G01 X-128.78247 Y-66.52572
G01 X-128.72756 Y-66.69474
G01 X-128.69004 Y-66.79245
G01 X-128.64252 Y-66.88572
G01 X-128.55367 Y-67.03962
G01 X-128.49667 Y-67.12740
G01 X-128.43081 Y-67.20873
G01 X-128.33962 Y-67.30997
G01 X-128.43081 Y-67.41124
G01 X-128.49667 Y-67.49258
G01 X-128.55367 Y-67.58036
G01 X-128.64252 Y-67.73426
G01 X-128.69004 Y-67.82752
G01 X-128.72756 Y-67.92524
G01 X-128.78247 Y-68.09425
G01 X-128.80957 Y-68.19534
G01 X-128.82593 Y-68.29875
G01 X-128.84450 Y-68.47545
G01 X-128.84998 Y-68.58000
G01 X-128.84450 Y-68.68452
G01 X-128.82593 Y-68.86123
G01 X-128.80957 Y-68.96463
G01 X-128.78247 Y-69.06572
G01 X-128.72756 Y-69.23474
G01 X-128.69004 Y-69.33245
G01 X-128.64252 Y-69.42572
G01 X-128.55367 Y-69.57962
G01 X-128.49667 Y-69.66740
G01 X-128.43081 Y-69.74873
G01 X-128.33962 Y-69.84997
G01 X-128.43081 Y-69.95124
G01 X-128.49667 Y-70.03258
G01 X-128.55367 Y-70.12036
G01 X-128.64252 Y-70.27426
G01 X-128.69004 Y-70.36753
G01 X-128.72756 Y-70.46524
G01 X-128.78247 Y-70.63425
G01 X-128.80957 Y-70.73534
G01 X-128.82593 Y-70.83875
G01 X-128.84450 Y-71.01545
G01 X-128.84998 Y-71.12000
G01 X-128.84450 Y-71.22452
G01 X-128.82593 Y-71.40123
G01 X-128.80957 Y-71.50463
G01 X-128.78247 Y-71.60572
G01 X-128.72756 Y-71.77474
G01 X-128.69004 Y-71.87245
G01 X-128.64252 Y-71.96572
G01 X-128.55367 Y-72.11962
G01 X-128.49667 Y-72.20740
G01 X-128.43081 Y-72.28873
G01 X-128.33962 Y-72.38997
G01 X-128.43081 Y-72.49124
G01 X-128.49667 Y-72.57258
G01 X-128.55367 Y-72.66036
G01 X-128.64252 Y-72.81426
G01 X-128.69004 Y-72.90752
G01 X-128.72756 Y-73.00524
G01 X-128.78247 Y-73.17425
G01 X-128.80957 Y-73.27534
G01 X-128.82593 Y-73.37875
G01 X-128.84450 Y-73.55545
G01 X-128.84998 Y-73.66000
G01 X-128.84450 Y-73.76452
G01 X-128.82593 Y-73.94123
G01 X-128.80957 Y-74.04463
G01 X-128.78247 Y-74.14572
G01 X-128.72756 Y-74.31474
G01 X-128.69004 Y-74.41245
G01 X-128.64252 Y-74.50572
G01 X-128.55367 Y-74.65962
G01 X-128.49667 Y-74.74740
G01 X-128.43081 Y-74.82873
G01 X-128.33962 Y-74.92997
G01 X-128.43081 Y-75.03124
G01 X-128.49667 Y-75.11258
G01 X-128.55367 Y-75.20036
G01 X-128.64252 Y-75.35426
G01 X-128.69004 Y-75.44752
G01 X-128.72756 Y-75.54524
G01 X-128.78247 Y-75.71425
G01 X-128.80957 Y-75.81534
G01 X-128.82593 Y-75.91875
G01 X-128.84450 Y-76.09545
G01 X-128.84998 Y-76.20000
G01 X-128.84450 Y-76.30452
G01 X-128.82593 Y-76.48123
G01 X-128.80957 Y-76.58463
G01 X-128.78247 Y-76.68572
G01 X-128.72756 Y-76.85474
G01 X-128.69004 Y-76.95245
G01 X-128.64252 Y-77.04572
G01 X-128.55367 Y-77.19962
G01 X-128.49667 Y-77.28740
G01 X-128.43081 Y-77.36873
G01 X-128.33962 Y-77.46997
G01 X-128.43081 Y-77.57124
G01 X-128.49667 Y-77.65258
G01 X-128.55367 Y-77.74036
G01 X-128.64252 Y-77.89426
G01 X-128.69004 Y-77.98752
G01 X-128.72756 Y-78.08524
G01 X-128.78247 Y-78.25425
G01 X-128.80957 Y-78.35534
G01 X-128.82593 Y-78.45875
G01 X-128.84450 Y-78.63545
G01 X-128.84998 Y-78.74000
G01 X-128.84450 Y-78.84452
G01 X-128.82593 Y-79.02123
G01 X-128.80957 Y-79.12463
G01 X-128.78247 Y-79.22572
G01 X-128.72756 Y-79.39474
G01 X-128.69004 Y-79.49245
G01 X-128.64252 Y-79.58572
G01 X-128.55367 Y-79.73962
G01 X-128.49667 Y-79.82740
G01 X-128.43081 Y-79.90873
G01 X-128.33962 Y-80.00997
G01 X-128.43081 Y-80.11124
G01 X-128.49667 Y-80.19258
G01 X-128.55367 Y-80.28036
G01 X-128.64252 Y-80.43426
G01 X-128.69004 Y-80.52752
G01 X-128.72756 Y-80.62524
G01 X-128.78247 Y-80.79425
G01 X-128.80957 Y-80.89534
G01 X-128.82593 Y-80.99875
G01 X-128.84450 Y-81.17545
G01 X-128.84998 Y-81.28000
G01 X-128.84450 Y-81.38452
G01 X-128.82593 Y-81.56123
G01 X-128.80957 Y-81.66463
G01 X-128.78247 Y-81.76572
G01 X-128.72756 Y-81.93474
G01 X-128.69004 Y-82.03245
G01 X-128.64252 Y-82.12572
G01 X-128.55367 Y-82.27962
G01 X-128.52430 Y-82.32000
G01 X-133.99867 Y-82.31998
G01 X-134.00654 Y-82.33903
G01 X-133.99867 Y-82.31998
G01 X-135.66000 Y-80.65867
G01 X-135.67903 Y-80.66654
G01 X-135.66000 Y-80.65867
G01 X-135.65998 Y-50.80000
G01 X-135.67440 Y-50.60442
G01 X-135.68881 Y-50.50734
G01 X-135.74111 Y-50.31837
G01 X-135.77418 Y-50.22596
G01 X-135.86234 Y-50.05080
G01 X-135.97125 Y-49.88781
G01 X-136.03343 Y-49.81204
G01 X-136.09932 Y-49.73932
G01 X-138.63932 Y-47.19932
G01 X-138.71204 Y-47.13343
G01 X-138.86663 Y-47.01278
G01 X-139.03724 Y-46.91614
G01 X-139.21837 Y-46.84111
G01 X-139.40734 Y-46.78881
G01 X-139.50442 Y-46.77440
G01 X-139.70000 Y-46.75998
G01 X-163.89998 Y-46.75998
G01 X-164.09553 Y-46.77440
G01 X-164.28778 Y-46.81266
G01 X-164.38159 Y-46.84111
G01 X-164.56269 Y-46.91614
G01 X-164.64915 Y-46.96234
G01 X-164.81214 Y-47.07123
G01 X-164.96063 Y-47.19932
G01 X-168.70065 Y-50.93932
G01 X-168.75394 Y-50.99698
G01 X-168.80489 Y-51.05664
G01 X-168.89712 Y-51.18359
G01 X-168.93812 Y-51.25049
G01 X-169.00936 Y-51.39030
G01 X-169.03939 Y-51.46279
G01 X-169.08788 Y-51.61201
G01 X-169.10619 Y-51.68831
G01 X-169.13075 Y-51.84331
G01 X-169.13690 Y-51.92154
G01 X-169.14000 Y-52.00000
G01 X-169.14000 Y-72.85398
G01 X-169.13517 Y-72.95197
G01 X-169.11117 Y-73.14662
G01 X-169.05887 Y-73.33559
G01 X-169.02580 Y-73.42800
G01 X-168.93764 Y-73.60315
G01 X-168.82872 Y-73.76615
G01 X-168.70065 Y-73.91464
G01 X-167.89463 Y-74.72065
G01 X-167.82191 Y-74.78654
G01 X-167.66733 Y-74.90719
G01 X-167.58315 Y-74.95764
G01 X-167.49672 Y-75.00384
G01 X-167.31559 Y-75.07887
G01 X-167.12662 Y-75.13117
G01 X-167.02954 Y-75.14557
G01 X-166.83398 Y-75.16000
G01 X-166.62433 Y-75.16000
G01 X-166.65367 Y-75.20036
G01 X-166.74252 Y-75.35426
G01 X-166.79004 Y-75.44752
G01 X-166.82756 Y-75.54524
G01 X-166.88247 Y-75.71425
G01 X-166.90957 Y-75.81534
G01 X-166.92593 Y-75.91875
G01 X-166.94450 Y-76.09545
G01 X-166.94998 Y-76.20000
G01 X-166.94450 Y-76.30452
G01 X-166.92593 Y-76.48123
G01 X-166.90957 Y-76.58463
G01 X-166.88247 Y-76.68572
G01 X-166.82756 Y-76.85474
G01 X-166.79004 Y-76.95245
G01 X-166.74252 Y-77.04572
G01 X-166.65367 Y-77.19962
G01 X-166.59667 Y-77.28740
G01 X-166.53081 Y-77.36873
G01 X-166.43962 Y-77.46997
G01 X-166.53081 Y-77.57124
G01 X-166.59667 Y-77.65258
G01 X-166.65367 Y-77.74036
G01 X-166.74252 Y-77.89426
G01 X-166.79004 Y-77.98752
G01 X-166.82756 Y-78.08524
G01 X-166.88247 Y-78.25425
G01 X-166.90957 Y-78.35534
G01 X-166.92593 Y-78.45875
G01 X-166.94450 Y-78.63545
G01 X-166.94998 Y-78.74000
G01 X-166.94450 Y-78.84452
G01 X-166.92593 Y-79.02123
G01 X-166.90957 Y-79.12463
G01 X-166.88247 Y-79.22572
G01 X-166.82756 Y-79.39474
G01 X-166.79004 Y-79.49245
G01 X-166.74252 Y-79.58572
G01 X-166.65367 Y-79.73962
G01 X-166.59667 Y-79.82740
G01 X-166.53081 Y-79.90873
G01 X-166.43962 Y-80.00997
G01 X-166.53081 Y-80.11124
G01 X-166.59667 Y-80.19258
G01 X-166.65367 Y-80.28036
G01 X-166.74252 Y-80.43426
G01 X-166.79004 Y-80.52752
G01 X-166.82756 Y-80.62524
G01 X-166.88247 Y-80.79425
G01 X-166.90957 Y-80.89534
G01 X-166.92593 Y-80.99875
G01 X-166.94450 Y-81.17545
G01 X-166.94998 Y-81.28000
G01 X-166.94450 Y-81.38452
G01 X-166.92593 Y-81.56123
G01 X-166.90957 Y-81.66463
G01 X-166.88247 Y-81.76572
G01 X-166.82756 Y-81.93474
G01 X-166.79004 Y-82.03245
G01 X-166.74252 Y-82.12572
G01 X-166.66047 Y-82.26783
G01 X-166.63698 Y-82.26986
G01 X-166.66113 Y-82.26778
G01 X-166.78145 Y-82.41441
G01 X-166.87386 Y-82.58731
G01 X-166.93078 Y-82.77489
G01 X-166.94998 Y-82.96999
G01 X-166.94998 Y-84.66999
G01 X-166.93078 Y-84.86508
G01 X-166.87386 Y-85.05266
G01 X-166.78145 Y-85.22556
G01 X-166.65710 Y-85.37710
G01 X-166.50556 Y-85.50145
G01 X-166.33266 Y-85.59386
G01 X-166.14508 Y-85.65078
G01 X-165.94999 Y-85.66998
G01 X-164.24999 Y-85.66998
G01 X-164.05489 Y-85.65078
G01 X-163.86731 Y-85.59386
G01 X-163.69441 Y-85.50145
G01 X-163.54288 Y-85.37710
G01 X-163.49602 Y-85.32000
G01 X-163.50737 Y-85.29599
G01 X-163.49602 Y-85.32000
G01 X-157.48000 Y-85.32000
G01 X-157.28442 Y-85.30557
G01 X-157.18734 Y-85.29117
G01 X-156.99837 Y-85.23887
G01 X-156.81724 Y-85.16384
G01 X-156.64663 Y-85.06719
G01 X-156.49204 Y-84.94654
G01 X-156.41932 Y-84.88065
G01 X-153.89939 Y-82.36069
G01 X-153.89708 Y-82.32287
G01 X-153.89951 Y-82.36301
G01 X-153.89667 Y-82.36740
G01 X-153.83081 Y-82.44873
G01 X-153.73962 Y-82.54997
G01 X-153.83081 Y-82.65124
G01 X-153.89667 Y-82.73258
G01 X-153.95367 Y-82.82036
G01 X-154.04252 Y-82.97426
G01 X-154.09004 Y-83.06752
G01 X-154.12756 Y-83.16524
G01 X-154.18247 Y-83.33425
G01 X-154.20957 Y-83.43534
G01 X-154.22593 Y-83.53875
G01 X-154.24450 Y-83.71545
G01 X-154.24998 Y-83.82000
G01 X-154.24450 Y-83.92452
G01 X-154.22593 Y-84.10123
G01 X-154.20957 Y-84.20463
G01 X-154.18247 Y-84.30572
G01 X-154.12756 Y-84.47474
G01 X-154.09004 Y-84.57245
G01 X-154.04252 Y-84.66572
G01 X-153.95367 Y-84.81962
G01 X-153.89667 Y-84.90740
G01 X-153.83081 Y-84.98873
G01 X-153.73962 Y-85.08997
G01 X-154.07005 Y-85.08997
G01 X-154.09893 Y-85.05434
G01 X-154.17018 Y-84.94461
G01 X-154.25903 Y-84.79071
G01 X-154.31844 Y-84.67413
G01 X-154.36532 Y-84.55198
G01 X-154.42024 Y-84.38299
G01 X-154.45410 Y-84.25660
G01 X-154.47457 Y-84.12737
G01 X-154.49314 Y-83.95066
G01 X-154.50000 Y-83.82000
G01 X-154.49314 Y-83.68932
G01 X-154.47457 Y-83.51261
G01 X-154.45410 Y-83.38337
G01 X-154.42024 Y-83.25698
G01 X-154.40967 Y-83.22452
G01 X-154.33281 Y-83.09844
G01 X-154.40967 Y-83.22452
G01 X-156.24256 Y-85.05741
G01 X-156.33344 Y-85.13981
G01 X-156.40921 Y-85.20199
G01 X-156.50774 Y-85.27506
G01 X-156.61295 Y-85.33813
G01 X-156.69941 Y-85.38434
G01 X-156.92580 Y-85.47811
G01 X-157.01957 Y-85.50656
G01 X-157.13857 Y-85.53635
G01 X-157.25991 Y-85.55436
G01 X-157.35747 Y-85.56396
G01 X-157.48000 Y-85.56998
G01 X-163.38573 Y-85.56998
G01 X-163.39096 Y-85.55538
G01 X-163.38573 Y-85.56998
G01 X-163.55553 Y-85.70933
G01 X-163.77163 Y-85.82485
G01 X-164.00612 Y-85.89597
G01 X-164.24999 Y-85.92000
G01 X-165.94999 Y-85.92000
G01 X-166.19385 Y-85.89597
G01 X-166.42834 Y-85.82485
G01 X-166.64445 Y-85.70933
G01 X-166.83388 Y-85.55388
G01 X-166.98933 Y-85.36445
G01 X-167.10485 Y-85.14834
G01 X-167.17597 Y-84.91385
G01 X-167.20000 Y-84.66999
G01 X-167.20000 Y-82.96999
G01 X-167.17597 Y-82.72612
G01 X-167.10485 Y-82.49163
G01 X-166.98933 Y-82.27553
G01 X-166.96065 Y-82.24060
G01 X-166.96431 Y-82.24037
G01 X-167.01844 Y-82.13413
G01 X-167.06533 Y-82.01198
G01 X-167.12024 Y-81.84299
G01 X-167.15410 Y-81.71660
G01 X-167.17457 Y-81.58737
G01 X-167.19314 Y-81.41066
G01 X-167.20000 Y-81.28000
G01 X-167.19314 Y-81.14932
G01 X-167.17457 Y-80.97261
G01 X-167.15410 Y-80.84337
G01 X-167.12024 Y-80.71698
G01 X-167.06533 Y-80.54800
G01 X-167.01844 Y-80.42585
G01 X-166.95903 Y-80.30926
G01 X-166.87018 Y-80.15536
G01 X-166.79893 Y-80.04564
G01 X-166.77005 Y-80.00997
G01 X-166.79893 Y-79.97434
G01 X-166.87018 Y-79.86461
G01 X-166.95903 Y-79.71071
G01 X-167.01844 Y-79.59413
G01 X-167.06533 Y-79.47198
G01 X-167.12024 Y-79.30299
G01 X-167.15410 Y-79.17660
G01 X-167.17457 Y-79.04737
G01 X-167.19314 Y-78.87066
G01 X-167.20000 Y-78.74000
G01 X-167.19314 Y-78.60932
G01 X-167.17457 Y-78.43261
G01 X-167.15410 Y-78.30337
G01 X-167.12024 Y-78.17698
G01 X-167.06533 Y-78.00800
G01 X-167.01844 Y-77.88585
G01 X-166.95903 Y-77.76926
G01 X-166.87018 Y-77.61536
G01 X-166.79893 Y-77.50564
G01 X-166.77005 Y-77.46997
G01 X-167.36360 Y-77.46997
G01 X-167.47520 Y-77.25750
G01 X-167.54084 Y-77.08649
G01 X-167.59575 Y-76.91750
G01 X-167.64317 Y-76.74056
G01 X-167.67183 Y-76.55964
G01 X-167.69039 Y-76.38291
G01 X-167.69999 Y-76.20000
G01 X-167.69039 Y-76.01707
G01 X-167.67183 Y-75.84034
G01 X-167.65768 Y-75.75108
G01 X-167.49017 Y-75.65471
G01 X-167.65158 Y-75.74758
G01 X-167.85026 Y-75.66528
G01 X-167.93670 Y-75.61908
G01 X-168.08399 Y-75.53079
G01 X-168.22194 Y-75.42850
G01 X-168.29771 Y-75.36632
G01 X-168.42496 Y-75.25098
G01 X-169.23098 Y-74.44496
G01 X-169.34632 Y-74.31771
G01 X-169.40850 Y-74.24194
G01 X-169.59908 Y-73.95670
G01 X-169.64528 Y-73.87026
G01 X-169.71871 Y-73.71502
G01 X-169.77657 Y-73.55332
G01 X-169.80502 Y-73.45952
G01 X-169.84675 Y-73.29292
G01 X-169.87195 Y-73.12304
G01 X-169.88155 Y-73.02551
G01 X-169.88998 Y-72.85398
G01 X-169.88998 Y-52.00000
G01 X-169.87843 Y-51.78445
G01 X-169.83547 Y-51.51323
G01 X-169.81716 Y-51.43696
G01 X-169.73230 Y-51.17577
G01 X-169.70228 Y-51.10330
G01 X-169.57761 Y-50.85862
G01 X-169.53662 Y-50.79172
G01 X-169.37520 Y-50.56955
G01 X-169.23098 Y-50.40899
G01 X-165.49096 Y-46.66899
G01 X-165.36370 Y-46.55365
G01 X-165.28793 Y-46.49147
G01 X-165.00269 Y-46.30090
G01 X-164.91626 Y-46.25470
G01 X-164.59929 Y-46.12340
G01 X-164.50551 Y-46.09495
G01 X-164.16904 Y-46.02803
G01 X-164.07150 Y-46.01842
G01 X-163.89998 Y-46.00999
G01 X-139.70000 Y-46.00999
G01 X-139.52845 Y-46.01842
G01 X-139.43091 Y-46.02803
G01 X-139.26104 Y-46.05322
G01 X-139.09444 Y-46.09495
G01 X-139.00064 Y-46.12340
G01 X-138.68370 Y-46.25470
G01 X-138.59726 Y-46.30090
G01 X-138.44996 Y-46.38919
G01 X-138.31202 Y-46.49147
G01 X-138.23625 Y-46.55365
G01 X-138.10899 Y-46.66899
G01 X-135.56899 Y-49.20899
G01 X-135.45365 Y-49.33625
G01 X-135.39147 Y-49.41202
G01 X-135.20090 Y-49.69726
G01 X-135.15470 Y-49.78370
G01 X-135.08126 Y-49.93894
G01 X-135.02340 Y-50.10064
G01 X-134.99495 Y-50.19444
G01 X-134.95322 Y-50.36104
G01 X-134.92803 Y-50.53091
G01 X-134.91842 Y-50.62845
G01 X-134.90999 Y-50.80000
G01 X-134.90999 Y-80.34800
G01 X-134.92902 Y-80.35590
G01 X-134.90999 Y-80.34800
G01 X-133.68800 Y-81.56999
G01 X-133.69590 Y-81.58902
G01 X-133.68800 Y-81.56999
G01 X-129.57912 Y-81.56999
G01 X-129.59039 Y-81.46291
G01 X-129.59999 Y-81.28000
G01 X-129.59039 Y-81.09707
G01 X-129.57183 Y-80.92034
G01 X-129.54317 Y-80.73941
G01 X-129.49575 Y-80.56248
G01 X-129.44084 Y-80.39349
G01 X-129.37520 Y-80.22247
G01 X-129.26360 Y-80.00997
G01 X-129.37520 Y-79.79750
G01 X-129.44084 Y-79.62649
G01 X-129.49575 Y-79.45750
G01 X-129.54317 Y-79.28056
G01 X-129.57183 Y-79.09964
G01 X-129.59039 Y-78.92291
G01 X-129.59999 Y-78.74000
G01 X-129.59039 Y-78.55707
G01 X-129.57183 Y-78.38034
G01 X-129.54317 Y-78.19941
G01 X-129.49575 Y-78.02248
G01 X-129.44084 Y-77.85349
G01 X-129.37520 Y-77.68247
G01 X-129.26360 Y-77.46997
G01 X-129.37520 Y-77.25750
G01 X-129.44084 Y-77.08649
G01 X-129.49575 Y-76.91750
G01 X-129.54317 Y-76.74056
G01 X-129.57183 Y-76.55964
G01 X-129.59039 Y-76.38291
G01 X-129.59999 Y-76.20000
G01 X-129.59039 Y-76.01707
G01 X-129.57183 Y-75.84034
G01 X-129.54317 Y-75.65941
G01 X-129.49575 Y-75.48248
G01 X-129.44084 Y-75.31349
G01 X-129.37520 Y-75.14247
G01 X-129.26360 Y-74.92997
G01 X-129.37520 Y-74.71750
G01 X-129.44084 Y-74.54649
G01 X-129.49575 Y-74.37750
G01 X-129.54317 Y-74.20056
G01 X-129.57183 Y-74.01964
G01 X-129.59039 Y-73.84291
G01 X-129.59999 Y-73.66000
G01 X-129.59039 Y-73.47707
G01 X-129.57183 Y-73.30034
G01 X-129.54317 Y-73.11941
G01 X-129.49575 Y-72.94248
G01 X-129.44084 Y-72.77349
G01 X-129.37520 Y-72.60247
G01 X-129.26360 Y-72.38997
G01 X-129.37520 Y-72.17750
G01 X-129.44084 Y-72.00649
G01 X-129.49575 Y-71.83750
G01 X-129.54317 Y-71.66056
G01 X-129.57183 Y-71.47964
G01 X-129.59039 Y-71.30291
G01 X-129.59999 Y-71.12000
G01 X-129.59039 Y-70.93707
G01 X-129.57183 Y-70.76034
G01 X-129.54317 Y-70.57941
G01 X-129.49575 Y-70.40248
G01 X-129.44084 Y-70.23349
G01 X-129.37520 Y-70.06247
G01 X-129.26360 Y-69.84997
G01 X-129.37520 Y-69.63750
G01 X-129.44084 Y-69.46649
G01 X-129.49575 Y-69.29750
G01 X-129.54317 Y-69.12056
G01 X-129.57183 Y-68.93964
G01 X-129.59039 Y-68.76291
G01 X-129.59999 Y-68.58000
G01 X-129.59039 Y-68.39707
G01 X-129.57183 Y-68.22034
G01 X-129.54317 Y-68.03941
G01 X-129.49575 Y-67.86248
G01 X-129.44084 Y-67.69349
G01 X-129.37520 Y-67.52247
G01 X-129.26360 Y-67.30997
G01 X-129.37520 Y-67.09750
G01 X-129.44084 Y-66.92649
G01 X-129.49575 Y-66.75750
G01 X-129.54317 Y-66.58056
G01 X-129.57183 Y-66.39964
G01 X-129.59039 Y-66.22291
G01 X-129.59999 Y-66.04000
G01 X-129.59039 Y-65.85707
G01 X-129.57183 Y-65.68034
G01 X-129.54317 Y-65.49941
G01 X-129.49575 Y-65.32248
G01 X-129.42423 Y-65.11018
G01 X-128.86431 Y-65.07968
G01 X-129.14447 Y-65.09489
G01 X-129.23581 Y-64.92400
G01 X-129.32115 Y-64.64262
G01 X-129.34998 Y-64.34999
G01 X-129.34998 Y-62.64999
G01 X-129.32115 Y-62.35736
G01 X-129.23581 Y-62.07597
G01 X-129.09720 Y-61.81664
G01 X-128.91064 Y-61.58934
G01 X-128.68333 Y-61.40277
G01 X-128.42400 Y-61.26416
G01 X-128.14262 Y-61.17882
G01 X-127.84999 Y-61.14999
G01 X-126.14999 Y-61.14999
G01 X-125.85736 Y-61.17882
G01 X-125.57597 Y-61.26416
G01 X-125.31664 Y-61.40277
G01 X-125.08934 Y-61.58934
G01 X-124.90277 Y-61.81664
G01 X-124.76416 Y-62.07597
G01 X-124.67882 Y-62.35736
G01 X-124.64999 Y-62.64999
G01 X-124.64999 Y-64.34999
G01 X-124.67882 Y-64.64262
G01 X-124.76416 Y-64.92400
G01 X-124.85548 Y-65.09489
G01 X-124.44743 Y-65.11719
G01 X-124.30564 Y-65.12174
G01 X-124.30224 Y-65.11536
G01 X-124.18842 Y-64.74018
G01 X-124.14999 Y-64.34999
G01 X-124.14999 Y-62.64999
G01 X-124.18842 Y-62.25979
G01 X-124.30224 Y-61.88461
G01 X-124.48705 Y-61.53884
G01 X-124.73577 Y-61.23577
G01 X-125.03884 Y-60.98705
G01 X-125.38461 Y-60.80224
G01 X-125.75979 Y-60.68842
G01 X-126.14999 Y-60.64999
G01 X-127.84999 Y-60.64999
G01 X-128.24018 Y-60.68842
G01 X-128.61536 Y-60.80224
G01 X-128.96113 Y-60.98705
G01 X-129.26421 Y-61.23577
G01 X-129.51292 Y-61.53884
G01 X-129.69773 Y-61.88461
G01 X-129.81155 Y-62.25979
G01 X-129.84998 Y-62.64999
G01 X-129.84998 Y-64.34999
G01 X-129.81155 Y-64.74018
G01 X-129.69339 Y-65.12171
G01 X-129.73352 Y-65.24523
G01 X-129.78770 Y-65.44744
G01 X-129.82047 Y-65.65420
G01 X-129.83903 Y-65.83093
G01 X-129.84998 Y-66.04000
G01 X-129.83903 Y-66.24904
G01 X-129.82047 Y-66.42578
G01 X-129.78770 Y-66.63253
G01 X-129.73352 Y-66.83474
G01 X-129.67861 Y-67.00375
G01 X-129.60360 Y-67.19918
G01 X-129.54714 Y-67.30997
G01 X-129.60360 Y-67.42079
G01 X-129.67861 Y-67.61622
G01 X-129.73352 Y-67.78523
G01 X-129.78770 Y-67.98744
G01 X-129.82047 Y-68.19420
G01 X-129.83903 Y-68.37093
G01 X-129.84998 Y-68.58000
G01 X-129.83903 Y-68.78904
G01 X-129.82047 Y-68.96578
G01 X-129.78770 Y-69.17253
G01 X-129.73352 Y-69.37474
G01 X-129.67861 Y-69.54375
G01 X-129.60360 Y-69.73918
G01 X-129.54714 Y-69.84997
G01 X-129.60360 Y-69.96079
G01 X-129.67861 Y-70.15622
G01 X-129.73352 Y-70.32523
G01 X-129.78770 Y-70.52744
G01 X-129.82047 Y-70.73420
G01 X-129.83903 Y-70.91093
G01 X-129.84998 Y-71.12000
G01 X-129.83903 Y-71.32904
G01 X-129.82047 Y-71.50578
G01 X-129.78770 Y-71.71253
G01 X-129.73352 Y-71.91474
G01 X-129.67861 Y-72.08375
G01 X-129.60360 Y-72.27918
G01 X-129.54714 Y-72.38997
G01 X-129.60360 Y-72.50079
G01 X-129.67861 Y-72.69622
G01 X-129.73352 Y-72.86523
G01 X-129.78770 Y-73.06744
G01 X-129.82047 Y-73.27420
G01 X-129.83903 Y-73.45093
G01 X-129.84998 Y-73.66000
G01 X-129.83903 Y-73.86904
G01 X-129.82047 Y-74.04578
G01 X-129.78770 Y-74.25253
G01 X-129.73352 Y-74.45474
G01 X-129.67861 Y-74.62375
G01 X-129.60360 Y-74.81918
G01 X-129.54714 Y-74.92997
G01 X-129.60360 Y-75.04079
G01 X-129.67861 Y-75.23622
G01 X-129.73352 Y-75.40523
G01 X-129.78770 Y-75.60744
G01 X-129.82047 Y-75.81420
G01 X-129.83903 Y-75.99093
G01 X-129.84998 Y-76.20000
G01 X-129.83903 Y-76.40904
G01 X-129.82047 Y-76.58578
G01 X-129.78770 Y-76.79253
G01 X-129.73352 Y-76.99474
G01 X-129.67861 Y-77.16375
G01 X-129.60360 Y-77.35918
G01 X-129.54714 Y-77.46997
G01 X-129.60360 Y-77.58079
G01 X-129.67861 Y-77.77622
G01 X-129.73352 Y-77.94523
G01 X-129.78770 Y-78.14744
G01 X-129.82047 Y-78.35420
G01 X-129.83903 Y-78.53093
G01 X-129.84998 Y-78.74000
G01 X-129.83903 Y-78.94904
G01 X-129.82047 Y-79.12578
G01 X-129.78770 Y-79.33253
G01 X-129.73352 Y-79.53474
G01 X-129.67861 Y-79.70375
G01 X-129.60360 Y-79.89918
G01 X-129.54714 Y-80.00997
G01 X-129.60360 Y-80.12079
G01 X-129.67861 Y-80.31622
G01 X-129.73352 Y-80.48523
G01 X-129.78770 Y-80.68744
G01 X-129.82047 Y-80.89420
G01 X-129.83903 Y-81.07093
G01 X-129.84998 Y-81.28000
G01 X-129.84838 Y-81.31056
G01 X-130.08767 Y-81.06999
G01 X-133.48091 Y-81.06999
G01 X-133.48879 Y-81.08902
G01 X-133.48091 Y-81.06999
G01 X-134.40999 Y-80.14091
G01 X-134.42902 Y-80.14879
G01 X-134.40999 Y-80.14091
G01 X-134.40999 Y-50.80000
G01 X-134.42081 Y-50.57945
G01 X-134.43044 Y-50.48192
G01 X-134.46282 Y-50.26350
G01 X-134.51647 Y-50.04930
G01 X-134.54494 Y-49.95550
G01 X-134.61931 Y-49.74760
G01 X-134.71373 Y-49.54801
G01 X-134.75993 Y-49.46155
G01 X-135.00499 Y-49.09482
G01 X-135.06717 Y-49.01905
G01 X-135.21545 Y-48.85545
G01 X-137.75545 Y-46.31545
G01 X-137.91905 Y-46.16717
G01 X-137.99482 Y-46.10499
G01 X-138.17216 Y-45.97344
G01 X-138.36155 Y-45.85993
G01 X-138.44801 Y-45.81373
G01 X-138.67422 Y-45.72000
G01 X-138.10935 Y-45.71997
G01 X-138.03328 Y-45.76557
G01 X-137.83622 Y-45.91172
G01 X-137.76046 Y-45.97390
G01 X-137.57867 Y-46.13867
G01 X-135.03867 Y-48.67867
G01 X-134.87390 Y-48.86046
G01 X-134.81172 Y-48.93622
G01 X-134.53946 Y-49.34372
G01 X-134.49325 Y-49.43015
G01 X-134.38835 Y-49.65195
G01 X-134.30570 Y-49.88293
G01 X-134.27725 Y-49.97674
G01 X-134.21764 Y-50.21471
G01 X-134.18162 Y-50.45740
G01 X-134.17202 Y-50.55494
G01 X-134.15998 Y-50.80000
G01 X-134.15998 Y-80.03736
G01 X-134.17903 Y-80.04523
G01 X-134.15998 Y-80.03736
G01 X-133.37736 Y-80.81998
G01 X-133.38523 Y-80.83901
G01 X-133.37736 Y-80.81998
G01 X-130.31412 Y-80.82001
G01 X-130.52727 Y-80.56913
G01 X-130.52133 Y-80.53151
G01 X-130.44683 Y-80.25346
G01 X-130.39192 Y-80.08447
G01 X-130.36332 Y-80.00997
G01 X-128.67005 Y-80.00997
G01 X-128.69893 Y-79.97434
G01 X-128.77018 Y-79.86461
G01 X-128.85903 Y-79.71071
G01 X-128.91844 Y-79.59413
G01 X-128.96532 Y-79.47198
G01 X-129.02024 Y-79.30299
G01 X-129.05410 Y-79.17660
G01 X-129.07457 Y-79.04737
G01 X-129.09314 Y-78.87066
G01 X-129.10000 Y-78.74000
G01 X-129.09314 Y-78.60932
G01 X-129.07457 Y-78.43261
G01 X-129.05410 Y-78.30337
G01 X-129.02024 Y-78.17698
G01 X-128.96532 Y-78.00800
G01 X-128.91844 Y-77.88585
G01 X-128.85903 Y-77.76926
G01 X-128.77018 Y-77.61536
G01 X-128.69893 Y-77.50564
G01 X-128.67005 Y-77.46997
G01 X-128.69893 Y-77.43434
G01 X-128.77018 Y-77.32461
G01 X-128.85903 Y-77.17071
G01 X-128.91844 Y-77.05413
G01 X-128.96532 Y-76.93198
G01 X-129.02024 Y-76.76299
G01 X-129.05410 Y-76.63660
G01 X-129.07457 Y-76.50737
G01 X-129.09314 Y-76.33066
G01 X-129.10000 Y-76.20000
G01 X-129.09314 Y-76.06932
G01 X-129.07457 Y-75.89261
G01 X-129.05410 Y-75.76337
G01 X-129.02024 Y-75.63698
G01 X-128.96532 Y-75.46800
G01 X-128.91844 Y-75.34585
G01 X-128.85903 Y-75.22926
G01 X-128.77018 Y-75.07536
G01 X-128.69893 Y-74.96564
G01 X-128.67005 Y-74.92997
G01 X-128.69893 Y-74.89434
G01 X-128.77018 Y-74.78461
G01 X-128.85903 Y-74.63071
G01 X-128.91844 Y-74.51413
G01 X-128.96532 Y-74.39198
G01 X-129.02024 Y-74.22299
G01 X-129.05410 Y-74.09660
G01 X-129.07457 Y-73.96737
G01 X-129.09314 Y-73.79066
G01 X-129.10000 Y-73.66000
G01 X-129.09314 Y-73.52932
G01 X-129.07457 Y-73.35261
G01 X-129.05410 Y-73.22337
G01 X-129.02024 Y-73.09698
G01 X-128.96532 Y-72.92800
G01 X-128.91844 Y-72.80585
G01 X-128.85903 Y-72.68926
G01 X-128.77018 Y-72.53536
G01 X-128.69893 Y-72.42564
G01 X-128.67005 Y-72.38997
G01 X-128.69893 Y-72.35434
G01 X-128.77018 Y-72.24461
G01 X-128.85903 Y-72.09071
G01 X-128.91844 Y-71.97413
G01 X-128.96532 Y-71.85198
G01 X-129.02024 Y-71.68299
G01 X-129.05410 Y-71.55660
G01 X-129.07457 Y-71.42737
G01 X-129.09314 Y-71.25066
G01 X-129.10000 Y-71.12000
G01 X-129.09314 Y-70.98932
G01 X-129.07457 Y-70.81261
G01 X-129.05410 Y-70.68337
G01 X-129.02024 Y-70.55698
G01 X-128.96532 Y-70.38800
G01 X-128.91844 Y-70.26585
G01 X-128.85903 Y-70.14926
G01 X-128.77018 Y-69.99536
G01 X-128.69893 Y-69.88564
G01 X-128.67005 Y-69.84997
G01 X-128.69893 Y-69.81434
G01 X-128.77018 Y-69.70461
G01 X-128.85903 Y-69.55071
G01 X-128.91844 Y-69.43413
G01 X-128.96532 Y-69.31198
G01 X-129.02024 Y-69.14299
G01 X-129.05410 Y-69.01660
G01 X-129.07457 Y-68.88737
G01 X-129.09314 Y-68.71066
G01 X-129.10000 Y-68.58000
G01 X-129.09314 Y-68.44932
G01 X-129.07457 Y-68.27261
G01 X-129.05410 Y-68.14337
G01 X-129.02024 Y-68.01698
G01 X-128.96532 Y-67.84800
G01 X-128.91844 Y-67.72585
G01 X-128.85903 Y-67.60926
G01 X-128.77018 Y-67.45536
G01 X-128.69893 Y-67.34564
G01 X-128.67005 Y-67.30997
G01 X-130.36332 Y-67.30997
G01 X-130.39192 Y-67.38447
G01 X-130.44683 Y-67.55346
G01 X-130.52133 Y-67.83151
G01 X-130.56634 Y-68.11581
G01 X-130.58493 Y-68.29252
G01 X-130.59999 Y-68.58000
G01 X-130.58493 Y-68.86745
G01 X-130.56634 Y-69.04416
G01 X-130.52133 Y-69.32846
G01 X-130.44683 Y-69.60652
G01 X-130.39192 Y-69.77550
G01 X-130.36332 Y-69.84997
G01 X-127.45342 Y-69.84997
G01 X-127.67498 Y-69.74911
G01 X-127.86263 Y-69.61617
G01 X-127.90333 Y-69.58322
G01 X-127.94033 Y-69.54622
G01 X-128.09215 Y-69.37350
G01 X-128.20952 Y-69.17571
G01 X-128.23327 Y-69.12907
G01 X-128.25202 Y-69.08023
G01 X-128.32050 Y-68.86067
G01 X-128.32867 Y-68.80898
G01 X-128.34998 Y-68.58000
G01 X-128.34724 Y-68.52773
G01 X-128.32050 Y-68.29930
G01 X-128.25202 Y-68.07975
G01 X-128.23327 Y-68.03090
G01 X-128.20952 Y-67.98427
G01 X-128.09215 Y-67.78648
G01 X-127.94033 Y-67.61376
G01 X-127.90333 Y-67.57675
G01 X-127.86263 Y-67.54381
G01 X-127.67498 Y-67.41086
G01 X-127.45342 Y-67.30997
G01 X-128.67005 Y-67.30997
G01 X-128.69893 Y-67.27434
G01 X-128.77018 Y-67.16461
G01 X-128.85903 Y-67.01071
G01 X-128.91844 Y-66.89413
G01 X-128.96532 Y-66.77198
G01 X-129.02024 Y-66.60299
G01 X-129.05410 Y-66.47660
G01 X-129.07457 Y-66.34737
G01 X-129.09314 Y-66.17066
G01 X-129.10000 Y-66.04000
G01 X-129.09314 Y-65.90932
G01 X-129.07457 Y-65.73261
G01 X-129.05410 Y-65.60337
G01 X-129.02024 Y-65.47698
G01 X-128.96532 Y-65.30800
G01 X-128.91844 Y-65.18585
G01 X-128.86428 Y-65.07958
G01 X-128.84302 Y-65.07851
G01 X-128.86068 Y-65.07937
G01 X-128.88933 Y-65.04445
G01 X-129.00485 Y-64.82834
G01 X-129.07597 Y-64.59385
G01 X-129.10000 Y-64.34999
G01 X-129.10000 Y-62.64999
G01 X-129.07597 Y-62.40612
G01 X-129.00485 Y-62.17163
G01 X-128.88933 Y-61.95553
G01 X-128.73388 Y-61.76609
G01 X-128.54445 Y-61.61065
G01 X-128.32834 Y-61.49513
G01 X-128.09385 Y-61.42401
G01 X-127.84999 Y-61.39998
G01 X-126.14999 Y-61.39998
G01 X-125.90612 Y-61.42401
G01 X-125.67163 Y-61.49513
G01 X-125.45553 Y-61.61065
G01 X-125.26609 Y-61.76609
G01 X-125.11065 Y-61.95553
G01 X-124.99513 Y-62.17163
G01 X-124.92401 Y-62.40612
G01 X-124.89998 Y-62.64999
G01 X-124.89998 Y-64.34999
G01 X-124.92401 Y-64.59385
G01 X-124.99513 Y-64.82834
G01 X-125.11065 Y-65.04445
G01 X-125.13927 Y-65.07937
G01 X-125.15693 Y-65.07841
G01 X-125.13569 Y-65.07958
G01 X-125.08154 Y-65.18585
G01 X-125.03465 Y-65.30800
G01 X-124.97973 Y-65.47698
G01 X-124.94588 Y-65.60337
G01 X-124.92540 Y-65.73261
G01 X-124.90684 Y-65.90932
G01 X-124.89998 Y-66.04000
G01 X-124.90684 Y-66.17066
G01 X-124.92540 Y-66.34737
G01 X-124.94588 Y-66.47660
G01 X-124.97973 Y-66.60299
G01 X-125.03465 Y-66.77198
G01 X-125.08154 Y-66.89413
G01 X-125.14095 Y-67.01071
G01 X-125.22980 Y-67.16461
G01 X-125.30104 Y-67.27434
G01 X-125.32992 Y-67.30997
G01 X-125.30104 Y-67.34564
G01 X-125.22980 Y-67.45536
G01 X-125.14095 Y-67.60926
G01 X-125.08154 Y-67.72585
G01 X-125.03465 Y-67.84800
G01 X-124.97973 Y-68.01698
G01 X-124.94588 Y-68.14337
G01 X-124.92540 Y-68.27261
G01 X-124.90684 Y-68.44932
G01 X-124.89998 Y-68.58000
G01 X-124.90684 Y-68.71066
G01 X-124.92540 Y-68.88737
G01 X-124.94588 Y-69.01660
G01 X-124.97973 Y-69.14299
G01 X-125.03465 Y-69.31198
G01 X-125.08154 Y-69.43413
G01 X-125.14095 Y-69.55071
G01 X-125.22980 Y-69.70461
G01 X-125.30104 Y-69.81434
G01 X-125.32992 Y-69.84997
G01 X-125.30104 Y-69.88564
G01 X-125.22980 Y-69.99536
G01 X-125.14095 Y-70.14926
G01 X-125.08154 Y-70.26585
G01 X-125.03465 Y-70.38800
G01 X-124.97973 Y-70.55698
G01 X-124.94588 Y-70.68337
G01 X-124.92540 Y-70.81261
G01 X-124.90684 Y-70.98932
G01 X-124.89998 Y-71.12000
G01 X-124.90684 Y-71.25066
G01 X-124.92540 Y-71.42737
G01 X-124.94588 Y-71.55660
G01 X-124.97973 Y-71.68299
G01 X-125.03465 Y-71.85198
G01 X-125.08154 Y-71.97413
G01 X-125.14095 Y-72.09071
G01 X-125.22980 Y-72.24461
G01 X-125.30104 Y-72.35434
G01 X-125.32992 Y-72.38997
G01 X-123.63666 Y-72.38997
G01 X-123.60806 Y-72.31550
G01 X-123.55314 Y-72.14652
G01 X-123.47865 Y-71.86846
G01 X-123.43364 Y-71.58416
G01 X-123.41504 Y-71.40745
G01 X-123.39998 Y-71.12000
G01 X-125.64999 Y-71.12000
G01 X-125.65273 Y-71.06773
G01 X-125.67948 Y-70.83930
G01 X-125.74796 Y-70.61975
G01 X-125.76670 Y-70.57090
G01 X-125.79045 Y-70.52427
G01 X-125.90783 Y-70.32648
G01 X-126.05964 Y-70.15376
G01 X-126.09665 Y-70.11675
G01 X-126.13734 Y-70.08381
G01 X-126.32499 Y-69.95086
G01 X-126.54648 Y-69.84997
G01 X-126.32499 Y-69.74911
G01 X-126.13734 Y-69.61617
G01 X-126.09665 Y-69.58322
G01 X-126.05964 Y-69.54622
G01 X-125.90783 Y-69.37350
G01 X-125.79045 Y-69.17571
G01 X-125.76670 Y-69.12907
G01 X-125.74796 Y-69.08023
G01 X-125.67948 Y-68.86067
G01 X-125.67130 Y-68.80898
G01 X-125.64999 Y-68.58000
G01 X-125.67130 Y-68.80898
G01 X-125.67948 Y-68.86067
G01 X-125.74796 Y-69.08023
G01 X-125.76670 Y-69.12907
G01 X-125.79045 Y-69.17571
G01 X-125.90783 Y-69.37350
G01 X-126.05964 Y-69.54622
G01 X-126.09665 Y-69.58322
G01 X-126.13734 Y-69.61617
G01 X-126.32499 Y-69.74911
G01 X-126.54648 Y-69.84997
G01 X-126.32499 Y-69.95086
G01 X-126.13734 Y-70.08381
G01 X-126.09665 Y-70.11675
G01 X-126.05964 Y-70.15376
G01 X-125.90783 Y-70.32648
G01 X-125.79045 Y-70.52427
G01 X-125.76670 Y-70.57090
G01 X-125.74796 Y-70.61975
G01 X-125.67948 Y-70.83930
G01 X-125.65273 Y-71.06773
G01 X-125.64999 Y-71.12000
G01 X-125.89998 Y-71.12000
G01 X-125.92403 Y-70.89127
G01 X-125.99510 Y-70.67258
G01 X-126.11006 Y-70.47342
G01 X-126.26393 Y-70.30253
G01 X-126.44999 Y-70.16735
G01 X-126.63564 Y-70.08320
G01 X-126.68534 Y-70.06704
G01 X-126.85916 Y-70.03011
G01 X-126.91115 Y-70.02465
G01 X-127.11496 Y-70.02602
G01 X-127.33990 Y-70.07382
G01 X-127.54999 Y-70.16735
G01 X-127.73604 Y-70.30253
G01 X-127.88991 Y-70.47342
G01 X-128.00487 Y-70.67258
G01 X-128.07594 Y-70.89127
G01 X-128.10000 Y-71.12000
G01 X-128.07594 Y-71.34870
G01 X-128.00487 Y-71.56740
G01 X-127.88991 Y-71.76656
G01 X-127.75453 Y-71.91893
G01 X-127.71570 Y-71.95391
G01 X-127.54999 Y-72.07263
G01 X-127.36434 Y-72.15678
G01 X-127.31463 Y-72.17293
G01 X-127.14082 Y-72.20986
G01 X-127.08882 Y-72.21532
G01 X-126.88501 Y-72.21395
G01 X-126.66007 Y-72.16615
G01 X-126.44999 Y-72.07263
G01 X-126.28428 Y-71.95391
G01 X-126.24544 Y-71.91893
G01 X-126.11006 Y-71.76656
G01 X-125.99510 Y-71.56740
G01 X-125.92403 Y-71.34870
G01 X-125.89998 Y-71.12000
G01 X-125.64999 Y-71.12000
G01 X-125.67130 Y-71.34898
G01 X-125.67948 Y-71.40067
G01 X-125.74796 Y-71.62023
G01 X-125.76670 Y-71.66907
G01 X-125.79045 Y-71.71571
G01 X-125.90783 Y-71.91350
G01 X-126.05964 Y-72.08622
G01 X-126.09665 Y-72.12322
G01 X-126.13734 Y-72.15617
G01 X-126.32499 Y-72.28911
G01 X-126.54648 Y-72.38997
G01 X-125.32992 Y-72.38997
G01 X-125.30104 Y-72.42564
G01 X-125.22980 Y-72.53536
G01 X-125.14095 Y-72.68926
G01 X-125.08154 Y-72.80585
G01 X-125.03465 Y-72.92800
G01 X-124.97973 Y-73.09698
G01 X-124.94588 Y-73.22337
G01 X-124.92540 Y-73.35261
G01 X-124.90684 Y-73.52932
G01 X-124.89998 Y-73.66000
G01 X-124.90684 Y-73.79066
G01 X-124.92540 Y-73.96737
G01 X-124.94588 Y-74.09660
G01 X-124.97973 Y-74.22299
G01 X-125.03465 Y-74.39198
G01 X-125.08154 Y-74.51413
G01 X-125.14095 Y-74.63071
G01 X-125.22980 Y-74.78461
G01 X-125.30104 Y-74.89434
G01 X-125.32992 Y-74.92997
G01 X-125.30104 Y-74.96564
G01 X-125.22980 Y-75.07536
G01 X-125.14095 Y-75.22926
G01 X-125.08154 Y-75.34585
G01 X-125.03465 Y-75.46800
G01 X-124.97973 Y-75.63698
G01 X-124.94588 Y-75.76337
G01 X-124.92540 Y-75.89261
G01 X-124.90684 Y-76.06932
G01 X-124.89998 Y-76.20000
G01 X-124.90684 Y-76.33066
G01 X-124.92540 Y-76.50737
G01 X-124.94588 Y-76.63660
G01 X-124.97973 Y-76.76299
G01 X-125.03465 Y-76.93198
G01 X-125.08154 Y-77.05413
G01 X-125.14095 Y-77.17071
G01 X-125.22980 Y-77.32461
G01 X-125.30104 Y-77.43434
G01 X-125.32992 Y-77.46997
G01 X-123.63666 Y-77.46997
G01 X-123.60806 Y-77.39550
G01 X-123.55314 Y-77.22652
G01 X-123.47865 Y-76.94846
G01 X-123.43364 Y-76.66416
G01 X-123.41504 Y-76.48745
G01 X-123.39998 Y-76.20000
G01 X-125.64999 Y-76.20000
G01 X-125.65273 Y-76.14773
G01 X-125.67948 Y-75.91930
G01 X-125.74796 Y-75.69975
G01 X-125.76670 Y-75.65090
G01 X-125.79045 Y-75.60427
G01 X-125.90783 Y-75.40648
G01 X-126.05964 Y-75.23376
G01 X-126.09665 Y-75.19675
G01 X-126.13734 Y-75.16381
G01 X-126.32499 Y-75.03086
G01 X-126.54648 Y-74.92997
G01 X-126.32499 Y-74.82911
G01 X-126.13734 Y-74.69617
G01 X-126.09665 Y-74.66322
G01 X-126.05964 Y-74.62622
G01 X-125.90783 Y-74.45350
G01 X-125.79045 Y-74.25571
G01 X-125.76670 Y-74.20907
G01 X-125.74796 Y-74.16023
G01 X-125.67948 Y-73.94067
G01 X-125.67130 Y-73.88898
G01 X-125.64999 Y-73.66000
G01 X-125.67130 Y-73.88898
G01 X-125.67948 Y-73.94067
G01 X-125.74796 Y-74.16023
G01 X-125.76670 Y-74.20907
G01 X-125.79045 Y-74.25571
G01 X-125.90783 Y-74.45350
G01 X-126.05964 Y-74.62622
G01 X-126.09665 Y-74.66322
G01 X-126.13734 Y-74.69617
G01 X-126.32499 Y-74.82911
G01 X-126.54648 Y-74.92997
G01 X-126.32499 Y-75.03086
G01 X-126.13734 Y-75.16381
G01 X-126.09665 Y-75.19675
G01 X-126.05964 Y-75.23376
G01 X-125.90783 Y-75.40648
G01 X-125.79045 Y-75.60427
G01 X-125.76670 Y-75.65090
G01 X-125.74796 Y-75.69975
G01 X-125.67948 Y-75.91930
G01 X-125.65273 Y-76.14773
G01 X-125.64999 Y-76.20000
G01 X-125.89998 Y-76.20000
G01 X-125.92403 Y-75.97127
G01 X-125.99510 Y-75.75258
G01 X-126.11006 Y-75.55342
G01 X-126.26393 Y-75.38253
G01 X-126.44999 Y-75.24735
G01 X-126.63564 Y-75.16320
G01 X-126.68534 Y-75.14704
G01 X-126.85916 Y-75.11011
G01 X-126.91115 Y-75.10465
G01 X-127.11496 Y-75.10602
G01 X-127.33990 Y-75.15382
G01 X-127.54999 Y-75.24735
G01 X-127.73604 Y-75.38253
G01 X-127.88991 Y-75.55342
G01 X-128.00487 Y-75.75258
G01 X-128.07594 Y-75.97127
G01 X-128.10000 Y-76.20000
G01 X-128.07594 Y-76.42870
G01 X-128.00487 Y-76.64740
G01 X-127.88991 Y-76.84656
G01 X-127.75453 Y-76.99893
G01 X-127.71570 Y-77.03391
G01 X-127.54999 Y-77.15263
G01 X-127.36434 Y-77.23678
G01 X-127.31463 Y-77.25293
G01 X-127.14082 Y-77.28986
G01 X-127.08882 Y-77.29532
G01 X-126.88501 Y-77.29395
G01 X-126.66007 Y-77.24615
G01 X-126.44999 Y-77.15263
G01 X-126.28428 Y-77.03391
G01 X-126.24544 Y-76.99893
G01 X-126.11006 Y-76.84656
G01 X-125.99510 Y-76.64740
G01 X-125.92403 Y-76.42870
G01 X-125.89998 Y-76.20000
G01 X-125.64999 Y-76.20000
G01 X-125.67130 Y-76.42898
G01 X-125.67948 Y-76.48067
G01 X-125.74796 Y-76.70023
G01 X-125.76670 Y-76.74907
G01 X-125.79045 Y-76.79571
G01 X-125.90783 Y-76.99350
G01 X-126.05964 Y-77.16622
G01 X-126.09665 Y-77.20322
G01 X-126.13734 Y-77.23617
G01 X-126.32499 Y-77.36911
G01 X-126.54648 Y-77.46997
G01 X-125.32992 Y-77.46997
G01 X-125.30104 Y-77.50564
G01 X-125.22980 Y-77.61536
G01 X-125.14095 Y-77.76926
G01 X-125.08154 Y-77.88585
G01 X-125.03465 Y-78.00800
G01 X-124.97973 Y-78.17698
G01 X-124.94588 Y-78.30337
G01 X-124.92540 Y-78.43261
G01 X-124.90684 Y-78.60932
G01 X-124.89998 Y-78.74000
G01 X-124.90684 Y-78.87066
G01 X-124.92540 Y-79.04737
G01 X-124.94588 Y-79.17660
G01 X-124.97973 Y-79.30299
G01 X-125.03465 Y-79.47198
G01 X-125.08154 Y-79.59413
G01 X-125.14095 Y-79.71071
G01 X-125.22980 Y-79.86461
G01 X-125.30104 Y-79.97434
G01 X-125.32992 Y-80.00997
G01 X-125.30104 Y-80.04564
G01 X-125.22980 Y-80.15536
G01 X-125.14095 Y-80.30926
G01 X-125.08154 Y-80.42585
G01 X-125.03465 Y-80.54800
G01 X-124.97973 Y-80.71698
G01 X-124.94588 Y-80.84337
G01 X-124.92540 Y-80.97261
G01 X-124.90684 Y-81.14932
G01 X-124.89998 Y-81.28000
G01 X-124.90684 Y-81.41066
G01 X-124.92540 Y-81.58737
G01 X-124.94588 Y-81.71660
G01 X-124.97973 Y-81.84299
G01 X-125.03465 Y-82.01198
G01 X-125.08154 Y-82.13413
G01 X-125.14095 Y-82.25071
G01 X-125.22980 Y-82.40461
G01 X-125.30104 Y-82.51434
G01 X-125.32992 Y-82.54997
G01 X-123.63666 Y-82.54997
G01 X-123.60806 Y-82.47550
G01 X-123.55314 Y-82.30652
G01 X-123.47865 Y-82.02846
G01 X-123.43364 Y-81.74416
G01 X-123.41504 Y-81.56745
G01 X-123.39998 Y-81.28000
G01 X-125.64999 Y-81.28000
G01 X-125.65273 Y-81.22773
G01 X-125.67948 Y-80.99930
G01 X-125.74796 Y-80.77975
G01 X-125.76670 Y-80.73090
G01 X-125.79045 Y-80.68427
G01 X-125.90783 Y-80.48648
G01 X-126.05964 Y-80.31376
G01 X-126.09665 Y-80.27675
G01 X-126.13734 Y-80.24381
G01 X-126.32499 Y-80.11086
G01 X-126.54648 Y-80.00997
G01 X-126.32499 Y-79.90911
G01 X-126.13734 Y-79.77617
G01 X-126.09665 Y-79.74322
G01 X-126.05964 Y-79.70622
G01 X-125.90783 Y-79.53350
G01 X-125.79045 Y-79.33571
G01 X-125.76670 Y-79.28907
G01 X-125.74796 Y-79.24023
G01 X-125.67948 Y-79.02067
G01 X-125.67130 Y-78.96898
G01 X-125.64999 Y-78.74000
G01 X-125.67130 Y-78.96898
G01 X-125.67948 Y-79.02067
G01 X-125.74796 Y-79.24023
G01 X-125.76670 Y-79.28907
G01 X-125.79045 Y-79.33571
G01 X-125.90783 Y-79.53350
G01 X-126.05964 Y-79.70622
G01 X-126.09665 Y-79.74322
G01 X-126.13734 Y-79.77617
G01 X-126.32499 Y-79.90911
G01 X-126.54648 Y-80.00997
G01 X-126.32499 Y-80.11086
G01 X-126.13734 Y-80.24381
G01 X-126.09665 Y-80.27675
G01 X-126.05964 Y-80.31376
G01 X-125.90783 Y-80.48648
G01 X-125.79045 Y-80.68427
G01 X-125.76670 Y-80.73090
G01 X-125.74796 Y-80.77975
G01 X-125.67948 Y-80.99930
G01 X-125.65273 Y-81.22773
G01 X-125.64999 Y-81.28000
G01 X-125.89998 Y-81.28000
G01 X-125.92403 Y-81.05127
G01 X-125.99510 Y-80.83258
G01 X-126.11006 Y-80.63342
G01 X-126.26393 Y-80.46253
G01 X-126.44999 Y-80.32735
G01 X-126.63564 Y-80.24320
G01 X-126.68534 Y-80.22704
G01 X-126.85916 Y-80.19011
G01 X-126.91115 Y-80.18465
G01 X-127.11496 Y-80.18602
G01 X-127.33990 Y-80.23382
G01 X-127.54999 Y-80.32735
G01 X-127.73604 Y-80.46253
G01 X-127.88991 Y-80.63342
G01 X-128.00487 Y-80.83258
G01 X-128.07594 Y-81.05127
G01 X-128.09863 Y-81.25386
G01 X-128.09863 Y-81.30611
G01 X-128.07594 Y-81.50870
G01 X-128.00487 Y-81.72740
G01 X-127.88991 Y-81.92656
G01 X-127.75453 Y-82.07893
G01 X-127.71570 Y-82.11391
G01 X-127.54999 Y-82.23263
G01 X-127.36434 Y-82.31678
G01 X-127.31463 Y-82.33293
G01 X-127.14082 Y-82.36986
G01 X-127.08882 Y-82.37532
G01 X-126.88501 Y-82.37395
G01 X-126.66007 Y-82.32615
G01 X-126.44999 Y-82.23263
G01 X-126.28428 Y-82.11391
G01 X-126.24544 Y-82.07893
G01 X-126.11006 Y-81.92656
G01 X-125.99510 Y-81.72740
G01 X-125.92403 Y-81.50870
G01 X-125.89998 Y-81.28000
G01 X-125.64999 Y-81.28000
G01 X-125.67130 Y-81.50898
G01 X-125.67948 Y-81.56067
G01 X-125.74796 Y-81.78023
G01 X-125.76670 Y-81.82907
G01 X-125.79045 Y-81.87571
G01 X-125.90783 Y-82.07350
G01 X-126.05964 Y-82.24622
G01 X-126.09665 Y-82.28322
G01 X-126.13734 Y-82.31617
G01 X-126.32499 Y-82.44911
G01 X-126.54651 Y-82.54997
G01 X-125.32992 Y-82.54997
G01 X-125.30104 Y-82.58564
G01 X-125.22980 Y-82.69536
G01 X-125.14095 Y-82.84926
G01 X-125.08154 Y-82.96585
G01 X-125.03465 Y-83.08800
G01 X-124.97973 Y-83.25698
G01 X-124.94588 Y-83.38337
G01 X-124.92540 Y-83.51261
G01 X-124.90684 Y-83.68932
G01 X-124.89998 Y-83.82000
G01 X-124.90684 Y-83.95066
G01 X-124.92540 Y-84.12737
G01 X-124.94588 Y-84.25660
G01 X-124.97973 Y-84.38299
G01 X-125.03465 Y-84.55198
G01 X-125.08154 Y-84.67413
G01 X-125.14095 Y-84.79071
G01 X-125.22980 Y-84.94461
G01 X-125.30104 Y-85.05434
G01 X-125.32992 Y-85.08997
G01 X-125.30104 Y-85.12564
G01 X-125.22980 Y-85.23536
G01 X-125.14095 Y-85.38926
G01 X-125.08154 Y-85.50585
G01 X-125.03465 Y-85.62800
G01 X-124.97973 Y-85.79698
G01 X-124.94588 Y-85.92337
G01 X-124.92540 Y-86.05261
G01 X-124.90684 Y-86.22932
G01 X-124.89998 Y-86.36000
G01 X-124.90684 Y-86.49066
G01 X-124.92540 Y-86.66737
G01 X-124.94588 Y-86.79660
G01 X-124.97973 Y-86.92299
G01 X-125.03465 Y-87.09198
G01 X-125.08154 Y-87.21413
G01 X-125.14095 Y-87.33071
G01 X-125.22980 Y-87.48461
G01 X-125.30104 Y-87.59434
G01 X-125.32990 Y-87.62997
G01 X-123.63666 Y-87.62997
G01 X-123.60806 Y-87.55550
G01 X-123.55314 Y-87.38652
G01 X-123.47865 Y-87.10846
G01 X-123.43364 Y-86.82416
G01 X-123.41504 Y-86.64745
G01 X-123.39998 Y-86.36000
G01 X-125.89998 Y-86.36000
G01 X-125.64999 Y-86.36000
G01 X-125.67130 Y-86.58898
G01 X-125.67948 Y-86.64067
G01 X-125.74796 Y-86.86023
G01 X-125.76670 Y-86.90907
G01 X-125.87930 Y-87.10960
G01 X-125.90783 Y-87.15350
G01 X-125.94074 Y-87.19416
G01 X-126.09665 Y-87.36322
G01 X-126.28110 Y-87.50061
G01 X-126.32499 Y-87.52911
G01 X-126.54648 Y-87.62997
G01 X-125.32990 Y-87.62997
G01 X-125.30104 Y-87.66564
G01 X-125.22980 Y-87.77536
G01 X-125.14095 Y-87.92926
G01 X-125.08154 Y-88.04585
G01 X-125.03465 Y-88.16800
G01 X-124.97973 Y-88.33698
G01 X-124.94588 Y-88.46337
G01 X-124.92540 Y-88.59261
G01 X-124.90684 Y-88.76932
G01 X-124.89998 Y-88.90000
G01 X-124.90684 Y-89.03066
G01 X-124.92540 Y-89.20737
G01 X-124.94588 Y-89.33660
G01 X-124.97973 Y-89.46299
G01 X-125.03465 Y-89.63198
G01 X-125.08154 Y-89.75413
G01 X-125.14095 Y-89.87071
G01 X-125.22980 Y-90.02461
G01 X-125.30104 Y-90.13434
G01 X-125.32990 Y-90.16997
G01 X-125.30104 Y-90.20564
G01 X-125.22980 Y-90.31536
G01 X-125.14095 Y-90.46926
G01 X-125.08154 Y-90.58585
G01 X-125.03465 Y-90.70800
G01 X-124.97973 Y-90.87698
G01 X-124.94588 Y-91.00337
G01 X-124.92540 Y-91.13261
G01 X-124.90684 Y-91.30932
G01 X-124.89998 Y-91.44000
G01 X-124.90684 Y-91.57066
G01 X-124.92540 Y-91.74737
G01 X-124.94588 Y-91.87660
G01 X-124.97973 Y-92.00299
G01 X-125.03465 Y-92.17198
G01 X-125.08154 Y-92.29413
G01 X-125.14095 Y-92.41071
G01 X-125.22980 Y-92.56461
G01 X-125.30104 Y-92.67434
G01 X-125.32992 Y-92.70997
G01 X-125.30104 Y-92.74564
G01 X-125.22980 Y-92.85536
G01 X-125.14095 Y-93.00926
G01 X-125.08154 Y-93.12585
G01 X-125.03465 Y-93.24800
G01 X-124.97973 Y-93.41698
G01 X-124.94588 Y-93.54337
G01 X-124.92540 Y-93.67261
G01 X-124.90684 Y-93.84932
G01 X-124.89998 Y-93.98000
G01 X-124.90684 Y-94.11066
G01 X-124.92540 Y-94.28737
G01 X-124.94588 Y-94.41660
G01 X-124.97973 Y-94.54299
G01 X-125.03465 Y-94.71198
G01 X-125.08154 Y-94.83413
G01 X-125.14095 Y-94.95071
G01 X-125.22980 Y-95.10461
G01 X-125.30104 Y-95.21434
G01 X-125.32990 Y-95.24997
G01 X-125.30104 Y-95.28564
G01 X-125.22980 Y-95.39536
G01 X-125.14095 Y-95.54926
G01 X-125.08154 Y-95.66585
G01 X-125.03465 Y-95.78800
G01 X-124.97973 Y-95.95698
G01 X-124.94588 Y-96.08337
G01 X-124.92540 Y-96.21261
G01 X-124.90684 Y-96.38932
G01 X-124.89998 Y-96.52000
G01 X-124.90684 Y-96.65066
G01 X-124.92540 Y-96.82737
G01 X-124.94588 Y-96.95660
G01 X-124.97973 Y-97.08299
G01 X-125.03465 Y-97.25198
G01 X-125.08154 Y-97.37413
G01 X-125.14095 Y-97.49071
G01 X-125.22980 Y-97.64461
G01 X-125.30104 Y-97.75434
G01 X-125.32990 Y-97.78997
G01 X-123.63666 Y-97.78997
G01 X-123.60806 Y-97.71550
G01 X-123.55314 Y-97.54652
G01 X-123.47865 Y-97.26846
G01 X-123.43364 Y-96.98416
G01 X-123.41504 Y-96.80745
G01 X-123.39998 Y-96.52000
G01 X-125.64999 Y-96.52000
G01 X-125.65273 Y-96.46773
G01 X-125.67948 Y-96.23930
G01 X-125.74796 Y-96.01975
G01 X-125.76670 Y-95.97090
G01 X-125.79045 Y-95.92427
G01 X-125.90783 Y-95.72648
G01 X-126.05964 Y-95.55376
G01 X-126.09665 Y-95.51675
G01 X-126.13734 Y-95.48381
G01 X-126.32499 Y-95.35086
G01 X-126.54648 Y-95.24997
G01 X-126.32499 Y-95.14911
G01 X-126.13734 Y-95.01617
G01 X-126.09665 Y-94.98322
G01 X-126.05964 Y-94.94622
G01 X-125.90783 Y-94.77350
G01 X-125.79045 Y-94.57571
G01 X-125.76670 Y-94.52907
G01 X-125.74796 Y-94.48023
G01 X-125.67948 Y-94.26067
G01 X-125.67130 Y-94.20898
G01 X-125.64999 Y-93.98000
G01 X-125.67130 Y-94.20898
G01 X-125.67948 Y-94.26067
G01 X-125.74796 Y-94.48023
G01 X-125.76670 Y-94.52907
G01 X-125.79045 Y-94.57571
G01 X-125.90783 Y-94.77350
G01 X-126.05964 Y-94.94622
G01 X-126.09665 Y-94.98322
G01 X-126.13734 Y-95.01617
G01 X-126.32499 Y-95.14911
G01 X-126.54648 Y-95.24997
G01 X-126.32499 Y-95.35086
G01 X-126.13734 Y-95.48381
G01 X-126.09665 Y-95.51675
G01 X-126.05964 Y-95.55376
G01 X-125.90783 Y-95.72648
G01 X-125.79045 Y-95.92427
G01 X-125.76670 Y-95.97090
G01 X-125.74796 Y-96.01975
G01 X-125.67948 Y-96.23930
G01 X-125.65273 Y-96.46773
G01 X-125.64999 Y-96.52000
G01 X-125.89998 Y-96.52000
G01 X-125.92403 Y-96.29127
G01 X-125.99510 Y-96.07258
G01 X-126.11006 Y-95.87342
G01 X-126.26393 Y-95.70253
G01 X-126.44999 Y-95.56735
G01 X-126.63564 Y-95.48320
G01 X-126.68534 Y-95.46704
G01 X-126.85916 Y-95.43011
G01 X-126.91115 Y-95.42465
G01 X-127.11496 Y-95.42602
G01 X-127.33990 Y-95.47382
G01 X-127.54999 Y-95.56735
G01 X-127.73604 Y-95.70253
G01 X-127.88991 Y-95.87342
G01 X-128.00487 Y-96.07258
G01 X-128.07594 Y-96.29127
G01 X-128.09863 Y-96.49386
G01 X-128.09863 Y-96.54611
G01 X-128.07594 Y-96.74870
G01 X-128.00487 Y-96.96740
G01 X-127.88991 Y-97.16656
G01 X-127.75453 Y-97.31893
G01 X-127.71570 Y-97.35391
G01 X-127.54999 Y-97.47263
G01 X-127.36434 Y-97.55678
G01 X-127.31463 Y-97.57293
G01 X-127.14082 Y-97.60986
G01 X-127.08882 Y-97.61532
G01 X-126.88501 Y-97.61395
G01 X-126.66007 Y-97.56615
G01 X-126.44999 Y-97.47263
G01 X-126.28428 Y-97.35391
G01 X-126.24544 Y-97.31893
G01 X-126.11006 Y-97.16656
G01 X-125.99510 Y-96.96740
G01 X-125.92403 Y-96.74870
G01 X-125.89998 Y-96.52000
G01 X-125.64999 Y-96.52000
G01 X-125.67130 Y-96.74898
G01 X-125.67948 Y-96.80067
G01 X-125.74796 Y-97.02023
G01 X-125.76670 Y-97.06907
G01 X-125.79045 Y-97.11571
G01 X-125.90783 Y-97.31350
G01 X-126.05964 Y-97.48622
G01 X-126.09665 Y-97.52322
G01 X-126.13734 Y-97.55617
G01 X-126.32499 Y-97.68911
G01 X-126.54648 Y-97.78997
G01 X-125.32990 Y-97.78997
G01 X-125.30104 Y-97.82564
G01 X-125.22980 Y-97.93536
G01 X-125.14095 Y-98.08926
G01 X-125.08154 Y-98.20585
G01 X-125.03465 Y-98.32800
G01 X-124.97973 Y-98.49698
G01 X-124.94588 Y-98.62337
G01 X-124.92540 Y-98.75261
G01 X-124.90684 Y-98.92932
G01 X-124.89998 Y-99.06000
G01 X-124.90684 Y-99.19066
G01 X-124.92540 Y-99.36737
G01 X-124.94588 Y-99.49660
G01 X-124.97973 Y-99.62299
G01 X-125.03465 Y-99.79198
G01 X-125.08154 Y-99.91413
G01 X-125.14095 Y-100.03071
G01 X-125.22980 Y-100.18461
G01 X-125.30104 Y-100.29434
G01 X-125.32992 Y-100.32997
G01 X-125.30104 Y-100.36564
G01 X-125.22980 Y-100.47536
G01 X-125.14095 Y-100.62926
G01 X-125.08154 Y-100.74585
G01 X-125.03465 Y-100.86800
G01 X-124.97973 Y-101.03698
