( pcb2gcode 2.1.0 )
( Software-independent Gcode )

G94 ( Millimeters per minute feed rate. )
G21 ( Units == Millimeters. )

G90 ( Absolute coordinates. )
G00 S15000 ( RPM spindle speed. )
G01 F300.00000 ( Feedrate. )


G00 Z25.00000 (Retract to tool change height)
T0
M5      (Spindle stop.)
G04 P1.00000 (Wait for spindle to stop)
(MSG, Change tool bit to cutter diameter 0.50000mm)
M6      (Tool change.)
M0      (Temporary machine stop.)
M3 ( Spindle on clockwise. )
G04 P1.00000 (Wait for spindle to get up to speed)
G04 P0 ( dwell for no time -- G64 should not smooth over this point )
G00 Z5.00000 ( retract )

G00 X-116.58999 Y-111.76000 ( rapid move to begin. )
G01 Z-0.50000 F150.00000 ( plunge. )
G04 P0 ( dwell for no time -- G64 should not smooth over this point )
G01 F300.00000
G01 X-116.58999 Y-80.76000
G00 Z5.00000
G01 X-116.58999 Y-79.26000
G01 Z-0.50000 F150.00000
G01 F300.00000
G01 X-116.58999 Y-48.26000
G01 X-116.64358 Y-47.71565
G01 X-116.79410 Y-47.21537
G01 X-116.81285 Y-47.17011
G01 X-117.06019 Y-46.70991
G01 X-117.39067 Y-46.30532
G01 X-117.42532 Y-46.27067
G01 X-117.82991 Y-45.94019
G01 X-118.29011 Y-45.69285
G01 X-118.33537 Y-45.67410
G01 X-118.83565 Y-45.52358
G01 X-119.38000 Y-45.46999
G01 X-146.57000 Y-45.46999
G00 Z5.00000
G01 X-148.07000 Y-45.46999
G01 Z-0.50000 F150.00000
G01 F300.00000
G01 X-175.26000 Y-45.46999
G01 X-175.80430 Y-45.52358
G01 X-176.30457 Y-45.67410
G01 X-176.34984 Y-45.69285
G01 X-176.81003 Y-45.94019
G01 X-177.21463 Y-46.27067
G01 X-177.24928 Y-46.30532
G01 X-177.57976 Y-46.70991
G01 X-177.82710 Y-47.17011
G01 X-177.84585 Y-47.21537
G01 X-177.99637 Y-47.71565
G01 X-178.04999 Y-48.26000
G01 X-178.04999 Y-79.26000
G00 Z5.00000
G01 X-178.04999 Y-80.76000
G01 Z-0.50000 F150.00000
G01 F300.00000
G01 X-178.04999 Y-111.76000
G01 X-177.99997 Y-112.28001
G01 X-177.99040 Y-112.32810
G01 X-177.84585 Y-112.80457
G01 X-177.82710 Y-112.84984
G01 X-177.57976 Y-113.31003
G01 X-177.24928 Y-113.71463
G01 X-177.21463 Y-113.74928
G01 X-176.81003 Y-114.07976
G01 X-176.34984 Y-114.32710
G01 X-176.30457 Y-114.34585
G01 X-175.82810 Y-114.49040
G01 X-175.78001 Y-114.49997
G01 X-175.26000 Y-114.54999
G01 X-148.07000 Y-114.54999
G00 Z5.00000
G01 X-146.57000 Y-114.54999
G01 Z-0.50000 F150.00000
G01 F300.00000
G01 X-119.38000 Y-114.54999
G01 X-118.83565 Y-114.49637
G01 X-118.33537 Y-114.34585
G01 X-118.29011 Y-114.32710
G01 X-117.82991 Y-114.07976
G01 X-117.42532 Y-113.74928
G01 X-117.39067 Y-113.71463
G01 X-117.06019 Y-113.31003
G01 X-116.81285 Y-112.84984
G01 X-116.79410 Y-112.80457
G01 X-116.64358 Y-112.30430
G01 X-116.58999 Y-111.76000
G01 Z-1.00000 F150.00000 ( plunge. )
G04 P0 ( dwell for no time -- G64 should not smooth over this point )
G01 F300.00000
G01 X-116.58999 Y-80.76000
G00 Z5.00000
G01 X-116.58999 Y-79.26000
G01 Z-1.00000 F150.00000
G01 F300.00000
G01 X-116.58999 Y-48.26000
G01 X-116.64358 Y-47.71565
G01 X-116.79410 Y-47.21537
G01 X-116.81285 Y-47.17011
G01 X-117.06019 Y-46.70991
G01 X-117.39067 Y-46.30532
G01 X-117.42532 Y-46.27067
G01 X-117.82991 Y-45.94019
G01 X-118.29011 Y-45.69285
G01 X-118.33537 Y-45.67410
G01 X-118.83565 Y-45.52358
G01 X-119.38000 Y-45.46999
G01 X-146.57000 Y-45.46999
G00 Z5.00000
G01 X-148.07000 Y-45.46999
G01 Z-1.00000 F150.00000
G01 F300.00000
G01 X-175.26000 Y-45.46999
G01 X-175.80430 Y-45.52358
G01 X-176.30457 Y-45.67410
G01 X-176.34984 Y-45.69285
G01 X-176.81003 Y-45.94019
G01 X-177.21463 Y-46.27067
G01 X-177.24928 Y-46.30532
G01 X-177.57976 Y-46.70991
G01 X-177.82710 Y-47.17011
G01 X-177.84585 Y-47.21537
G01 X-177.99637 Y-47.71565
G01 X-178.04999 Y-48.26000
G01 X-178.04999 Y-79.26000
G00 Z5.00000
G01 X-178.04999 Y-80.76000
G01 Z-1.00000 F150.00000
G01 F300.00000
G01 X-178.04999 Y-111.76000
G01 X-177.99997 Y-112.28001
G01 X-177.99040 Y-112.32810
G01 X-177.84585 Y-112.80457
G01 X-177.82710 Y-112.84984
G01 X-177.57976 Y-113.31003
G01 X-177.24928 Y-113.71463
G01 X-177.21463 Y-113.74928
G01 X-176.81003 Y-114.07976
G01 X-176.34984 Y-114.32710
G01 X-176.30457 Y-114.34585
G01 X-175.82810 Y-114.49040
G01 X-175.78001 Y-114.49997
G01 X-175.26000 Y-114.54999
G01 X-148.07000 Y-114.54999
G00 Z5.00000
G01 X-146.57000 Y-114.54999
G01 Z-1.00000 F150.00000
G01 F300.00000
G01 X-119.38000 Y-114.54999
G01 X-118.83565 Y-114.49637
G01 X-118.33537 Y-114.34585
G01 X-118.29011 Y-114.32710
G01 X-117.82991 Y-114.07976
G01 X-117.42532 Y-113.74928
G01 X-117.39067 Y-113.71463
G01 X-117.06019 Y-113.31003
G01 X-116.81285 Y-112.84984
G01 X-116.79410 Y-112.80457
G01 X-116.64358 Y-112.30430
G01 X-116.58999 Y-111.76000
G01 Z-1.50000 F150.00000 ( plunge. )
G04 P0 ( dwell for no time -- G64 should not smooth over this point )
G01 F300.00000
G01 X-116.58999 Y-80.76000
G00 Z5.00000
G01 X-116.58999 Y-79.26000
G01 Z-1.50000 F150.00000
G01 F300.00000
G01 X-116.58999 Y-48.26000
G01 X-116.64358 Y-47.71565
G01 X-116.79410 Y-47.21537
G01 X-116.81285 Y-47.17011
G01 X-117.06019 Y-46.70991
G01 X-117.39067 Y-46.30532
G01 X-117.42532 Y-46.27067
G01 X-117.82991 Y-45.94019
G01 X-118.29011 Y-45.69285
G01 X-118.33537 Y-45.67410
G01 X-118.83565 Y-45.52358
G01 X-119.38000 Y-45.46999
G01 X-146.57000 Y-45.46999
G00 Z5.00000
G01 X-148.07000 Y-45.46999
G01 Z-1.50000 F150.00000
G01 F300.00000
G01 X-175.26000 Y-45.46999
G01 X-175.80430 Y-45.52358
G01 X-176.30457 Y-45.67410
G01 X-176.34984 Y-45.69285
G01 X-176.81003 Y-45.94019
G01 X-177.21463 Y-46.27067
G01 X-177.24928 Y-46.30532
G01 X-177.57976 Y-46.70991
G01 X-177.82710 Y-47.17011
G01 X-177.84585 Y-47.21537
G01 X-177.99637 Y-47.71565
G01 X-178.04999 Y-48.26000
G01 X-178.04999 Y-79.26000
G00 Z5.00000
G01 X-178.04999 Y-80.76000
G01 Z-1.50000 F150.00000
G01 F300.00000
G01 X-178.04999 Y-111.76000
G01 X-177.99997 Y-112.28001
G01 X-177.99040 Y-112.32810
G01 X-177.84585 Y-112.80457
G01 X-177.82710 Y-112.84984
G01 X-177.57976 Y-113.31003
G01 X-177.24928 Y-113.71463
G01 X-177.21463 Y-113.74928
G01 X-176.81003 Y-114.07976
G01 X-176.34984 Y-114.32710
G01 X-176.30457 Y-114.34585
G01 X-175.82810 Y-114.49040
G01 X-175.78001 Y-114.49997
G01 X-175.26000 Y-114.54999
G01 X-148.07000 Y-114.54999
G00 Z5.00000
G01 X-146.57000 Y-114.54999
G01 Z-1.50000 F150.00000
G01 F300.00000
G01 X-119.38000 Y-114.54999
G01 X-118.83565 Y-114.49637
G01 X-118.33537 Y-114.34585
G01 X-118.29011 Y-114.32710
G01 X-117.82991 Y-114.07976
G01 X-117.42532 Y-113.74928
G01 X-117.39067 Y-113.71463
G01 X-117.06019 Y-113.31003
G01 X-116.81285 Y-112.84984
G01 X-116.79410 Y-112.80457
G01 X-116.64358 Y-112.30430
G01 X-116.58999 Y-111.76000
G01 Z-2.00000 F150.00000 ( plunge. )
G04 P0 ( dwell for no time -- G64 should not smooth over this point )
G01 F300.00000
G01 X-116.58999 Y-80.76000
G00 Z5.00000
G01 X-116.58999 Y-79.26000
G01 Z-2.00000 F150.00000
G01 F300.00000
G01 X-116.58999 Y-48.26000
G01 X-116.64358 Y-47.71565
G01 X-116.79410 Y-47.21537
G01 X-116.81285 Y-47.17011
G01 X-117.06019 Y-46.70991
G01 X-117.39067 Y-46.30532
G01 X-117.42532 Y-46.27067
G01 X-117.82991 Y-45.94019
G01 X-118.29011 Y-45.69285
G01 X-118.33537 Y-45.67410
G01 X-118.83565 Y-45.52358
G01 X-119.38000 Y-45.46999
G01 X-146.57000 Y-45.46999
G00 Z5.00000
G01 X-148.07000 Y-45.46999
G01 Z-2.00000 F150.00000
G01 F300.00000
G01 X-175.26000 Y-45.46999
G01 X-175.80430 Y-45.52358
G01 X-176.30457 Y-45.67410
G01 X-176.34984 Y-45.69285
G01 X-176.81003 Y-45.94019
G01 X-177.21463 Y-46.27067
G01 X-177.24928 Y-46.30532
G01 X-177.57976 Y-46.70991
G01 X-177.82710 Y-47.17011
G01 X-177.84585 Y-47.21537
G01 X-177.99637 Y-47.71565
G01 X-178.04999 Y-48.26000
G01 X-178.04999 Y-79.26000
G00 Z5.00000
G01 X-178.04999 Y-80.76000
G01 Z-2.00000 F150.00000
G01 F300.00000
G01 X-178.04999 Y-111.76000
G01 X-177.99997 Y-112.28001
G01 X-177.99040 Y-112.32810
G01 X-177.84585 Y-112.80457
G01 X-177.82710 Y-112.84984
G01 X-177.57976 Y-113.31003
G01 X-177.24928 Y-113.71463
G01 X-177.21463 Y-113.74928
G01 X-176.81003 Y-114.07976
G01 X-176.34984 Y-114.32710
G01 X-176.30457 Y-114.34585
G01 X-175.82810 Y-114.49040
G01 X-175.78001 Y-114.49997
G01 X-175.26000 Y-114.54999
G01 X-148.07000 Y-114.54999
G00 Z5.00000
G01 X-146.57000 Y-114.54999
G01 Z-2.00000 F150.00000
G01 F300.00000
G01 X-119.38000 Y-114.54999
G01 X-118.83565 Y-114.49637
G01 X-118.33537 Y-114.34585
G01 X-118.29011 Y-114.32710
G01 X-117.82991 Y-114.07976
G01 X-117.42532 Y-113.74928
G01 X-117.39067 Y-113.71463
G01 X-117.06019 Y-113.31003
G01 X-116.81285 Y-112.84984
G01 X-116.79410 Y-112.80457
G01 X-116.64358 Y-112.30430
G01 X-116.58999 Y-111.76000

G04 P0 ( dwell for no time -- G64 should not smooth over this point )
G00 Z25.000000 ( retract )

M5 ( Spindle off. )
G04 P1.000000
M9 ( Coolant off. )
M2 ( Program end. )

