( pcb2gcode 2.1.0 )
( Software-independent Gcode )

G94 ( Millimeters per minute feed rate. )
G21 ( Units == Millimeters. )

G90 ( Absolute coordinates. )
G00 S15000 ( RPM spindle speed. )
G01 F600.00000 ( Feedrate. )


G00 Z25.00000 (Retract to tool change height)
T0
M5      (Spindle stop.)
G04 P1.00000 (Wait for spindle to stop)
(MSG, Change tool bit to mill diameter 0.50000mm)
M6      (Tool change.)
M0      (Temporary machine stop.)
M3 ( Spindle on clockwise. )
G04 P1.00000 (Wait for spindle to get up to speed)
G04 P0 ( dwell for no time -- G64 should not smooth over this point )
G00 Z5.00000 ( retract )

G00 X34.47374 Y5.07997 ( rapid move to begin. )
G01 F300.00000
( Mill infeed pass 1/1 )
G01 Z-0.05000
G04 P0 ( dwell for no time -- G64 should not smooth over this point )
G01 F600.00000
G01 X34.47374 Y5.07997
G01 X38.17638 Y5.07997
G01 X38.06477 Y5.29247
G01 X37.99914 Y5.46349
G01 X37.94422 Y5.63248
G01 X37.89680 Y5.80941
G01 X37.86815 Y5.99034
G01 X37.84958 Y6.16707
G01 X37.83998 Y6.35000
G01 X37.84958 Y6.53291
G01 X37.86815 Y6.70964
G01 X37.89680 Y6.89056
G01 X37.94422 Y7.06750
G01 X37.99914 Y7.23649
G01 X38.06477 Y7.40750
G01 X38.17638 Y7.61997
G01 X38.06477 Y7.83247
G01 X37.99914 Y8.00349
G01 X37.94422 Y8.17248
G01 X37.89680 Y8.34941
G01 X37.86815 Y8.53034
G01 X37.84958 Y8.70707
G01 X37.83998 Y8.89000
G01 X37.84958 Y9.07291
G01 X37.86815 Y9.24964
G01 X37.89680 Y9.43056
G01 X37.94422 Y9.60750
G01 X37.99914 Y9.77649
G01 X38.06477 Y9.94750
G01 X38.17638 Y10.15997
G01 X38.06477 Y10.37247
G01 X37.99914 Y10.54349
G01 X37.94422 Y10.71248
G01 X37.89680 Y10.88941
G01 X37.86815 Y11.07034
G01 X37.84958 Y11.24707
G01 X37.83998 Y11.43000
G01 X37.84958 Y11.61291
G01 X37.86815 Y11.78964
G01 X37.89680 Y11.97056
G01 X37.94422 Y12.14750
G01 X37.99914 Y12.31649
G01 X38.06477 Y12.48750
G01 X38.17638 Y12.69992
G01 X38.06477 Y12.91245
G01 X37.99914 Y13.08346
G01 X37.94422 Y13.25245
G01 X37.89680 Y13.42941
G01 X37.86815 Y13.61034
G01 X37.84958 Y13.78707
G01 X37.83998 Y13.97000
G01 X37.84958 Y14.15291
G01 X37.86815 Y14.32964
G01 X37.89680 Y14.51056
G01 X37.94422 Y14.68750
G01 X37.99914 Y14.85649
G01 X38.06477 Y15.02750
G01 X38.17638 Y15.23997
G01 X38.06477 Y15.45247
G01 X37.99914 Y15.62349
G01 X37.94422 Y15.79248
G01 X37.89680 Y15.96941
G01 X37.86815 Y16.15034
G01 X37.84958 Y16.32707
G01 X37.83998 Y16.51000
G01 X37.84958 Y16.69291
G01 X37.86815 Y16.86964
G01 X37.89680 Y17.05056
G01 X37.94422 Y17.22750
G01 X37.99914 Y17.39649
G01 X38.06477 Y17.56750
G01 X38.17638 Y17.77997
G01 X38.06477 Y17.99247
G01 X37.99914 Y18.16349
G01 X37.94422 Y18.33248
G01 X37.89680 Y18.50941
G01 X37.86815 Y18.69034
G01 X37.84958 Y18.86707
G01 X37.83998 Y19.05000
G01 X37.84958 Y19.23291
G01 X37.86815 Y19.40964
G01 X37.89680 Y19.59056
G01 X37.94422 Y19.76750
G01 X37.99914 Y19.93649
G01 X38.06477 Y20.10750
G01 X38.17638 Y20.31997
G01 X38.06477 Y20.53247
G01 X37.99914 Y20.70349
G01 X37.94422 Y20.87248
G01 X37.89680 Y21.04941
G01 X37.86815 Y21.23034
G01 X37.84958 Y21.40707
G01 X37.83998 Y21.59000
G01 X37.84958 Y21.77291
G01 X37.86815 Y21.94964
G01 X37.89680 Y22.13056
G01 X37.94422 Y22.30750
G01 X37.99914 Y22.47649
G01 X38.06477 Y22.64750
G01 X38.17638 Y22.85997
G01 X38.06477 Y23.07247
G01 X37.99914 Y23.24349
G01 X37.94422 Y23.41248
G01 X37.89680 Y23.58941
G01 X37.86815 Y23.77034
G01 X37.84958 Y23.94707
G01 X37.83998 Y24.13000
G01 X37.84958 Y24.31291
G01 X37.86815 Y24.48964
G01 X37.89680 Y24.67056
G01 X37.94422 Y24.84750
G01 X37.99914 Y25.01649
G01 X38.06477 Y25.18750
G01 X38.17638 Y25.39997
G01 X38.06477 Y25.61247
G01 X37.99914 Y25.78349
G01 X37.94422 Y25.95248
G01 X37.89680 Y26.12941
G01 X37.86815 Y26.31034
G01 X37.84958 Y26.48704
G01 X37.83998 Y26.67000
G01 X37.84958 Y26.85291
G01 X37.86815 Y27.02964
G01 X37.89680 Y27.21056
G01 X37.94422 Y27.38750
G01 X37.99914 Y27.55649
G01 X38.06477 Y27.72750
G01 X38.17638 Y27.93997
G01 X38.06477 Y28.15247
G01 X37.99914 Y28.32349
G01 X37.94422 Y28.49248
G01 X37.89680 Y28.66941
G01 X37.86815 Y28.85034
G01 X37.84958 Y29.02707
G01 X37.83998 Y29.21000
G01 X37.84958 Y29.39291
G01 X37.86815 Y29.56964
G01 X37.89680 Y29.75056
G01 X37.94422 Y29.92750
G01 X37.99914 Y30.09649
G01 X38.06477 Y30.26750
G01 X38.17638 Y30.47997
G01 X38.06477 Y30.69247
G01 X37.99914 Y30.86349
G01 X37.94422 Y31.03248
G01 X37.89680 Y31.20941
G01 X37.86815 Y31.39034
G01 X37.84958 Y31.56707
G01 X37.83998 Y31.75000
G01 X37.84958 Y31.93291
G01 X37.86815 Y32.10964
G01 X37.89680 Y32.29056
G01 X37.94422 Y32.46750
G01 X37.99914 Y32.63649
G01 X38.06477 Y32.80750
G01 X38.17638 Y33.01997
G01 X38.06477 Y33.23247
G01 X37.99914 Y33.40349
G01 X37.94422 Y33.57248
G01 X37.89680 Y33.74941
G01 X37.86815 Y33.93034
G01 X37.84958 Y34.10707
G01 X37.83998 Y34.29000
G01 X37.84958 Y34.47291
G01 X37.86815 Y34.64964
G01 X37.89680 Y34.83056
G01 X37.94422 Y35.00750
G01 X37.99914 Y35.17649
G01 X38.06477 Y35.34750
G01 X38.17638 Y35.55997
G01 X38.06477 Y35.77247
G01 X37.99914 Y35.94349
G01 X37.94422 Y36.11248
G01 X37.89680 Y36.28941
G01 X37.86815 Y36.47034
G01 X37.84958 Y36.64707
G01 X37.83998 Y36.83000
G01 X37.84958 Y37.01291
G01 X37.86815 Y37.18964
G01 X37.89680 Y37.37056
G01 X37.94422 Y37.54750
G01 X37.99914 Y37.71649
G01 X38.06477 Y37.88750
G01 X38.17638 Y38.09997
G01 X38.06477 Y38.31247
G01 X37.99914 Y38.48349
G01 X37.94422 Y38.65248
G01 X37.89680 Y38.82941
G01 X37.86815 Y39.01034
G01 X37.84958 Y39.18707
G01 X37.83998 Y39.37000
G01 X37.84958 Y39.55291
G01 X37.86815 Y39.72964
G01 X37.89680 Y39.91056
G01 X37.94422 Y40.08750
G01 X37.99914 Y40.25649
G01 X38.06477 Y40.42750
G01 X38.17638 Y40.63997
G01 X38.06477 Y40.85247
G01 X37.99914 Y41.02349
G01 X37.94422 Y41.19248
G01 X37.89680 Y41.36941
G01 X37.86815 Y41.55034
G01 X37.84958 Y41.72707
G01 X37.83998 Y41.91000
G01 X37.84958 Y42.09291
G01 X37.86815 Y42.26964
G01 X37.89680 Y42.45056
G01 X37.94422 Y42.62750
G01 X37.99914 Y42.79649
G01 X38.06477 Y42.96750
G01 X38.17638 Y43.17997
G01 X38.06477 Y43.39247
G01 X37.99914 Y43.56349
G01 X37.94422 Y43.73248
G01 X37.89680 Y43.90941
G01 X37.86815 Y44.09034
G01 X37.84958 Y44.26707
G01 X37.83998 Y44.45000
G01 X37.84958 Y44.63291
G01 X37.86815 Y44.80964
G01 X37.89680 Y44.99056
G01 X37.94422 Y45.16750
G01 X37.99914 Y45.33649
G01 X38.06477 Y45.50750
G01 X38.17638 Y45.71997
G01 X38.06477 Y45.93247
G01 X37.99914 Y46.10349
G01 X37.94422 Y46.27248
G01 X37.89680 Y46.44941
G01 X37.86815 Y46.63034
G01 X37.84958 Y46.80707
G01 X37.83998 Y46.99000
G01 X37.84958 Y47.17291
G01 X37.86815 Y47.34964
G01 X37.89680 Y47.53056
G01 X37.94422 Y47.70750
G01 X37.99914 Y47.87649
G01 X38.06477 Y48.04750
G01 X38.17638 Y48.25997
G01 X38.06477 Y48.47247
G01 X37.99914 Y48.64349
G01 X37.94422 Y48.81248
G01 X37.89680 Y48.98941
G01 X37.86815 Y49.17034
G01 X37.84958 Y49.34707
G01 X37.83998 Y49.53000
G01 X37.84958 Y49.71291
G01 X37.86815 Y49.88964
G01 X37.89680 Y50.07056
G01 X37.94422 Y50.24750
G01 X38.01575 Y50.45977
G01 X38.57564 Y50.49025
G01 X38.28887 Y50.47460
G01 X38.23688 Y50.33924
G01 X38.18197 Y50.17023
G01 X38.14135 Y50.01857
G01 X38.11679 Y49.86350
G01 X38.09820 Y49.68677
G01 X38.08999 Y49.53000
G01 X38.09820 Y49.37321
G01 X38.11679 Y49.19647
G01 X38.14135 Y49.04141
G01 X38.18197 Y48.88974
G01 X38.23688 Y48.72073
G01 X38.29317 Y48.57415
G01 X38.36444 Y48.43427
G01 X38.46652 Y48.25997
G01 X38.36444 Y48.08571
G01 X38.29317 Y47.94583
G01 X38.23688 Y47.79924
G01 X38.18197 Y47.63023
G01 X38.14135 Y47.47857
G01 X38.11679 Y47.32350
G01 X38.09820 Y47.14677
G01 X38.08999 Y46.99000
G01 X38.09820 Y46.83321
G01 X38.11679 Y46.65647
G01 X38.14135 Y46.50141
G01 X38.18197 Y46.34974
G01 X38.23688 Y46.18073
G01 X38.29317 Y46.03415
G01 X38.36444 Y45.89427
G01 X38.46652 Y45.71997
G01 X38.36444 Y45.54571
G01 X38.29317 Y45.40583
G01 X38.23688 Y45.25924
G01 X38.18197 Y45.09023
G01 X38.14135 Y44.93857
G01 X38.11679 Y44.78350
G01 X38.09820 Y44.60677
G01 X38.08999 Y44.45000
G01 X38.09820 Y44.29321
G01 X38.11679 Y44.11647
G01 X38.14135 Y43.96141
G01 X38.18197 Y43.80974
G01 X38.23688 Y43.64073
G01 X38.29317 Y43.49415
G01 X38.36444 Y43.35427
G01 X38.46652 Y43.17997
G01 X38.36444 Y43.00571
G01 X38.29317 Y42.86583
G01 X38.23688 Y42.71924
G01 X38.18197 Y42.55023
G01 X38.14135 Y42.39857
G01 X38.11679 Y42.24350
G01 X38.09820 Y42.06677
G01 X38.08999 Y41.91000
G01 X38.09820 Y41.75321
G01 X38.11679 Y41.57647
G01 X38.14135 Y41.42141
G01 X38.18197 Y41.26974
G01 X38.23688 Y41.10073
G01 X38.29317 Y40.95415
G01 X38.36444 Y40.81427
G01 X38.46652 Y40.63997
G01 X38.36444 Y40.46571
G01 X38.29317 Y40.32583
G01 X38.23688 Y40.17924
G01 X38.18197 Y40.01023
G01 X38.14135 Y39.85857
G01 X38.11679 Y39.70350
G01 X38.09820 Y39.52677
G01 X38.08999 Y39.37000
G01 X38.09820 Y39.21321
G01 X38.11679 Y39.03647
G01 X38.14135 Y38.88141
G01 X38.18197 Y38.72974
G01 X38.23688 Y38.56073
G01 X38.29317 Y38.41415
G01 X38.36444 Y38.27427
G01 X38.46652 Y38.09997
G01 X38.36444 Y37.92571
G01 X38.29317 Y37.78583
G01 X38.23688 Y37.63924
G01 X38.18197 Y37.47023
G01 X38.14135 Y37.31857
G01 X38.11679 Y37.16350
G01 X38.09820 Y36.98677
G01 X38.08999 Y36.83000
G01 X38.09820 Y36.67321
G01 X38.11679 Y36.49647
G01 X38.14135 Y36.34141
G01 X38.18197 Y36.18974
G01 X38.23688 Y36.02073
G01 X38.29317 Y35.87415
G01 X38.36444 Y35.73427
G01 X38.46652 Y35.55997
G01 X38.36444 Y35.38571
G01 X38.29317 Y35.24583
G01 X38.23688 Y35.09924
G01 X38.18197 Y34.93023
G01 X38.14135 Y34.77857
G01 X38.11679 Y34.62350
G01 X38.09820 Y34.44677
G01 X38.08999 Y34.29000
G01 X38.09820 Y34.13321
G01 X38.11679 Y33.95647
G01 X38.14135 Y33.80141
G01 X38.18197 Y33.64974
G01 X38.23688 Y33.48073
G01 X38.29317 Y33.33415
G01 X38.36444 Y33.19427
G01 X38.46652 Y33.01997
G01 X38.36444 Y32.84571
G01 X38.29317 Y32.70583
G01 X38.23688 Y32.55924
G01 X38.18197 Y32.39023
G01 X38.14135 Y32.23857
G01 X38.11679 Y32.08350
G01 X38.09820 Y31.90677
G01 X38.08999 Y31.75000
G01 X38.09820 Y31.59321
G01 X38.11679 Y31.41647
G01 X38.14135 Y31.26141
G01 X38.18197 Y31.10974
G01 X38.23688 Y30.94073
G01 X38.29317 Y30.79415
G01 X38.36444 Y30.65427
G01 X38.46652 Y30.47997
G01 X38.36444 Y30.30571
G01 X38.29317 Y30.16583
G01 X38.23688 Y30.01924
G01 X38.18197 Y29.85023
G01 X38.14135 Y29.69857
G01 X38.11679 Y29.54350
G01 X38.09820 Y29.36677
G01 X38.08999 Y29.21000
G01 X38.09820 Y29.05321
G01 X38.11679 Y28.87647
G01 X38.14135 Y28.72141
G01 X38.18197 Y28.56974
G01 X38.23688 Y28.40073
G01 X38.29317 Y28.25415
G01 X38.36444 Y28.11427
G01 X38.46652 Y27.93997
G01 X38.36444 Y27.76571
G01 X38.29317 Y27.62583
G01 X38.23688 Y27.47924
G01 X38.18197 Y27.31023
G01 X38.14135 Y27.15857
G01 X38.11679 Y27.00350
G01 X38.09820 Y26.82677
G01 X38.08999 Y26.67000
G01 X38.09820 Y26.51321
G01 X38.11679 Y26.33647
G01 X38.14135 Y26.18141
G01 X38.18197 Y26.02974
G01 X38.23688 Y25.86071
G01 X38.29317 Y25.71412
G01 X38.36444 Y25.57427
G01 X38.46652 Y25.39997
G01 X38.36444 Y25.22571
G01 X38.29317 Y25.08583
G01 X38.23688 Y24.93924
G01 X38.18197 Y24.77023
G01 X38.14135 Y24.61857
G01 X38.11679 Y24.46350
G01 X38.09820 Y24.28677
G01 X38.08999 Y24.13000
G01 X38.09820 Y23.97321
G01 X38.11679 Y23.79647
G01 X38.14135 Y23.64141
G01 X38.18197 Y23.48974
G01 X38.23688 Y23.32073
G01 X38.29317 Y23.17415
G01 X38.36444 Y23.03427
G01 X38.46652 Y22.85997
G01 X38.36444 Y22.68571
G01 X38.29317 Y22.54583
G01 X38.23688 Y22.39924
G01 X38.18197 Y22.23023
G01 X38.14135 Y22.07857
G01 X38.11679 Y21.92350
G01 X38.09820 Y21.74677
G01 X38.08999 Y21.59000
G01 X38.09820 Y21.43321
G01 X38.11679 Y21.25647
G01 X38.14135 Y21.10141
G01 X38.18197 Y20.94974
G01 X38.23688 Y20.78073
G01 X38.29317 Y20.63415
G01 X38.36444 Y20.49427
G01 X38.46652 Y20.31997
G01 X38.36444 Y20.14571
G01 X38.29317 Y20.00583
G01 X38.23688 Y19.85924
G01 X38.18197 Y19.69023
G01 X38.14135 Y19.53857
G01 X38.11679 Y19.38350
G01 X38.09820 Y19.20677
G01 X38.08999 Y19.05000
G01 X38.09820 Y18.89321
G01 X38.11679 Y18.71647
G01 X38.14135 Y18.56141
G01 X38.18197 Y18.40974
G01 X38.23688 Y18.24073
G01 X38.29317 Y18.09415
G01 X38.36444 Y17.95427
G01 X38.46652 Y17.77997
G01 X38.36444 Y17.60571
G01 X38.29317 Y17.46583
G01 X38.23688 Y17.31924
G01 X38.18197 Y17.15023
G01 X38.14135 Y16.99857
G01 X38.11679 Y16.84350
G01 X38.09820 Y16.66677
G01 X38.08999 Y16.51000
G01 X38.09820 Y16.35321
G01 X38.11679 Y16.17647
G01 X38.14135 Y16.02141
G01 X38.18197 Y15.86974
G01 X38.23688 Y15.70073
G01 X38.29317 Y15.55415
G01 X38.36444 Y15.41427
G01 X38.46652 Y15.23997
G01 X38.36444 Y15.06571
G01 X38.29317 Y14.92583
G01 X38.23688 Y14.77924
G01 X38.18197 Y14.61023
G01 X38.14135 Y14.45857
G01 X38.11679 Y14.30350
G01 X38.09820 Y14.12677
G01 X38.08999 Y13.97000
G01 X38.09820 Y13.81321
G01 X38.11679 Y13.63647
G01 X38.14135 Y13.48141
G01 X38.18197 Y13.32974
G01 X38.23688 Y13.16073
G01 X38.29317 Y13.01415
G01 X38.36444 Y12.87427
G01 X38.46652 Y12.69997
G01 X39.10033 Y12.69992
G01 X39.00917 Y12.59873
G01 X38.94331 Y12.51740
G01 X38.88631 Y12.42962
G01 X38.79746 Y12.27572
G01 X38.74994 Y12.18245
G01 X38.71242 Y12.08474
G01 X38.65750 Y11.91572
G01 X38.63040 Y11.81463
G01 X38.61405 Y11.71123
G01 X38.59548 Y11.53452
G01 X38.58999 Y11.43000
G01 X38.59548 Y11.32545
G01 X38.61405 Y11.14875
G01 X38.63040 Y11.04534
G01 X38.65750 Y10.94425
G01 X38.71242 Y10.77524
G01 X38.74994 Y10.67752
G01 X38.79746 Y10.58426
G01 X38.88631 Y10.43036
G01 X38.94331 Y10.34258
G01 X39.00917 Y10.26124
G01 X39.10035 Y10.15997
G01 X39.00917 Y10.05873
G01 X38.94331 Y9.97740
G01 X38.88631 Y9.88962
G01 X38.79746 Y9.73572
G01 X38.74994 Y9.64245
G01 X38.71242 Y9.54474
G01 X38.65750 Y9.37572
G01 X38.63040 Y9.27463
G01 X38.61405 Y9.17123
G01 X38.59548 Y8.99452
G01 X38.58999 Y8.89000
G01 X38.59548 Y8.78545
G01 X38.61405 Y8.60875
G01 X38.63040 Y8.50534
G01 X38.65750 Y8.40425
G01 X38.71242 Y8.23524
G01 X38.74994 Y8.13753
G01 X38.79746 Y8.04426
G01 X38.88631 Y7.89036
G01 X38.94331 Y7.80258
G01 X39.00917 Y7.72124
G01 X39.10035 Y7.61997
G01 X39.00917 Y7.51873
G01 X38.94331 Y7.43740
G01 X38.88631 Y7.34962
G01 X38.79746 Y7.19572
G01 X38.74994 Y7.10245
G01 X38.71242 Y7.00474
G01 X38.65750 Y6.83572
G01 X38.63040 Y6.73463
G01 X38.61405 Y6.63123
G01 X38.59548 Y6.45450
G01 X38.58999 Y6.35000
G01 X38.59548 Y6.24545
G01 X38.61405 Y6.06875
G01 X38.63040 Y5.96534
G01 X38.65750 Y5.86425
G01 X38.71242 Y5.69524
G01 X38.74994 Y5.59752
G01 X38.79746 Y5.50426
G01 X38.88631 Y5.35036
G01 X38.94331 Y5.26258
G01 X39.00917 Y5.18124
G01 X39.10035 Y5.07997
G01 X39.00917 Y4.97873
G01 X38.94331 Y4.89740
G01 X38.88631 Y4.80962
G01 X38.79746 Y4.65572
G01 X38.74994 Y4.56245
G01 X38.71242 Y4.46474
G01 X38.65750 Y4.29572
G01 X38.63040 Y4.19463
G01 X38.61405 Y4.09123
G01 X38.59548 Y3.91452
G01 X38.58999 Y3.81000
G01 X38.59548 Y3.70545
G01 X38.61405 Y3.52875
G01 X38.63040 Y3.42534
G01 X38.65750 Y3.32422
G01 X38.71242 Y3.15524
G01 X38.74994 Y3.05752
G01 X38.79746 Y2.96426
G01 X38.88631 Y2.81036
G01 X38.94331 Y2.72258
G01 X39.00917 Y2.64124
G01 X39.12809 Y2.50919
G01 X39.20211 Y2.43517
G01 X39.28344 Y2.36929
G01 X39.42720 Y2.26484
G01 X39.51498 Y2.20784
G01 X39.60825 Y2.16032
G01 X39.77058 Y2.08803
G01 X39.86830 Y2.05054
G01 X39.96941 Y2.02344
G01 X40.14323 Y1.98651
G01 X40.24660 Y1.97013
G01 X40.35113 Y1.96464
G01 X40.52882 Y1.96464
G01 X40.63337 Y1.97013
G01 X40.73675 Y1.98651
G01 X40.91056 Y2.02344
G01 X41.01168 Y2.05054
G01 X41.10939 Y2.08803
G01 X41.27172 Y2.16032
G01 X41.36499 Y2.20784
G01 X41.45277 Y2.26484
G01 X41.59654 Y2.36929
G01 X41.67787 Y2.43517
G01 X41.75188 Y2.50919
G01 X41.87081 Y2.64124
G01 X41.93667 Y2.72258
G01 X41.99367 Y2.81036
G01 X42.08252 Y2.96426
G01 X42.13004 Y3.05752
G01 X42.16756 Y3.15524
G01 X42.22247 Y3.32422
G01 X42.24957 Y3.42534
G01 X42.26593 Y3.52875
G01 X42.28450 Y3.70545
G01 X42.28998 Y3.81000
G01 X42.28450 Y3.91452
G01 X42.26593 Y4.09123
G01 X42.24957 Y4.19463
G01 X42.22247 Y4.29572
G01 X42.16756 Y4.46474
G01 X42.13004 Y4.56245
G01 X42.08252 Y4.65572
G01 X41.99367 Y4.80962
G01 X41.93667 Y4.89740
G01 X41.87081 Y4.97873
G01 X41.77965 Y5.07997
G01 X41.87081 Y5.18124
G01 X41.93667 Y5.26258
G01 X41.99367 Y5.35036
G01 X42.08252 Y5.50426
G01 X42.13004 Y5.59752
G01 X42.16756 Y5.69524
G01 X42.22247 Y5.86425
G01 X42.24957 Y5.96534
G01 X42.26593 Y6.06875
G01 X42.28450 Y6.24545
G01 X42.28998 Y6.35000
G01 X42.28450 Y6.45450
G01 X42.26593 Y6.63123
G01 X42.24957 Y6.73463
G01 X42.22247 Y6.83572
G01 X42.16756 Y7.00474
G01 X42.13004 Y7.10245
G01 X42.08252 Y7.19572
G01 X41.99367 Y7.34962
G01 X41.93667 Y7.43740
G01 X41.87081 Y7.51873
G01 X41.77965 Y7.61997
G01 X41.87081 Y7.72124
G01 X41.93667 Y7.80258
G01 X41.99367 Y7.89036
G01 X42.08252 Y8.04426
G01 X42.13004 Y8.13753
G01 X42.16756 Y8.23524
G01 X42.22247 Y8.40425
G01 X42.24957 Y8.50534
G01 X42.26593 Y8.60875
G01 X42.28450 Y8.78545
G01 X42.28998 Y8.89000
G01 X42.28450 Y8.99452
G01 X42.26593 Y9.17123
G01 X42.24957 Y9.27463
G01 X42.22247 Y9.37572
G01 X42.16756 Y9.54474
G01 X42.13004 Y9.64245
G01 X42.08252 Y9.73572
G01 X41.96903 Y9.92756
G01 X41.81373 Y10.00737
G01 X41.96428 Y9.92998
G01 X52.06997 Y9.92998
G01 X52.26550 Y9.94440
G01 X52.45778 Y9.98266
G01 X52.55158 Y10.01111
G01 X52.73271 Y10.08614
G01 X52.81915 Y10.13234
G01 X52.98211 Y10.24123
G01 X53.13060 Y10.36932
G01 X60.75065 Y17.98932
G01 X60.85489 Y18.10664
G01 X60.94715 Y18.23359
G01 X60.98812 Y18.30050
G01 X61.05936 Y18.44030
G01 X61.08939 Y18.51279
G01 X61.13788 Y18.66204
G01 X61.15619 Y18.73832
G01 X61.18075 Y18.89331
G01 X61.19000 Y19.05000
G01 X61.19000 Y41.91000
G01 X61.17557 Y42.10555
G01 X61.13732 Y42.29781
G01 X61.10887 Y42.39161
G01 X61.03384 Y42.57274
G01 X60.93719 Y42.74335
G01 X60.81654 Y42.89793
G01 X60.75065 Y42.97065
G01 X56.94065 Y46.78065
G01 X56.79216 Y46.90872
G01 X56.62917 Y47.01764
G01 X56.45401 Y47.10580
G01 X56.26781 Y47.16732
G01 X56.07555 Y47.20557
G01 X55.88000 Y47.22000
G01 X46.99000 Y47.22000
G01 X46.79442 Y47.20557
G01 X46.69734 Y47.19117
G01 X46.50837 Y47.13887
G01 X46.41596 Y47.10580
G01 X46.24080 Y47.01764
G01 X46.07781 Y46.90872
G01 X45.92932 Y46.78065
G01 X44.65932 Y45.51065
G01 X44.53125 Y45.36216
G01 X44.42234 Y45.19917
G01 X44.33418 Y45.02401
G01 X44.30111 Y44.93161
G01 X44.24881 Y44.74263
G01 X44.23440 Y44.64555
G01 X44.21998 Y44.45000
G01 X44.21998 Y41.91000
G01 X44.23440 Y41.71442
G01 X44.24881 Y41.61734
G01 X44.30111 Y41.42837
G01 X44.33418 Y41.33596
G01 X44.42234 Y41.16080
G01 X44.53125 Y40.99781
G01 X44.65932 Y40.84932
G01 X45.92932 Y39.57932
G01 X46.07781 Y39.45125
G01 X46.24080 Y39.34234
G01 X46.41596 Y39.25418
G01 X46.50837 Y39.22111
G01 X46.69734 Y39.16881
G01 X46.74659 Y39.16152
G01 X46.79711 Y39.18367
G01 X46.74659 Y39.16152
G01 X46.70631 Y39.09962
G01 X46.61746 Y38.94572
G01 X46.56993 Y38.85245
G01 X46.53242 Y38.75474
G01 X46.47750 Y38.58572
G01 X46.45040 Y38.48463
G01 X46.43404 Y38.38123
G01 X46.41548 Y38.20452
G01 X46.40999 Y38.10000
G01 X46.41548 Y37.99545
G01 X46.43404 Y37.81875
G01 X46.45040 Y37.71534
G01 X46.47750 Y37.61425
G01 X46.53242 Y37.44524
G01 X46.56993 Y37.34752
G01 X46.61746 Y37.25426
G01 X46.70631 Y37.10036
G01 X46.76330 Y37.01258
G01 X46.82917 Y36.93124
G01 X46.92035 Y36.82997
G01 X46.82917 Y36.72873
G01 X46.76330 Y36.64740
G01 X46.70631 Y36.55962
G01 X46.61746 Y36.40572
G01 X46.56993 Y36.31245
G01 X46.53242 Y36.21474
G01 X46.47750 Y36.04572
G01 X46.45040 Y35.94463
G01 X46.43404 Y35.84123
G01 X46.41548 Y35.66452
G01 X46.40999 Y35.56000
G01 X46.41548 Y35.45545
G01 X46.43404 Y35.27875
G01 X46.45040 Y35.17534
G01 X46.47750 Y35.07425
G01 X46.53242 Y34.90524
G01 X46.56993 Y34.80752
G01 X46.61746 Y34.71426
G01 X46.73100 Y34.52236
G01 X46.88637 Y34.44291
G01 X46.73562 Y34.52000
G01 X43.18000 Y34.52000
G01 X42.98442 Y34.50557
G01 X42.88734 Y34.49117
G01 X42.69837 Y34.43887
G01 X42.60596 Y34.40580
G01 X42.51724 Y34.36384
G01 X42.43080 Y34.31764
G01 X42.28569 Y34.22068
G01 X42.28998 Y34.29000
G01 X42.28450 Y34.39452
G01 X42.26593 Y34.57123
G01 X42.24957 Y34.67463
G01 X42.22247 Y34.77572
G01 X42.16756 Y34.94474
G01 X42.13004 Y35.04245
G01 X42.08252 Y35.13572
G01 X41.99367 Y35.28962
G01 X41.93667 Y35.37740
G01 X41.87081 Y35.45873
G01 X41.77965 Y35.55997
G01 X41.87081 Y35.66124
G01 X41.93667 Y35.74258
G01 X41.99367 Y35.83036
G01 X42.08252 Y35.98426
G01 X42.13004 Y36.07752
G01 X42.16756 Y36.17524
G01 X42.22247 Y36.34425
G01 X42.24957 Y36.44534
G01 X42.26593 Y36.54875
G01 X42.28450 Y36.72545
G01 X42.28998 Y36.83000
G01 X42.28450 Y36.93452
G01 X42.26593 Y37.11123
G01 X42.24957 Y37.21463
G01 X42.22247 Y37.31572
G01 X42.16756 Y37.48474
G01 X42.13004 Y37.58245
G01 X42.08252 Y37.67572
G01 X41.99367 Y37.82962
G01 X41.93667 Y37.91740
G01 X41.87081 Y37.99873
G01 X41.77965 Y38.09997
G01 X41.87081 Y38.20124
G01 X41.93667 Y38.28258
G01 X41.99367 Y38.37036
G01 X42.08252 Y38.52426
G01 X42.13004 Y38.61753
G01 X42.16756 Y38.71524
G01 X42.22247 Y38.88425
G01 X42.24957 Y38.98534
G01 X42.26593 Y39.08875
G01 X42.28450 Y39.26545
G01 X42.28998 Y39.37000
G01 X42.28450 Y39.47452
G01 X42.26593 Y39.65123
G01 X42.24957 Y39.75463
G01 X42.22247 Y39.85572
G01 X42.16756 Y40.02474
G01 X42.13004 Y40.12245
G01 X42.08252 Y40.21572
G01 X41.99367 Y40.36962
G01 X41.93667 Y40.45740
G01 X41.87081 Y40.53873
G01 X41.77965 Y40.63997
G01 X41.87081 Y40.74124
G01 X41.93667 Y40.82258
G01 X41.99367 Y40.91036
G01 X42.08252 Y41.06426
G01 X42.13004 Y41.15752
G01 X42.16756 Y41.25524
G01 X42.22247 Y41.42425
G01 X42.24957 Y41.52534
G01 X42.26593 Y41.62875
G01 X42.28450 Y41.80545
G01 X42.28998 Y41.91000
G01 X42.28450 Y42.01452
G01 X42.26593 Y42.19123
G01 X42.24957 Y42.29463
G01 X42.22247 Y42.39572
G01 X42.16756 Y42.56474
G01 X42.13004 Y42.66245
G01 X42.08252 Y42.75572
G01 X41.99367 Y42.90962
G01 X41.93667 Y42.99740
G01 X41.87081 Y43.07873
G01 X41.77965 Y43.17997
G01 X41.87081 Y43.28124
G01 X41.93667 Y43.36258
G01 X41.99367 Y43.45036
G01 X42.08252 Y43.60426
G01 X42.13004 Y43.69752
G01 X42.16756 Y43.79524
G01 X42.22247 Y43.96425
G01 X42.24957 Y44.06534
G01 X42.26593 Y44.16875
G01 X42.28450 Y44.34545
G01 X42.28998 Y44.45000
G01 X42.28450 Y44.55452
G01 X42.26593 Y44.73123
G01 X42.24957 Y44.83463
G01 X42.22247 Y44.93572
G01 X42.16756 Y45.10474
G01 X42.13004 Y45.20245
G01 X42.08252 Y45.29572
G01 X41.99367 Y45.44962
G01 X41.93667 Y45.53740
G01 X41.87081 Y45.61873
G01 X41.77965 Y45.71997
G01 X41.87081 Y45.82124
G01 X41.93667 Y45.90258
G01 X41.99367 Y45.99036
G01 X42.08252 Y46.14426
G01 X42.13004 Y46.23752
G01 X42.16756 Y46.33524
G01 X42.22247 Y46.50425
G01 X42.24957 Y46.60534
G01 X42.26593 Y46.70875
G01 X42.28450 Y46.88545
G01 X42.28998 Y46.99000
G01 X42.28450 Y47.09452
G01 X42.26593 Y47.27123
G01 X42.24957 Y47.37463
G01 X42.22247 Y47.47572
G01 X42.16756 Y47.64474
G01 X42.13004 Y47.74245
G01 X42.08252 Y47.83572
G01 X41.99367 Y47.98962
G01 X41.93667 Y48.07740
G01 X41.87081 Y48.15873
G01 X41.77965 Y48.25997
G01 X41.87081 Y48.36124
G01 X41.93667 Y48.44258
G01 X41.99367 Y48.53036
G01 X42.08252 Y48.68426
G01 X42.13004 Y48.77752
G01 X42.16756 Y48.87524
G01 X42.22247 Y49.04425
G01 X42.24957 Y49.14534
G01 X42.26593 Y49.24875
G01 X42.28450 Y49.42545
G01 X42.28998 Y49.53000
G01 X42.28450 Y49.63452
G01 X42.26593 Y49.81123
G01 X42.24957 Y49.91463
G01 X42.22247 Y50.01572
G01 X42.16756 Y50.18474
G01 X42.13004 Y50.28245
G01 X42.08252 Y50.37572
G01 X42.00047 Y50.51783
G01 X42.12145 Y50.66441
G01 X42.21386 Y50.83731
G01 X42.27078 Y51.02489
G01 X42.28998 Y51.21999
G01 X42.28998 Y52.91999
G01 X42.27078 Y53.11508
G01 X42.21386 Y53.30266
G01 X42.12145 Y53.47556
G01 X41.99710 Y53.62710
G01 X41.84556 Y53.75145
G01 X41.67266 Y53.84386
G01 X41.48508 Y53.90078
G01 X41.28999 Y53.91998
G01 X39.58999 Y53.91998
G01 X39.39489 Y53.90078
G01 X39.20731 Y53.84386
G01 X39.03442 Y53.75145
G01 X38.88288 Y53.62710
G01 X38.75852 Y53.47556
G01 X38.66612 Y53.30266
G01 X38.60919 Y53.11508
G01 X38.58999 Y52.91999
G01 X38.58999 Y51.21999
G01 X38.60919 Y51.02489
G01 X38.66612 Y50.83731
G01 X38.75852 Y50.66441
G01 X38.87887 Y50.51778
G01 X38.90297 Y50.51971
G01 X38.87950 Y50.51783
G01 X38.79746 Y50.37572
G01 X38.74994 Y50.28245
G01 X38.71242 Y50.18474
G01 X38.65750 Y50.01572
G01 X38.63040 Y49.91463
G01 X38.61405 Y49.81123
G01 X38.59548 Y49.63452
G01 X38.58999 Y49.53000
G01 X38.59548 Y49.42545
G01 X38.61405 Y49.24875
G01 X38.63040 Y49.14534
G01 X38.65750 Y49.04425
G01 X38.71242 Y48.87524
G01 X38.74994 Y48.77752
G01 X38.79746 Y48.68426
G01 X38.88631 Y48.53036
G01 X38.94331 Y48.44258
G01 X39.00917 Y48.36124
G01 X39.10035 Y48.25997
G01 X39.00917 Y48.15873
G01 X38.94331 Y48.07740
G01 X38.88631 Y47.98962
G01 X38.79746 Y47.83572
G01 X38.74994 Y47.74245
G01 X38.71242 Y47.64474
G01 X38.65750 Y47.47572
G01 X38.63040 Y47.37463
G01 X38.61405 Y47.27123
G01 X38.59548 Y47.09452
G01 X38.58999 Y46.99000
G01 X38.59548 Y46.88545
G01 X38.61405 Y46.70875
G01 X38.63040 Y46.60534
G01 X38.65750 Y46.50425
G01 X38.71242 Y46.33524
G01 X38.74994 Y46.23752
G01 X38.79746 Y46.14426
G01 X38.88631 Y45.99036
G01 X38.94331 Y45.90258
G01 X39.00917 Y45.82124
G01 X39.10035 Y45.71997
G01 X39.00917 Y45.61873
G01 X38.94331 Y45.53740
G01 X38.88631 Y45.44962
G01 X38.79746 Y45.29572
G01 X38.74994 Y45.20245
G01 X38.71242 Y45.10474
G01 X38.65750 Y44.93572
G01 X38.63040 Y44.83463
G01 X38.61405 Y44.73123
G01 X38.59548 Y44.55452
G01 X38.58999 Y44.45000
G01 X38.59548 Y44.34545
G01 X38.61405 Y44.16875
G01 X38.63040 Y44.06534
G01 X38.65750 Y43.96425
G01 X38.71242 Y43.79524
G01 X38.74994 Y43.69752
G01 X38.79746 Y43.60426
G01 X38.88631 Y43.45036
G01 X38.94331 Y43.36258
G01 X39.00917 Y43.28124
G01 X39.10035 Y43.17997
G01 X39.00917 Y43.07873
G01 X38.94331 Y42.99740
G01 X38.88631 Y42.90962
G01 X38.79746 Y42.75572
G01 X38.74994 Y42.66245
G01 X38.71242 Y42.56474
G01 X38.65750 Y42.39572
G01 X38.63040 Y42.29463
G01 X38.61405 Y42.19123
G01 X38.59548 Y42.01452
G01 X38.58999 Y41.91000
G01 X38.59548 Y41.80545
G01 X38.61405 Y41.62875
G01 X38.63040 Y41.52534
G01 X38.65750 Y41.42425
G01 X38.71242 Y41.25524
G01 X38.74994 Y41.15752
G01 X38.79746 Y41.06426
G01 X38.88631 Y40.91036
G01 X38.94331 Y40.82258
G01 X39.00917 Y40.74124
G01 X39.10035 Y40.63997
G01 X39.00917 Y40.53873
G01 X38.94331 Y40.45740
G01 X38.88631 Y40.36962
G01 X38.79746 Y40.21572
G01 X38.74994 Y40.12245
G01 X38.71242 Y40.02474
G01 X38.65750 Y39.85572
G01 X38.63040 Y39.75463
G01 X38.61405 Y39.65123
G01 X38.59548 Y39.47452
G01 X38.58999 Y39.37000
G01 X38.59548 Y39.26545
G01 X38.61405 Y39.08875
G01 X38.63040 Y38.98534
G01 X38.65750 Y38.88425
G01 X38.71242 Y38.71524
G01 X38.74994 Y38.61753
G01 X38.79746 Y38.52426
G01 X38.88631 Y38.37036
G01 X38.94331 Y38.28258
G01 X39.00917 Y38.20124
G01 X39.10035 Y38.09997
G01 X39.00917 Y37.99873
G01 X38.94331 Y37.91740
G01 X38.88631 Y37.82962
G01 X38.79746 Y37.67572
G01 X38.74994 Y37.58245
G01 X38.71242 Y37.48474
G01 X38.65750 Y37.31572
G01 X38.63040 Y37.21463
G01 X38.61405 Y37.11123
G01 X38.59548 Y36.93452
G01 X38.58999 Y36.83000
G01 X38.59548 Y36.72545
G01 X38.61405 Y36.54875
G01 X38.63040 Y36.44534
G01 X38.65750 Y36.34425
G01 X38.71242 Y36.17524
G01 X38.74994 Y36.07752
G01 X38.79746 Y35.98426
G01 X38.88631 Y35.83036
G01 X38.94331 Y35.74258
G01 X39.00917 Y35.66124
G01 X39.10035 Y35.55997
G01 X39.00917 Y35.45873
G01 X38.94331 Y35.37740
G01 X38.88631 Y35.28962
G01 X38.79746 Y35.13572
G01 X38.74994 Y35.04245
G01 X38.71242 Y34.94474
G01 X38.65750 Y34.77572
G01 X38.63040 Y34.67463
G01 X38.61405 Y34.57123
G01 X38.59548 Y34.39452
G01 X38.58999 Y34.29000
G01 X38.59548 Y34.18545
G01 X38.61405 Y34.00875
G01 X38.63040 Y33.90534
G01 X38.65750 Y33.80425
G01 X38.71242 Y33.63524
G01 X38.74994 Y33.53753
G01 X38.79746 Y33.44426
G01 X38.88631 Y33.29036
G01 X38.94331 Y33.20258
G01 X39.00917 Y33.12124
G01 X39.10035 Y33.01997
G01 X39.00917 Y32.91873
G01 X38.94331 Y32.83740
G01 X38.88631 Y32.74962
G01 X38.79746 Y32.59572
G01 X38.74994 Y32.50245
G01 X38.71242 Y32.40474
G01 X38.65750 Y32.23572
G01 X38.63040 Y32.13463
G01 X38.61405 Y32.03123
G01 X38.59548 Y31.85452
G01 X38.58999 Y31.75000
G01 X38.59548 Y31.64545
G01 X38.61405 Y31.46875
G01 X38.63040 Y31.36534
G01 X38.65750 Y31.26425
G01 X38.71242 Y31.09524
G01 X38.74994 Y30.99752
G01 X38.79746 Y30.90426
G01 X38.88631 Y30.75036
G01 X38.94331 Y30.66258
G01 X39.00917 Y30.58124
G01 X39.10035 Y30.47997
G01 X39.00917 Y30.37873
G01 X38.94331 Y30.29740
G01 X38.88631 Y30.20962
G01 X38.79746 Y30.05572
G01 X38.74994 Y29.96245
G01 X38.71242 Y29.86474
G01 X38.65750 Y29.69572
G01 X38.63040 Y29.59463
G01 X38.61405 Y29.49123
G01 X38.59548 Y29.31452
G01 X38.58999 Y29.21000
G01 X38.59548 Y29.10545
G01 X38.61405 Y28.92875
G01 X38.63040 Y28.82534
G01 X38.65750 Y28.72425
G01 X38.71242 Y28.55524
G01 X38.74994 Y28.45752
G01 X38.79746 Y28.36426
G01 X38.88631 Y28.21036
G01 X38.94331 Y28.12258
G01 X39.00917 Y28.04124
G01 X39.10035 Y27.93997
G01 X39.00917 Y27.83873
G01 X38.94331 Y27.75740
G01 X38.88631 Y27.66962
G01 X38.79746 Y27.51572
G01 X38.74994 Y27.42245
G01 X38.71242 Y27.32474
G01 X38.65750 Y27.15572
G01 X38.63040 Y27.05463
G01 X38.61405 Y26.95123
G01 X38.59548 Y26.77452
G01 X38.58999 Y26.67000
G01 X38.59548 Y26.56545
G01 X38.61405 Y26.38872
G01 X38.63040 Y26.28534
G01 X38.65750 Y26.18422
G01 X38.71242 Y26.01524
G01 X38.74994 Y25.91752
G01 X38.79746 Y25.82423
G01 X38.88631 Y25.67036
G01 X38.94331 Y25.58258
G01 X39.00917 Y25.50124
G01 X39.10035 Y25.39997
G01 X39.00917 Y25.29873
G01 X38.94331 Y25.21740
G01 X38.88631 Y25.12962
G01 X38.79746 Y24.97572
G01 X38.74994 Y24.88245
G01 X38.71242 Y24.78474
G01 X38.65750 Y24.61572
G01 X38.63040 Y24.51463
G01 X38.61405 Y24.41123
G01 X38.59548 Y24.23452
G01 X38.58999 Y24.12997
G01 X38.59548 Y24.02545
G01 X38.61405 Y23.84875
G01 X38.63040 Y23.74534
G01 X38.65750 Y23.64425
G01 X38.71242 Y23.47524
G01 X38.74994 Y23.37752
G01 X38.79746 Y23.28426
G01 X38.88631 Y23.13036
G01 X38.94331 Y23.04258
G01 X39.00917 Y22.96124
G01 X39.10035 Y22.85997
G01 X39.00917 Y22.75873
G01 X38.94331 Y22.67740
G01 X38.88631 Y22.58962
G01 X38.79746 Y22.43572
G01 X38.74994 Y22.34245
G01 X38.71242 Y22.24474
G01 X38.65750 Y22.07572
G01 X38.63040 Y21.97463
G01 X38.61405 Y21.87123
G01 X38.59548 Y21.69452
G01 X38.58999 Y21.58997
G01 X38.59548 Y21.48545
G01 X38.61405 Y21.30875
G01 X38.63040 Y21.20534
G01 X38.65750 Y21.10425
G01 X38.71242 Y20.93524
G01 X38.74994 Y20.83752
G01 X38.79746 Y20.74426
G01 X38.88631 Y20.59036
G01 X38.94331 Y20.50258
G01 X39.00917 Y20.42124
G01 X39.10035 Y20.31997
G01 X39.00917 Y20.21873
G01 X38.94331 Y20.13740
G01 X38.88631 Y20.04962
G01 X38.79746 Y19.89572
G01 X38.74994 Y19.80245
G01 X38.71242 Y19.70474
G01 X38.65750 Y19.53572
G01 X38.63040 Y19.43463
G01 X38.61405 Y19.33123
G01 X38.59548 Y19.15452
G01 X38.58999 Y19.04997
G01 X38.59548 Y18.94545
G01 X38.61405 Y18.76875
G01 X38.63040 Y18.66534
G01 X38.65750 Y18.56425
G01 X38.71242 Y18.39524
G01 X38.74994 Y18.29753
G01 X38.79746 Y18.20426
G01 X38.88631 Y18.05036
G01 X38.94331 Y17.96258
G01 X39.00917 Y17.88124
G01 X39.10035 Y17.77997
G01 X39.00917 Y17.67873
G01 X38.94331 Y17.59740
G01 X38.88631 Y17.50962
G01 X38.79746 Y17.35572
G01 X38.74994 Y17.26245
G01 X38.71242 Y17.16474
G01 X38.65750 Y16.99572
G01 X38.63040 Y16.89463
G01 X38.61405 Y16.79123
G01 X38.59548 Y16.61452
G01 X38.58999 Y16.50997
G01 X38.59548 Y16.40545
G01 X38.61405 Y16.22875
G01 X38.63040 Y16.12534
G01 X38.65750 Y16.02425
G01 X38.71242 Y15.85524
G01 X38.74994 Y15.75752
G01 X38.79746 Y15.66426
G01 X38.88631 Y15.51036
G01 X38.94331 Y15.42258
G01 X39.00917 Y15.34124
G01 X39.10035 Y15.23997
G01 X39.00917 Y15.13873
G01 X38.94331 Y15.05740
G01 X38.88631 Y14.96962
G01 X38.79746 Y14.81572
G01 X38.74994 Y14.72245
G01 X38.71242 Y14.62474
G01 X38.65750 Y14.45572
G01 X38.63040 Y14.35463
G01 X38.61405 Y14.25123
G01 X38.59548 Y14.07452
G01 X38.58999 Y13.96997
G01 X38.59548 Y13.86545
G01 X38.61405 Y13.68875
G01 X38.63040 Y13.58534
G01 X38.65750 Y13.48425
G01 X38.71242 Y13.31521
G01 X38.74994 Y13.21753
G01 X38.79746 Y13.12426
G01 X38.88631 Y12.97036
G01 X38.94331 Y12.88258
G01 X39.00917 Y12.80124
G01 X39.10035 Y12.69997
G01 X39.47381 Y12.69992
G01 X34.99068 Y12.69997
G01 X34.96236 Y12.59429
G01 X34.88459 Y12.10323
G01 X34.86600 Y11.92649
G01 X34.83999 Y11.43000
G01 X34.86600 Y10.93348
G01 X34.88459 Y10.75675
G01 X34.96236 Y10.26569
G01 X34.99068 Y10.15997
G01 X34.96236 Y10.05429
G01 X34.88459 Y9.56323
G01 X34.86600 Y9.38649
G01 X34.83999 Y8.89000
G01 X34.86600 Y8.39348
G01 X34.88459 Y8.21675
G01 X34.96236 Y7.72569
G01 X34.99068 Y7.61997
G01 X34.96236 Y7.51429
G01 X34.88459 Y7.02323
G01 X34.86600 Y6.84649
G01 X34.83999 Y6.35000
G01 X34.86600 Y5.85348
G01 X34.88459 Y5.67675
G01 X34.96236 Y5.18569
G01 X34.99068 Y5.07997
G01 X34.96236 Y4.97429
G01 X34.88459 Y4.48323
G01 X34.86600 Y4.30649
G01 X34.83999 Y3.80997
G01 X34.86600 Y3.31348
G01 X34.88459 Y3.13675
G01 X34.96236 Y2.64569
G01 X35.09104 Y2.16543
G01 X35.14595 Y1.99644
G01 X35.32414 Y1.53225
G01 X35.54987 Y1.08925
G01 X35.63871 Y0.93538
G01 X35.90950 Y0.51839
G01 X36.16734 Y0.19997
G01 X35.84608 Y0.19997
G01 X35.70724 Y0.37145
G01 X35.42220 Y0.81036
G01 X35.33336 Y0.96426
G01 X35.09574 Y1.43058
G01 X34.90819 Y1.91917
G01 X34.85327 Y2.08818
G01 X34.71781 Y2.59370
G01 X34.63595 Y3.11061
G01 X34.61738 Y3.28734
G01 X34.59000 Y3.80997
G01 X34.61738 Y4.33263
G01 X34.63595 Y4.50936
G01 X34.71781 Y5.02628
G01 X34.73221 Y5.07997
G01 X34.71781 Y5.13370
G01 X34.63595 Y5.65061
G01 X34.61738 Y5.82734
G01 X34.59000 Y6.35000
G01 X34.61738 Y6.87263
G01 X34.63595 Y7.04936
G01 X34.71781 Y7.56628
G01 X34.73221 Y7.61997
G01 X34.71781 Y7.67370
G01 X34.63595 Y8.19061
G01 X34.61738 Y8.36734
G01 X34.59000 Y8.89000
G01 X34.61738 Y9.41263
G01 X34.63595 Y9.58936
G01 X34.71781 Y10.10628
G01 X34.73221 Y10.15997
G01 X34.71781 Y10.21370
G01 X34.63595 Y10.73061
G01 X34.61738 Y10.90734
G01 X34.59000 Y11.43000
G01 X34.61738 Y11.95263
G01 X34.63595 Y12.12936
G01 X34.71781 Y12.64628
G01 X34.73221 Y12.69995
G01 X34.71781 Y12.75367
G01 X34.63595 Y13.27059
G01 X34.61738 Y13.44734
G01 X34.59000 Y13.96997
G01 X34.61738 Y14.49263
G01 X34.63595 Y14.66936
G01 X34.71781 Y15.18628
G01 X34.73221 Y15.23997
G01 X34.71781 Y15.29370
G01 X34.63595 Y15.81061
G01 X34.61738 Y15.98734
G01 X34.59000 Y16.50997
G01 X34.61738 Y17.03263
G01 X34.63595 Y17.20936
G01 X34.71781 Y17.72628
G01 X34.73221 Y17.77997
G01 X34.71781 Y17.83370
G01 X34.63595 Y18.35061
G01 X34.61738 Y18.52734
G01 X34.59000 Y19.04997
G01 X34.61738 Y19.57263
G01 X34.63595 Y19.74936
G01 X34.71781 Y20.26628
G01 X34.73221 Y20.31997
G01 X34.71781 Y20.37370
G01 X34.63595 Y20.89061
G01 X34.61738 Y21.06734
G01 X34.59000 Y21.58997
G01 X34.61738 Y22.11263
G01 X34.63595 Y22.28936
G01 X34.71781 Y22.80628
G01 X34.73221 Y22.85997
G01 X34.71781 Y22.91370
G01 X34.63595 Y23.43061
G01 X34.61738 Y23.60734
G01 X34.59000 Y24.12997
G01 X34.61738 Y24.65263
G01 X34.63595 Y24.82936
G01 X34.71781 Y25.34628
G01 X34.73221 Y25.39997
G01 X34.71781 Y25.45370
G01 X34.63595 Y25.97061
G01 X34.61738 Y26.14734
G01 X34.59000 Y26.67000
G01 X34.61738 Y27.19263
G01 X34.63595 Y27.36936
G01 X34.71781 Y27.88628
G01 X34.73221 Y27.93997
G01 X34.71781 Y27.99370
G01 X34.63595 Y28.51061
G01 X34.61738 Y28.68734
G01 X34.59000 Y29.21000
G01 X34.61738 Y29.73263
G01 X34.63595 Y29.90936
G01 X34.71781 Y30.42628
G01 X34.73221 Y30.47997
G01 X34.71781 Y30.53370
G01 X34.63595 Y31.05061
G01 X34.61738 Y31.22734
G01 X34.59000 Y31.75000
G01 X34.61738 Y32.27263
G01 X34.63595 Y32.44936
G01 X34.71781 Y32.96628
G01 X34.73221 Y33.01997
G01 X34.71781 Y33.07370
G01 X34.63595 Y33.59061
G01 X34.61738 Y33.76734
G01 X34.59000 Y34.29000
G01 X34.61738 Y34.81263
G01 X34.63595 Y34.98936
G01 X34.71781 Y35.50628
G01 X34.73221 Y35.55997
G01 X34.71781 Y35.61370
G01 X34.63595 Y36.13061
G01 X34.61738 Y36.30734
G01 X34.59000 Y36.83000
G01 X34.61738 Y37.35263
G01 X34.63595 Y37.52936
G01 X34.71781 Y38.04628
G01 X34.73221 Y38.09997
G01 X34.71781 Y38.15370
G01 X34.63595 Y38.67061
G01 X34.61738 Y38.84734
G01 X34.59000 Y39.37000
G01 X34.61738 Y39.89263
G01 X34.63595 Y40.06936
G01 X34.71781 Y40.58628
G01 X34.73221 Y40.63997
G01 X34.71781 Y40.69370
G01 X34.63595 Y41.21061
G01 X34.61738 Y41.38734
G01 X34.59000 Y41.91000
G01 X34.61738 Y42.43263
G01 X34.63595 Y42.60936
G01 X34.71781 Y43.12628
G01 X34.73221 Y43.17997
G01 X34.71781 Y43.23370
G01 X34.63595 Y43.75061
G01 X34.61738 Y43.92734
G01 X34.59000 Y44.45000
G01 X34.61738 Y44.97263
G01 X34.63595 Y45.14936
G01 X34.71781 Y45.66628
G01 X34.73221 Y45.71997
G01 X34.71781 Y45.77370
G01 X34.63595 Y46.29061
G01 X34.61738 Y46.46734
G01 X34.59000 Y46.99000
G01 X34.61738 Y47.51263
G01 X34.63595 Y47.68936
G01 X34.71781 Y48.20628
G01 X34.73221 Y48.25997
G01 X34.71781 Y48.31370
G01 X34.63595 Y48.83061
G01 X34.61738 Y49.00734
G01 X34.59000 Y49.53000
G01 X34.61738 Y50.05263
G01 X34.63595 Y50.22936
G01 X34.66343 Y50.40277
G01 X34.41017 Y50.39967
G01 X34.38733 Y50.25547
G01 X34.36874 Y50.07877
G01 X34.33999 Y49.53000
G01 X34.36874 Y48.98121
G01 X34.38733 Y48.80450
G01 X34.47374 Y48.25997
G01 X34.38733 Y48.80450
G01 X34.36874 Y48.98121
G01 X34.33999 Y49.53000
G01 X34.36874 Y50.07877
G01 X34.38733 Y50.25547
G01 X34.41017 Y50.39967
G01 X35.42320 Y50.41209
G01 X35.38184 Y50.15095
G01 X35.36328 Y49.97422
G01 X35.33999 Y49.53000
G01 X35.36328 Y49.08575
G01 X35.38184 Y48.90902
G01 X35.45144 Y48.46963
G01 X35.50763 Y48.25997
G01 X35.45144 Y48.05035
G01 X35.38184 Y47.61095
G01 X35.36328 Y47.43422
G01 X35.33999 Y46.99000
G01 X35.36328 Y46.54575
G01 X35.38184 Y46.36902
G01 X35.45144 Y45.92963
G01 X35.50763 Y45.71997
G01 X35.45144 Y45.51035
G01 X35.38184 Y45.07095
G01 X35.36328 Y44.89422
G01 X35.33999 Y44.45000
G01 X35.36328 Y44.00575
G01 X35.38184 Y43.82902
G01 X35.45144 Y43.38963
G01 X35.50763 Y43.17997
G01 X35.45144 Y42.97035
G01 X35.38184 Y42.53095
G01 X35.36328 Y42.35422
G01 X35.33999 Y41.91000
G01 X35.36328 Y41.46575
G01 X35.38184 Y41.28902
G01 X35.45144 Y40.84963
G01 X35.50763 Y40.63997
G01 X35.45144 Y40.43035
G01 X35.38184 Y39.99095
G01 X35.36328 Y39.81422
G01 X35.33999 Y39.37000
G01 X35.36328 Y38.92575
G01 X35.38184 Y38.74902
G01 X35.45144 Y38.30963
G01 X35.50763 Y38.09997
G01 X35.45144 Y37.89035
G01 X35.38184 Y37.45095
G01 X35.36328 Y37.27422
G01 X35.33999 Y36.83000
G01 X35.36328 Y36.38575
G01 X35.38184 Y36.20902
G01 X35.45144 Y35.76963
G01 X35.50763 Y35.55997
G01 X35.45144 Y35.35035
G01 X35.38184 Y34.91095
G01 X35.36328 Y34.73422
G01 X35.33999 Y34.29000
G01 X35.36328 Y33.84575
G01 X35.38184 Y33.66902
G01 X35.45144 Y33.22963
G01 X35.50763 Y33.01997
G01 X35.45144 Y32.81035
G01 X35.38184 Y32.37095
G01 X35.36328 Y32.19422
G01 X35.33999 Y31.75000
G01 X35.36328 Y31.30575
G01 X35.38184 Y31.12902
G01 X35.45144 Y30.68963
G01 X35.50763 Y30.47997
G01 X35.45144 Y30.27035
G01 X35.38184 Y29.83095
G01 X35.36328 Y29.65422
G01 X35.33999 Y29.21000
G01 X35.36328 Y28.76575
G01 X35.38184 Y28.58902
G01 X35.45144 Y28.14963
G01 X35.50763 Y27.93997
G01 X35.45144 Y27.73035
G01 X35.38184 Y27.29095
G01 X35.36328 Y27.11422
G01 X35.33999 Y26.67000
G01 X35.36328 Y26.22575
G01 X35.38184 Y26.04902
G01 X35.45144 Y25.60963
G01 X35.50763 Y25.39997
G01 X35.45144 Y25.19035
G01 X35.38184 Y24.75095
G01 X35.36328 Y24.57422
G01 X35.33999 Y24.12997
G01 X35.36328 Y23.68575
G01 X35.38184 Y23.50902
G01 X35.45144 Y23.06963
G01 X35.50763 Y22.85997
G01 X35.45144 Y22.65035
G01 X35.38184 Y22.21095
G01 X35.36328 Y22.03422
G01 X35.33999 Y21.58997
G01 X35.36328 Y21.14575
G01 X35.38184 Y20.96902
G01 X35.45144 Y20.52963
G01 X35.50763 Y20.31997
G01 X35.45144 Y20.11035
G01 X35.38184 Y19.67095
G01 X35.36328 Y19.49422
G01 X35.33999 Y19.04997
G01 X35.36328 Y18.60575
G01 X35.38184 Y18.42902
G01 X35.45144 Y17.98963
G01 X35.50763 Y17.77997
G01 X35.45144 Y17.57035
G01 X35.38184 Y17.13095
G01 X35.36328 Y16.95422
G01 X35.33999 Y16.50997
G01 X35.36328 Y16.06575
G01 X35.38184 Y15.88902
G01 X35.45144 Y15.44963
G01 X35.50763 Y15.23997
G01 X35.45144 Y15.03035
G01 X35.38184 Y14.59095
G01 X35.36328 Y14.41422
G01 X35.33999 Y13.96997
G01 X35.36328 Y13.52575
G01 X35.38184 Y13.34902
G01 X35.45144 Y12.90960
G01 X35.50763 Y12.69997
G01 X35.45144 Y12.49035
G01 X35.38184 Y12.05095
G01 X35.36328 Y11.87422
G01 X35.33999 Y11.43000
G01 X35.36328 Y10.98575
G01 X35.38184 Y10.80902
G01 X35.45144 Y10.36963
G01 X35.50760 Y10.15997
G01 X35.45144 Y9.95035
G01 X35.38184 Y9.51095
G01 X35.36328 Y9.33422
G01 X35.33999 Y8.89000
G01 X35.36328 Y8.44575
G01 X35.38184 Y8.26902
G01 X35.45144 Y7.82963
G01 X35.50763 Y7.61997
G01 X35.45144 Y7.41035
G01 X35.38184 Y6.97095
G01 X35.36328 Y6.79422
G01 X35.33999 Y6.35000
G01 X35.36328 Y5.90575
G01 X35.38184 Y5.72902
G01 X35.45144 Y5.28963
G01 X35.50763 Y5.07997
G01 X35.45144 Y4.87035
G01 X35.38184 Y4.43095
G01 X35.36328 Y4.25422
G01 X35.33999 Y3.80997
G01 X35.36328 Y3.36575
G01 X35.38184 Y3.18902
G01 X35.45144 Y2.74963
G01 X35.56658 Y2.31993
G01 X35.62149 Y2.15095
G01 X35.78090 Y1.73563
G01 X35.98286 Y1.33927
G01 X36.07171 Y1.18537
G01 X36.31400 Y0.81229
G01 X36.59396 Y0.46657
G01 X36.71286 Y0.33452
G01 X36.84737 Y0.20000
G01 X37.20181 Y0.20000
G01 X36.89866 Y0.50180
G01 X36.77973 Y0.63386
G01 X36.51626 Y0.95923
G01 X36.28822 Y1.31036
G01 X36.19937 Y1.46426
G01 X36.00930 Y1.83731
G01 X35.85924 Y2.22819
G01 X35.80435 Y2.39720
G01 X35.69597 Y2.80162
G01 X35.63049 Y3.21516
G01 X35.61189 Y3.39187
G01 X35.59000 Y3.80997
G01 X35.61189 Y4.22811
G01 X35.63049 Y4.40482
G01 X35.69597 Y4.81835
G01 X35.76607 Y5.07997
G01 X35.69597 Y5.34162
G01 X35.63049 Y5.75516
G01 X35.61189 Y5.93187
G01 X35.59000 Y6.35000
G01 X35.61189 Y6.76811
G01 X35.63049 Y6.94482
G01 X35.69597 Y7.35835
G01 X35.76607 Y7.61997
G01 X35.69597 Y7.88162
G01 X35.63049 Y8.29516
G01 X35.61189 Y8.47187
G01 X35.59000 Y8.89000
G01 X35.61189 Y9.30811
G01 X35.63049 Y9.48482
G01 X35.69597 Y9.89835
G01 X35.76607 Y10.15997
G01 X35.69597 Y10.42162
G01 X35.63049 Y10.83516
G01 X35.61189 Y11.01187
G01 X35.59000 Y11.43000
G01 X35.61189 Y11.84811
G01 X35.63049 Y12.02482
G01 X35.69597 Y12.43835
G01 X35.76607 Y12.69997
G01 X35.69597 Y12.96162
G01 X35.63049 Y13.37516
G01 X35.61189 Y13.55187
G01 X35.59000 Y13.96997
G01 X35.61189 Y14.38811
G01 X35.63049 Y14.56482
G01 X35.69597 Y14.97835
G01 X35.76607 Y15.23997
G01 X35.69597 Y15.50162
G01 X35.63049 Y15.91516
G01 X35.61189 Y16.09187
G01 X35.59000 Y16.50997
G01 X35.61189 Y16.92811
G01 X35.63049 Y17.10482
G01 X35.69597 Y17.51835
G01 X35.76607 Y17.77997
G01 X35.69597 Y18.04162
G01 X35.63049 Y18.45516
G01 X35.61189 Y18.63187
G01 X35.59000 Y19.04997
G01 X35.61189 Y19.46811
G01 X35.63049 Y19.64482
G01 X35.69597 Y20.05835
G01 X35.76607 Y20.31997
G01 X35.69597 Y20.58162
G01 X35.63049 Y20.99516
G01 X35.61189 Y21.17187
G01 X35.59000 Y21.58997
G01 X35.61189 Y22.00811
G01 X35.63049 Y22.18482
G01 X35.69597 Y22.59835
G01 X35.76607 Y22.85997
G01 X35.69597 Y23.12162
G01 X35.63049 Y23.53516
G01 X35.61189 Y23.71187
G01 X35.59000 Y24.12997
G01 X35.61189 Y24.54811
G01 X35.63049 Y24.72482
G01 X35.69597 Y25.13835
G01 X35.76607 Y25.39997
G01 X35.69597 Y25.66162
G01 X35.63049 Y26.07516
G01 X35.61189 Y26.25187
G01 X35.59000 Y26.67000
G01 X35.61189 Y27.08811
G01 X35.63049 Y27.26482
G01 X35.69597 Y27.67835
G01 X35.76607 Y27.93997
G01 X35.69597 Y28.20162
G01 X35.63049 Y28.61516
G01 X35.61189 Y28.79187
G01 X35.59000 Y29.21000
G01 X35.61189 Y29.62811
G01 X35.63049 Y29.80482
G01 X35.69597 Y30.21835
G01 X35.76607 Y30.47997
G01 X35.69597 Y30.74162
G01 X35.63049 Y31.15516
G01 X35.61189 Y31.33187
G01 X35.59000 Y31.75000
G01 X35.61189 Y32.16811
G01 X35.63049 Y32.34482
G01 X35.69597 Y32.75835
G01 X35.76607 Y33.01997
G01 X35.69597 Y33.28162
G01 X35.63049 Y33.69516
G01 X35.61189 Y33.87187
G01 X35.59000 Y34.29000
G01 X35.61189 Y34.70811
G01 X35.63049 Y34.88482
G01 X35.69597 Y35.29835
G01 X35.76607 Y35.55997
G01 X35.69597 Y35.82162
G01 X35.63049 Y36.23516
G01 X35.61189 Y36.41187
G01 X35.59000 Y36.83000
G01 X35.61189 Y37.24811
G01 X35.63049 Y37.42482
G01 X35.69597 Y37.83835
G01 X35.76607 Y38.09997
G01 X35.69597 Y38.36162
G01 X35.63049 Y38.77516
G01 X35.61189 Y38.95187
G01 X35.59000 Y39.37000
G01 X35.61189 Y39.78811
G01 X35.63049 Y39.96482
G01 X35.69597 Y40.37835
G01 X35.76607 Y40.63997
G01 X35.69597 Y40.90162
G01 X35.63049 Y41.31516
G01 X35.61189 Y41.49187
G01 X35.59000 Y41.91000
G01 X35.61189 Y42.32811
G01 X35.63049 Y42.50482
G01 X35.69597 Y42.91835
G01 X35.76607 Y43.17997
G01 X35.69597 Y43.44162
G01 X35.63049 Y43.85516
G01 X35.61189 Y44.03187
G01 X35.59000 Y44.45000
G01 X35.61189 Y44.86811
G01 X35.63049 Y45.04482
G01 X35.69597 Y45.45835
G01 X35.76607 Y45.71997
G01 X35.69597 Y45.98162
G01 X35.63049 Y46.39516
G01 X35.61189 Y46.57187
G01 X35.59000 Y46.99000
G01 X35.61189 Y47.40811
G01 X35.63049 Y47.58482
G01 X35.69597 Y47.99835
G01 X35.76607 Y48.25997
G01 X35.69597 Y48.52162
G01 X35.63049 Y48.93516
G01 X35.61189 Y49.11187
G01 X35.59000 Y49.53000
G01 X35.61189 Y49.94811
G01 X35.63049 Y50.12482
G01 X35.67646 Y50.41522
G01 X34.42076 Y50.39980
G01 X34.33999 Y51.21999
G01 X34.33999 Y52.91999
G01 X34.44088 Y53.94422
G01 X34.73963 Y54.92907
G01 X35.22477 Y55.83672
G01 X35.87768 Y56.63230
G01 X36.50849 Y57.14997
G01 X43.40413 Y57.14997
G01 X43.92894 Y56.86946
G01 X44.64875 Y56.27875
G01 X45.23946 Y55.55894
G01 X45.67842 Y54.73774
G01 X45.94873 Y53.84665
G01 X46.03999 Y52.91999
G01 X46.03999 Y51.21999
G01 X46.00400 Y50.85431
G01 X45.73547 Y50.55400
G01 X46.01454 Y50.62390
G01 X46.45137 Y50.68872
G01 X46.54890 Y50.69832
G01 X46.99000 Y50.71999
G01 X55.88000 Y50.71999
G01 X56.32107 Y50.69832
G01 X56.41861 Y50.68872
G01 X57.28381 Y50.51661
G01 X57.37761 Y50.48816
G01 X57.79341 Y50.33940
G01 X58.19262 Y50.15057
G01 X58.27906 Y50.10437
G01 X59.01253 Y49.61428
G01 X59.08830 Y49.55210
G01 X59.41553 Y49.25553
G01 X63.22553 Y45.44553
G01 X63.52210 Y45.11830
G01 X63.58428 Y45.04253
G01 X63.84734 Y44.68785
G01 X64.07437 Y44.30906
G01 X64.12057 Y44.22262
G01 X64.45816 Y43.40761
G01 X64.48661 Y43.31381
G01 X64.65872 Y42.44861
G01 X64.66832 Y42.35107
G01 X64.68999 Y41.91000
G01 X64.68999 Y19.05000
G01 X64.66995 Y18.61871
G01 X64.55948 Y17.92127
G01 X64.54117 Y17.84497
G01 X64.32296 Y17.17340
G01 X64.29294 Y17.10091
G01 X63.97236 Y16.47175
G01 X63.93137 Y16.40484
G01 X63.51631 Y15.83357
G01 X63.22553 Y15.51445
G01 X55.60550 Y7.89445
G01 X55.27827 Y7.59788
G01 X55.20251 Y7.53570
G01 X54.46903 Y7.04560
G01 X54.38259 Y6.99940
G01 X53.56758 Y6.66181
G01 X53.47378 Y6.63336
G01 X52.60856 Y6.46125
G01 X52.51105 Y6.45165
G01 X52.06997 Y6.42998
G01 X45.78469 Y6.42998
G01 X45.52239 Y6.67997
G01 X45.53999 Y6.34997
G01 X45.51670 Y5.90575
G01 X45.49813 Y5.72902
G01 X45.42853 Y5.28963
G01 X45.37238 Y5.07997
G01 X45.42853 Y4.87035
G01 X45.49813 Y4.43095
G01 X45.51670 Y4.25422
G01 X45.53999 Y3.80997
G01 X45.51670 Y3.36575
G01 X45.49813 Y3.18902
G01 X45.42853 Y2.74963
G01 X45.31340 Y2.31993
G01 X45.25848 Y2.15095
G01 X45.09907 Y1.73563
G01 X44.89712 Y1.33927
G01 X44.80827 Y1.18537
G01 X44.56598 Y0.81229
G01 X44.28602 Y0.46657
G01 X44.16712 Y0.33452
G01 X44.03263 Y0.20000
G01 X43.67817 Y0.20000
G01 X43.98132 Y0.50180
G01 X44.10024 Y0.63386
G01 X44.36372 Y0.95923
G01 X44.59176 Y1.31036
G01 X44.68061 Y1.46426
G01 X44.87067 Y1.83731
G01 X45.02074 Y2.22819
G01 X45.07563 Y2.39720
G01 X45.18401 Y2.80162
G01 X45.24949 Y3.21516
G01 X45.26808 Y3.39187
G01 X45.28998 Y3.80997
G01 X45.26808 Y4.22811
G01 X45.24949 Y4.40482
G01 X45.18401 Y4.81835
G01 X45.11391 Y5.07997
G01 X45.18401 Y5.34162
G01 X45.24949 Y5.75516
G01 X45.26808 Y5.93187
G01 X45.28998 Y6.34997
G01 X45.26808 Y6.76811
G01 X45.25107 Y6.92996
G01 X45.23631 Y6.94337
G01 X45.25107 Y6.92996
G01 X52.06997 Y6.92998
G01 X52.46202 Y6.94924
G01 X52.55959 Y6.95886
G01 X53.32865 Y7.11182
G01 X53.42245 Y7.14030
G01 X54.14688 Y7.44037
G01 X54.23332 Y7.48657
G01 X54.88531 Y7.92221
G01 X54.96108 Y7.98439
G01 X55.25193 Y8.24799
G01 X62.87196 Y15.86799
G01 X63.08517 Y16.09865
G01 X63.13612 Y16.15829
G01 X63.50505 Y16.66611
G01 X63.54605 Y16.73299
G01 X63.83101 Y17.29224
G01 X63.86104 Y17.36474
G01 X64.05499 Y17.96169
G01 X64.07330 Y18.03799
G01 X64.17150 Y18.65793
G01 X64.18999 Y19.05000
G01 X64.18999 Y41.91000
G01 X64.17074 Y42.30205
G01 X64.16111 Y42.39961
G01 X64.00815 Y43.16867
G01 X63.97968 Y43.26247
G01 X63.67960 Y43.98691
G01 X63.63340 Y44.07337
G01 X63.43160 Y44.41005
G01 X63.19777 Y44.72534
G01 X63.13559 Y44.80110
G01 X62.87196 Y45.09196
G01 X59.06196 Y48.90196
G01 X58.77110 Y49.16559
G01 X58.69534 Y49.22777
G01 X58.04337 Y49.66340
G01 X57.95691 Y49.70960
G01 X57.60207 Y49.87745
G01 X57.23247 Y50.00968
G01 X57.13867 Y50.03815
G01 X56.36961 Y50.19111
G01 X56.27205 Y50.20074
G01 X55.88000 Y50.21999
G01 X46.99000 Y50.21999
G01 X46.59793 Y50.20074
G01 X46.50036 Y50.19111
G01 X46.11207 Y50.13353
G01 X45.73130 Y50.03815
G01 X45.63750 Y50.00968
G01 X45.27433 Y49.87973
G01 X45.27187 Y49.87569
G01 X45.26808 Y49.94811
G01 X45.24949 Y50.12482
G01 X45.20352 Y50.41522
G01 X45.45678 Y50.41209
G01 X45.48701 Y50.22118
G01 X45.43811 Y50.14450
G01 X45.48701 Y50.22118
G01 X45.65874 Y50.27737
G01 X46.06331 Y50.37872
G01 X46.47588 Y50.43990
G01 X46.57341 Y50.44953
G01 X46.99000 Y50.46998
G01 X55.88000 Y50.46998
G01 X56.29656 Y50.44953
G01 X56.39410 Y50.43990
G01 X57.21124 Y50.27737
G01 X57.30504 Y50.24892
G01 X57.69773 Y50.10841
G01 X58.07476 Y49.93010
G01 X58.16120 Y49.88390
G01 X58.85393 Y49.42101
G01 X58.92970 Y49.35883
G01 X59.23874 Y49.07874
G01 X63.04874 Y45.26874
G01 X63.32883 Y44.95970
G01 X63.39101 Y44.88393
G01 X63.63947 Y44.54896
G01 X63.85390 Y44.19120
G01 X63.90010 Y44.10476
G01 X64.21892 Y43.33504
G01 X64.24737 Y43.24124
G01 X64.40990 Y42.42410
G01 X64.41953 Y42.32656
G01 X64.43998 Y41.91000
G01 X64.43998 Y19.05000
G01 X64.42072 Y18.63832
G01 X64.31641 Y17.97962
G01 X64.29809 Y17.90334
G01 X64.09200 Y17.26908
G01 X64.06197 Y17.19659
G01 X63.75921 Y16.60238
G01 X63.71821 Y16.53548
G01 X63.32621 Y15.99593
G01 X63.27526 Y15.93626
G01 X63.04874 Y15.69123
G01 X55.42872 Y8.07123
G01 X55.11968 Y7.79115
G01 X55.04391 Y7.72897
G01 X54.35117 Y7.26608
G01 X54.26474 Y7.21987
G01 X53.49502 Y6.90105
G01 X53.40121 Y6.87261
G01 X52.58407 Y6.71007
G01 X52.48653 Y6.70044
G01 X52.06997 Y6.68000
G01 X45.52236 Y6.67997
G01 X45.41398 Y6.78335
G01 X45.78586 Y6.42887
G01 X45.78998 Y6.34997
G01 X45.76534 Y5.87962
G01 X45.74677 Y5.70288
G01 X45.67309 Y5.23766
G01 X45.63082 Y5.07997
G01 X45.67309 Y4.92232
G01 X45.74677 Y4.45709
G01 X45.76534 Y4.28036
G01 X45.78998 Y3.80997
G01 X45.76534 Y3.33962
G01 X45.74677 Y3.16288
G01 X45.67309 Y2.69766
G01 X45.55117 Y2.24269
G01 X45.49625 Y2.07368
G01 X45.32744 Y1.63396
G01 X45.11363 Y1.21427
G01 X45.02478 Y1.06037
G01 X44.76824 Y0.66533
G01 X44.47179 Y0.29929
G01 X44.38241 Y0.20000
G01 X43.28147 Y0.19997
G01 X43.51800 Y0.39152
G01 X43.79554 Y0.66909
G01 X43.91444 Y0.80114
G01 X44.16146 Y1.10617
G01 X44.37525 Y1.43538
G01 X44.46410 Y1.58925
G01 X44.64230 Y1.93901
G01 X44.78297 Y2.30546
G01 X44.83788 Y2.47444
G01 X44.93946 Y2.85359
G01 X45.00088 Y3.24127
G01 X45.01944 Y3.41800
G01 X45.03999 Y3.80997
G01 X45.01944 Y4.20197
G01 X45.00088 Y4.37871
G01 X44.93946 Y4.76639
G01 X44.85543 Y5.07997
G01 X44.93946 Y5.39359
G01 X45.00088 Y5.78127
G01 X45.01944 Y5.95800
G01 X45.03999 Y6.34997
G01 X45.01944 Y6.74197
G01 X45.00088 Y6.91871
G01 X44.95940 Y7.18055
G01 X44.85350 Y7.27146
G01 X44.96006 Y7.18000
G01 X52.06997 Y7.18000
G01 X52.43754 Y7.19806
G01 X52.53505 Y7.20766
G01 X53.25608 Y7.35106
G01 X53.34988 Y7.37951
G01 X54.02903 Y7.66084
G01 X54.11549 Y7.70705
G01 X54.72671 Y8.11545
G01 X54.80248 Y8.17763
G01 X55.07515 Y8.42477
G01 X62.69518 Y16.04477
G01 X62.89505 Y16.26100
G01 X62.94603 Y16.32067
G01 X63.29190 Y16.79672
G01 X63.33289 Y16.86362
G01 X63.60003 Y17.38793
G01 X63.63007 Y17.46042
G01 X63.81191 Y18.02006
G01 X63.83023 Y18.09636
G01 X63.92227 Y18.67756
G01 X63.93998 Y19.05000
G01 X63.93998 Y41.91000
G01 X63.92192 Y42.27756
G01 X63.91232 Y42.37510
G01 X63.76891 Y43.09610
G01 X63.74046 Y43.18991
G01 X63.45913 Y43.86908
G01 X63.41293 Y43.95551
G01 X63.22372 Y44.27116
G01 X63.00452 Y44.56674
G01 X62.94232 Y44.64251
G01 X62.69520 Y44.91520
G01 X58.88520 Y48.72520
G01 X58.61251 Y48.97232
G01 X58.53674 Y49.03452
G01 X57.92551 Y49.44293
G01 X57.83908 Y49.48913
G01 X57.50639 Y49.64648
G01 X57.15991 Y49.77046
G01 X57.06610 Y49.79891
G01 X56.34510 Y49.94232
G01 X56.24756 Y49.95192
G01 X55.88000 Y49.96998
G01 X46.99000 Y49.96998
G01 X46.62241 Y49.95192
G01 X46.52488 Y49.94232
G01 X46.16084 Y49.88832
G01 X45.80387 Y49.79891
G01 X45.71007 Y49.77046
G01 X45.36359 Y49.64648
G01 X45.03936 Y49.49312
G01 X45.27187 Y49.87569
G01 X45.26808 Y49.94811
G01 X45.24949 Y50.12482
G01 X45.20354 Y50.41519
G01 X44.68769 Y50.42154
G01 X44.69699 Y50.42141
G01 X44.75223 Y50.07257
G01 X44.77080 Y49.89584
G01 X44.78998 Y49.53000
G01 X44.77080 Y49.16414
G01 X44.75754 Y49.03795
G01 X44.72841 Y48.99007
G01 X44.73793 Y49.00569
G01 X45.06232 Y49.22246
G01 X45.14875 Y49.26866
G01 X45.45924 Y49.41550
G01 X45.78266 Y49.53122
G01 X45.87644 Y49.55967
G01 X46.20964 Y49.64313
G01 X46.54939 Y49.69353
G01 X46.64692 Y49.70313
G01 X46.99000 Y49.71999
G01 X55.88000 Y49.71999
G01 X56.22305 Y49.70313
G01 X56.32059 Y49.69353
G01 X56.99354 Y49.55967
G01 X57.08731 Y49.53122
G01 X57.41073 Y49.41550
G01 X57.72122 Y49.26866
G01 X57.80766 Y49.22246
G01 X58.37814 Y48.84125
G01 X58.45391 Y48.77907
G01 X58.70842 Y48.54842
G01 X62.51842 Y44.73842
G01 X62.74907 Y44.48391
G01 X62.81125 Y44.40814
G01 X63.01588 Y44.13227
G01 X63.19246 Y43.83766
G01 X63.23866 Y43.75122
G01 X63.50122 Y43.11731
G01 X63.52967 Y43.02354
G01 X63.66353 Y42.35059
G01 X63.67313 Y42.25305
G01 X63.68999 Y41.91000
G01 X63.68999 Y19.05000
G01 X63.67920 Y18.77538
G01 X63.67305 Y18.69717
G01 X63.58712 Y18.15470
G01 X63.56881 Y18.07842
G01 X63.39909 Y17.55607
G01 X63.36906 Y17.48361
G01 X63.11974 Y16.99425
G01 X63.07874 Y16.92735
G01 X62.75591 Y16.48303
G01 X62.70495 Y16.42336
G01 X62.51842 Y16.22156
G01 X54.89839 Y8.60156
G01 X54.64388 Y8.37090
G01 X54.56812 Y8.30872
G01 X53.99763 Y7.92752
G01 X53.91120 Y7.88132
G01 X53.27729 Y7.61876
G01 X53.18351 Y7.59031
G01 X52.51056 Y7.45645
G01 X52.41303 Y7.44685
G01 X52.06997 Y7.42998
G01 X44.64741 Y7.42998
G01 X44.39651 Y7.61997
G01 X44.35292 Y7.67997
G01 X44.33344 Y7.61997
G01 X44.36234 Y7.53102
G01 X44.45038 Y7.20242
G01 X44.50362 Y6.86643
G01 X44.52219 Y6.68970
G01 X44.53999 Y6.34997
G01 X44.52219 Y6.01028
G01 X44.50362 Y5.83354
G01 X44.45038 Y5.49755
G01 X44.36234 Y5.16895
G01 X44.33344 Y5.07997
G01 X44.36234 Y4.99102
G01 X44.45038 Y4.66242
G01 X44.50362 Y4.32643
G01 X44.52219 Y4.14970
G01 X44.53999 Y3.80997
G01 X44.52219 Y3.47027
G01 X44.50362 Y3.29354
G01 X44.45038 Y2.95755
G01 X44.36234 Y2.62895
G01 X44.30743 Y2.45996
G01 X44.18554 Y2.14236
G01 X44.03108 Y1.83926
G01 X43.94223 Y1.68537
G01 X43.75696 Y1.40007
G01 X43.54286 Y1.13568
G01 X43.42397 Y1.00363
G01 X43.18343 Y0.76309
G01 X42.91904 Y0.54902
G01 X42.77530 Y0.44455
G01 X42.48998 Y0.25928
G01 X42.37360 Y0.19997
G01 X41.76403 Y0.19997
G01 X41.92285 Y0.26096
G01 X42.08521 Y0.33322
G01 X42.36499 Y0.47579
G01 X42.62834 Y0.64681
G01 X42.77210 Y0.75126
G01 X43.01614 Y0.94887
G01 X43.23819 Y1.17091
G01 X43.35709 Y1.30297
G01 X43.55470 Y1.54701
G01 X43.72572 Y1.81036
G01 X43.81457 Y1.96426
G01 X43.95714 Y2.24404
G01 X44.06966 Y2.53721
G01 X44.12458 Y2.70622
G01 X44.20586 Y3.00952
G01 X44.25498 Y3.31968
G01 X44.27355 Y3.49641
G01 X44.28998 Y3.80997
G01 X44.27355 Y4.12356
G01 X44.25498 Y4.30030
G01 X44.20586 Y4.61046
G01 X44.12458 Y4.91376
G01 X44.07057 Y5.07997
G01 X44.12458 Y5.24622
G01 X44.20586 Y5.54952
G01 X44.25498 Y5.85968
G01 X44.27355 Y6.03641
G01 X44.28998 Y6.34997
G01 X44.27355 Y6.66356
G01 X44.25498 Y6.84030
G01 X44.20586 Y7.15046
G01 X44.12458 Y7.45376
G01 X44.07057 Y7.61997
G01 X44.12458 Y7.78622
G01 X44.16323 Y7.93044
G01 X52.06997 Y7.92998
G01 X52.36400 Y7.94443
G01 X52.46157 Y7.95404
G01 X53.03835 Y8.06877
G01 X53.13213 Y8.09722
G01 X53.67548 Y8.32228
G01 X53.76194 Y8.36849
G01 X54.25092 Y8.69521
G01 X54.32669 Y8.75739
G01 X54.54482 Y8.95510
G01 X62.16485 Y16.57510
G01 X62.37572 Y16.80774
G01 X62.65240 Y17.18859
G01 X62.69340 Y17.25549
G01 X62.90714 Y17.67495
G01 X62.93716 Y17.74744
G01 X63.08263 Y18.19514
G01 X63.10094 Y18.27144
G01 X63.17458 Y18.73639
G01 X63.18999 Y19.05000
G01 X63.18999 Y41.91000
G01 X63.17554 Y42.20403
G01 X63.16594 Y42.30159
G01 X63.05121 Y42.87837
G01 X63.02276 Y42.97218
G01 X62.79769 Y43.51551
G01 X62.75149 Y43.60197
G01 X62.60013 Y43.85447
G01 X62.42474 Y44.09095
G01 X62.36256 Y44.16671
G01 X62.16485 Y44.38485
G01 X58.35485 Y48.19485
G01 X58.13671 Y48.39256
G01 X58.06095 Y48.45474
G01 X57.57197 Y48.78149
G01 X57.48551 Y48.82769
G01 X57.21937 Y48.95357
G01 X56.94218 Y49.05276
G01 X56.84837 Y49.08121
G01 X56.27159 Y49.19594
G01 X56.17403 Y49.20554
G01 X55.88000 Y49.21999
G01 X46.99000 Y49.21999
G01 X46.69594 Y49.20554
G01 X46.59838 Y49.19594
G01 X46.30717 Y49.15273
G01 X46.02160 Y49.08121
G01 X45.92780 Y49.05276
G01 X45.65061 Y48.95357
G01 X45.38447 Y48.82769
G01 X45.29800 Y48.78149
G01 X44.80903 Y48.45474
G01 X44.73326 Y48.39256
G01 X44.51513 Y48.19485
G01 X44.17530 Y47.85505
G01 X44.18223 Y47.87859
G01 X44.12458 Y48.09376
G01 X44.07057 Y48.25997
G01 X44.12458 Y48.42622
G01 X44.20586 Y48.72952
G01 X44.25498 Y49.03968
G01 X44.27355 Y49.21641
G01 X44.28998 Y49.53000
G01 X44.27355 Y49.84356
G01 X44.25498 Y50.02030
G01 X44.20586 Y50.33046
G01 X44.17977 Y50.42776
G01 X44.16963 Y50.42789
G01 X44.23235 Y50.63472
G01 X44.28998 Y51.21999
G01 X44.28998 Y52.91999
G01 X44.23235 Y53.50525
G01 X44.06163 Y54.06804
G01 X43.78439 Y54.58671
G01 X43.41132 Y55.04132
G01 X42.95671 Y55.41439
G01 X42.43804 Y55.69163
G01 X41.87525 Y55.86235
G01 X41.28999 Y55.91998
G01 X39.58999 Y55.91998
G01 X39.00472 Y55.86235
G01 X38.44193 Y55.69163
G01 X37.92327 Y55.41439
G01 X37.46866 Y55.04132
G01 X37.09558 Y54.58671
G01 X36.81834 Y54.06804
G01 X36.64763 Y53.50525
G01 X36.59000 Y52.91999
G01 X36.59000 Y51.21999
G01 X36.64763 Y50.63472
G01 X36.71037 Y50.42789
G01 X36.95951 Y50.43094
G01 X36.91865 Y50.27846
G01 X36.87364 Y49.99416
G01 X36.85504 Y49.81745
G01 X36.83998 Y49.53000
G01 X36.85504 Y49.24252
G01 X36.87364 Y49.06581
G01 X36.91865 Y48.78151
G01 X36.99314 Y48.50346
G01 X37.04806 Y48.33447
G01 X37.07666 Y48.25997
G01 X37.04806 Y48.18550
G01 X36.99314 Y48.01652
G01 X36.91865 Y47.73846
G01 X36.87364 Y47.45416
G01 X36.85504 Y47.27745
G01 X36.83998 Y46.99000
G01 X36.85504 Y46.70252
G01 X36.87364 Y46.52582
G01 X36.91865 Y46.24151
G01 X36.99314 Y45.96346
G01 X37.04806 Y45.79447
G01 X37.07666 Y45.71997
G01 X37.04806 Y45.64550
G01 X36.99314 Y45.47652
G01 X36.91865 Y45.19846
G01 X36.87364 Y44.91416
G01 X36.85504 Y44.73745
G01 X36.83998 Y44.45000
G01 X36.85504 Y44.16252
G01 X36.87364 Y43.98581
G01 X36.91865 Y43.70151
G01 X36.99314 Y43.42346
G01 X37.04806 Y43.25447
G01 X37.07666 Y43.17997
G01 X37.04806 Y43.10550
G01 X36.99314 Y42.93652
G01 X36.91865 Y42.65846
G01 X36.87364 Y42.37416
G01 X36.85504 Y42.19745
G01 X36.83998 Y41.91000
G01 X36.85504 Y41.62252
G01 X36.87364 Y41.44582
G01 X36.91865 Y41.16151
G01 X36.99314 Y40.88346
G01 X37.04806 Y40.71447
G01 X37.07666 Y40.63997
G01 X37.04806 Y40.56550
G01 X36.99314 Y40.39652
G01 X36.91865 Y40.11846
G01 X36.87364 Y39.83416
G01 X36.85504 Y39.65745
G01 X36.83998 Y39.37000
G01 X36.85504 Y39.08252
G01 X36.87364 Y38.90581
G01 X36.91865 Y38.62151
G01 X36.99314 Y38.34346
G01 X37.04806 Y38.17447
G01 X37.07666 Y38.09997
G01 X37.04806 Y38.02550
G01 X36.99314 Y37.85652
G01 X36.91865 Y37.57846
G01 X36.87364 Y37.29416
G01 X36.85504 Y37.11745
G01 X36.83998 Y36.83000
G01 X36.85504 Y36.54252
G01 X36.87364 Y36.36581
G01 X36.91865 Y36.08151
G01 X36.99314 Y35.80346
G01 X37.04806 Y35.63447
G01 X37.07666 Y35.55997
G01 X37.04806 Y35.48550
G01 X36.99314 Y35.31652
G01 X36.91865 Y35.03846
G01 X36.87364 Y34.75416
G01 X36.85504 Y34.57745
G01 X36.83998 Y34.29000
G01 X36.85504 Y34.00252
G01 X36.87364 Y33.82581
G01 X36.91865 Y33.54151
G01 X36.99314 Y33.26346
G01 X37.04806 Y33.09447
G01 X37.07666 Y33.01997
G01 X37.04806 Y32.94550
G01 X36.99314 Y32.77652
G01 X36.91865 Y32.49846
G01 X36.87364 Y32.21416
G01 X36.85504 Y32.03745
G01 X36.83998 Y31.75000
G01 X36.85504 Y31.46252
G01 X36.87364 Y31.28581
G01 X36.91865 Y31.00151
G01 X36.99314 Y30.72346
G01 X37.04806 Y30.55447
G01 X37.07666 Y30.47997
G01 X37.04806 Y30.40550
G01 X36.99314 Y30.23652
G01 X36.91865 Y29.95846
G01 X36.87364 Y29.67416
G01 X36.85504 Y29.49745
G01 X36.83998 Y29.21000
G01 X36.85504 Y28.92252
G01 X36.87364 Y28.74582
G01 X36.91865 Y28.46151
G01 X36.99314 Y28.18346
G01 X37.04806 Y28.01447
G01 X37.07666 Y27.93997
G01 X37.04806 Y27.86550
G01 X36.99314 Y27.69652
G01 X36.91865 Y27.41846
G01 X36.87364 Y27.13416
G01 X36.85504 Y26.95745
G01 X36.83998 Y26.67000
G01 X36.85504 Y26.38252
G01 X36.87364 Y26.20581
G01 X36.91865 Y25.92151
G01 X36.99314 Y25.64346
G01 X37.04806 Y25.47445
G01 X37.07666 Y25.39997
G01 X37.04806 Y25.32550
G01 X36.99314 Y25.15652
G01 X36.91865 Y24.87846
G01 X36.87364 Y24.59416
G01 X36.85504 Y24.41745
G01 X36.83998 Y24.12997
G01 X36.85504 Y23.84252
G01 X36.87364 Y23.66581
G01 X36.91865 Y23.38151
G01 X36.99314 Y23.10346
G01 X37.04806 Y22.93447
G01 X37.07666 Y22.85997
G01 X37.04806 Y22.78550
G01 X36.99314 Y22.61652
G01 X36.91865 Y22.33846
G01 X36.87364 Y22.05416
G01 X36.85504 Y21.87745
G01 X36.83998 Y21.58997
G01 X36.85504 Y21.30252
G01 X36.87364 Y21.12581
G01 X36.91865 Y20.84151
G01 X36.99314 Y20.56346
G01 X37.04806 Y20.39447
G01 X37.07666 Y20.31997
G01 X37.04806 Y20.24550
G01 X36.99314 Y20.07652
G01 X36.91865 Y19.79846
G01 X36.87364 Y19.51416
G01 X36.85504 Y19.33745
G01 X36.83998 Y19.04997
G01 X36.85504 Y18.76252
G01 X36.87364 Y18.58581
G01 X36.91865 Y18.30151
G01 X36.99314 Y18.02346
G01 X37.04806 Y17.85447
G01 X37.07666 Y17.77997
G01 X37.04806 Y17.70550
G01 X36.99314 Y17.53652
G01 X36.91865 Y17.25846
G01 X36.87364 Y16.97416
G01 X36.85504 Y16.79745
G01 X36.83998 Y16.50997
G01 X36.85504 Y16.22252
G01 X36.87364 Y16.04581
G01 X36.91865 Y15.76151
G01 X36.99314 Y15.48346
G01 X37.04806 Y15.31447
G01 X37.07666 Y15.23997
G01 X37.04806 Y15.16550
G01 X36.99314 Y14.99652
G01 X36.91865 Y14.71846
G01 X36.87364 Y14.43416
G01 X36.85504 Y14.25745
G01 X36.83998 Y13.96997
G01 X36.85504 Y13.68252
G01 X36.87364 Y13.50582
G01 X36.91865 Y13.22151
G01 X36.99314 Y12.94343
G01 X37.04806 Y12.77447
G01 X37.07666 Y12.69997
G01 X37.04806 Y12.62550
G01 X36.99314 Y12.45652
G01 X36.91865 Y12.17846
G01 X36.87364 Y11.89416
G01 X36.85504 Y11.71745
G01 X36.83998 Y11.43000
G01 X36.85504 Y11.14252
G01 X36.87364 Y10.96581
G01 X36.91865 Y10.68151
G01 X36.99314 Y10.40346
G01 X37.04806 Y10.23447
G01 X37.07666 Y10.15997
G01 X37.04806 Y10.08550
G01 X36.99314 Y9.91652
G01 X36.91865 Y9.63846
G01 X36.87364 Y9.35416
G01 X36.85504 Y9.17745
G01 X36.83998 Y8.89000
G01 X36.85504 Y8.60252
G01 X36.87364 Y8.42582
G01 X36.91865 Y8.14151
G01 X36.99314 Y7.86346
G01 X37.04806 Y7.69447
G01 X37.07666 Y7.61997
G01 X37.04806 Y7.54550
G01 X36.99314 Y7.37652
G01 X36.91865 Y7.09846
G01 X36.87364 Y6.81416
G01 X36.85504 Y6.63745
G01 X36.83998 Y6.35000
G01 X36.85504 Y6.06252
G01 X36.87364 Y5.88581
G01 X36.91865 Y5.60151
G01 X36.99314 Y5.32346
G01 X37.04806 Y5.15447
G01 X37.07666 Y5.07997
G01 X37.04806 Y5.00550
G01 X36.99314 Y4.83652
G01 X36.91865 Y4.55846
G01 X36.87364 Y4.27416
G01 X36.85504 Y4.09745
G01 X36.83998 Y3.81000
G01 X36.85504 Y3.52252
G01 X36.87364 Y3.34581
G01 X36.91865 Y3.06151
G01 X36.99314 Y2.78346
G01 X37.04806 Y2.61447
G01 X37.15123 Y2.34574
G01 X37.28189 Y2.08925
G01 X37.37074 Y1.93538
G01 X37.52753 Y1.69395
G01 X37.70866 Y1.47025
G01 X37.82758 Y1.33820
G01 X38.03112 Y1.13467
G01 X38.25481 Y0.95352
G01 X38.39858 Y0.84907
G01 X38.63998 Y0.69230
G01 X38.89647 Y0.56162
G01 X39.05880 Y0.48933
G01 X39.32753 Y0.38618
G01 X39.60556 Y0.31168
G01 X39.77937 Y0.27473
G01 X40.06367 Y0.22972
G01 X40.35113 Y0.21466
G01 X40.52882 Y0.21466
G01 X40.81630 Y0.22972
G01 X41.10060 Y0.27473
G01 X41.27442 Y0.31168
G01 X41.55244 Y0.38618
G01 X41.82118 Y0.48933
G01 X41.98351 Y0.56162
G01 X42.24000 Y0.69230
G01 X42.48140 Y0.84907
G01 X42.62516 Y0.95352
G01 X42.84886 Y1.13467
G01 X43.05239 Y1.33820
G01 X43.17129 Y1.47025
G01 X43.35244 Y1.69395
G01 X43.50921 Y1.93538
G01 X43.59806 Y2.08925
G01 X43.72874 Y2.34574
G01 X43.83192 Y2.61447
G01 X43.88681 Y2.78346
G01 X43.96133 Y3.06151
G01 X44.00634 Y3.34581
G01 X44.02493 Y3.52252
G01 X44.03999 Y3.81000
G01 X44.02493 Y4.09745
G01 X44.00634 Y4.27416
G01 X43.96133 Y4.55846
G01 X43.88681 Y4.83652
G01 X43.83192 Y5.00550
G01 X43.80332 Y5.07997
G01 X43.83192 Y5.15447
G01 X43.88681 Y5.32346
G01 X43.96133 Y5.60151
G01 X44.00634 Y5.88581
G01 X44.02493 Y6.06252
G01 X44.03999 Y6.35000
G01 X44.02493 Y6.63745
G01 X44.00634 Y6.81416
G01 X43.96133 Y7.09846
G01 X43.88681 Y7.37652
G01 X43.83192 Y7.54550
G01 X43.80332 Y7.61997
G01 X43.83192 Y7.69447
G01 X43.88681 Y7.86346
G01 X43.96133 Y8.14151
G01 X43.96654 Y8.17999
G01 X44.02790 Y8.10791
G01 X44.35292 Y7.67997
G01 X52.06997 Y7.67999
G01 X52.38849 Y7.69564
G01 X52.48605 Y7.70524
G01 X53.11094 Y7.82955
G01 X53.20472 Y7.85800
G01 X53.79334 Y8.10181
G01 X53.87978 Y8.14802
G01 X54.40952 Y8.50196
G01 X54.48529 Y8.56414
G01 X54.72161 Y8.77834
G01 X62.34163 Y16.39834
G01 X62.56581 Y16.64538
G01 X62.86558 Y17.05798
G01 X62.90658 Y17.12486
G01 X63.13810 Y17.57926
G01 X63.16812 Y17.65176
G01 X63.32571 Y18.13677
G01 X63.34404 Y18.21307
G01 X63.42383 Y18.71678
G01 X63.43998 Y19.05000
G01 X63.43998 Y41.91000
G01 X63.42433 Y42.22854
G01 X63.41473 Y42.32608
G01 X63.29042 Y42.95097
G01 X63.26198 Y43.04474
G01 X63.01816 Y43.63336
G01 X62.97196 Y43.71980
G01 X62.80800 Y43.99338
G01 X62.61801 Y44.24954
G01 X62.55583 Y44.32531
G01 X62.34163 Y44.56163
G01 X58.53163 Y48.37163
G01 X58.29531 Y48.58583
G01 X58.21954 Y48.64801
G01 X57.68980 Y49.00196
G01 X57.60336 Y49.04816
G01 X57.31505 Y49.18453
G01 X57.01474 Y49.29198
G01 X56.92097 Y49.32042
G01 X56.29608 Y49.44473
G01 X56.19854 Y49.45433
G01 X55.88000 Y49.46998
G01 X46.99000 Y49.46998
G01 X46.67143 Y49.45433
G01 X46.57390 Y49.44473
G01 X46.25840 Y49.39792
G01 X45.94901 Y49.32042
G01 X45.85523 Y49.29198
G01 X45.55493 Y49.18453
G01 X45.26661 Y49.04816
G01 X45.18017 Y49.00196
G01 X44.65043 Y48.64801
G01 X44.57466 Y48.58583
G01 X44.37868 Y48.40818
G01 X44.34949 Y48.36046
G01 X44.37786 Y48.40691
G01 X44.45038 Y48.67755
G01 X44.50362 Y49.01354
G01 X44.52219 Y49.19027
G01 X44.53999 Y49.53000
G01 X44.52219 Y49.86970
G01 X44.50362 Y50.04643
G01 X44.45038 Y50.38242
G01 X44.43910 Y50.42459
G01 X44.68769 Y50.42154
G01 X44.72275 Y50.53716
G01 X44.78998 Y51.21999
G01 X44.78998 Y52.91999
G01 X44.72275 Y53.60281
G01 X44.52356 Y54.25938
G01 X44.20014 Y54.86448
G01 X43.76486 Y55.39486
G01 X43.23448 Y55.83014
G01 X42.62938 Y56.15356
G01 X41.97281 Y56.35274
G01 X41.28999 Y56.41998
G01 X39.58999 Y56.41998
G01 X38.90716 Y56.35274
G01 X38.25060 Y56.15356
G01 X37.64549 Y55.83014
G01 X37.11511 Y55.39486
G01 X36.67984 Y54.86448
G01 X36.35642 Y54.25938
G01 X36.15723 Y53.60281
G01 X36.09000 Y52.91999
G01 X36.09000 Y51.21999
G01 X36.15723 Y50.53716
G01 X36.19231 Y50.42154
G01 X36.44087 Y50.42456
G01 X36.42959 Y50.38242
G01 X36.37636 Y50.04643
G01 X36.35779 Y49.86970
G01 X36.33998 Y49.53000
G01 X36.35779 Y49.19027
G01 X36.37636 Y49.01354
G01 X36.42959 Y48.67755
G01 X36.51763 Y48.34895
G01 X36.54654 Y48.25997
G01 X36.51763 Y48.17102
G01 X36.42959 Y47.84242
G01 X36.37636 Y47.50643
G01 X36.35779 Y47.32970
G01 X36.33998 Y46.99000
G01 X36.35779 Y46.65027
G01 X36.37636 Y46.47354
G01 X36.42959 Y46.13755
G01 X36.51763 Y45.80895
G01 X36.54654 Y45.71997
G01 X36.51763 Y45.63102
G01 X36.42959 Y45.30242
G01 X36.37636 Y44.96643
G01 X36.35779 Y44.78970
G01 X36.33998 Y44.45000
G01 X36.35779 Y44.11028
G01 X36.37636 Y43.93354
G01 X36.42959 Y43.59755
G01 X36.51763 Y43.26895
G01 X36.54654 Y43.17997
G01 X36.51763 Y43.09102
G01 X36.42959 Y42.76242
G01 X36.37636 Y42.42643
G01 X36.35779 Y42.24970
G01 X36.33998 Y41.91000
G01 X36.35779 Y41.57027
G01 X36.37636 Y41.39354
G01 X36.42959 Y41.05755
G01 X36.51763 Y40.72895
G01 X36.54654 Y40.63997
G01 X36.51763 Y40.55102
G01 X36.42959 Y40.22242
G01 X36.37636 Y39.88643
G01 X36.35779 Y39.70970
G01 X36.33998 Y39.37000
G01 X36.35779 Y39.03027
G01 X36.37636 Y38.85354
G01 X36.42959 Y38.51755
G01 X36.51763 Y38.18895
G01 X36.54654 Y38.09997
G01 X36.51763 Y38.01102
G01 X36.42959 Y37.68242
G01 X36.37636 Y37.34643
G01 X36.35779 Y37.16970
G01 X36.33998 Y36.83000
G01 X36.35779 Y36.49027
G01 X36.37636 Y36.31354
G01 X36.42959 Y35.97755
G01 X36.51763 Y35.64895
G01 X36.54654 Y35.55997
G01 X36.51763 Y35.47102
G01 X36.42959 Y35.14242
G01 X36.37636 Y34.80643
G01 X36.35779 Y34.62970
G01 X36.33998 Y34.29000
G01 X36.35779 Y33.95027
G01 X36.37636 Y33.77354
G01 X36.42959 Y33.43755
G01 X36.51763 Y33.10895
G01 X36.54654 Y33.01997
G01 X36.51763 Y32.93102
G01 X36.42959 Y32.60242
G01 X36.37636 Y32.26643
G01 X36.35779 Y32.08970
G01 X36.33998 Y31.75000
G01 X36.35779 Y31.41028
G01 X36.37636 Y31.23354
G01 X36.42959 Y30.89755
G01 X36.51763 Y30.56895
G01 X36.54654 Y30.47997
G01 X36.51763 Y30.39102
G01 X36.42959 Y30.06242
G01 X36.37636 Y29.72643
G01 X36.35779 Y29.54970
G01 X36.33998 Y29.21000
G01 X36.35779 Y28.87027
G01 X36.37636 Y28.69354
G01 X36.42959 Y28.35755
G01 X36.51763 Y28.02895
G01 X36.54654 Y27.93997
G01 X36.51763 Y27.85102
G01 X36.42959 Y27.52242
G01 X36.37636 Y27.18643
G01 X36.35779 Y27.00970
G01 X36.33998 Y26.67000
G01 X36.35779 Y26.33025
G01 X36.37636 Y26.15354
G01 X36.42959 Y25.81755
G01 X36.51763 Y25.48893
G01 X36.54654 Y25.39997
G01 X36.51763 Y25.31102
G01 X36.42959 Y24.98242
G01 X36.37636 Y24.64643
G01 X36.35779 Y24.46970
G01 X36.33998 Y24.12997
G01 X36.35779 Y23.79028
G01 X36.37636 Y23.61354
G01 X36.42959 Y23.27755
G01 X36.51763 Y22.94895
G01 X36.54654 Y22.85997
G01 X36.51763 Y22.77102
G01 X36.42959 Y22.44242
G01 X36.37636 Y22.10643
G01 X36.35779 Y21.92970
G01 X36.33998 Y21.58997
G01 X36.35779 Y21.25027
G01 X36.37636 Y21.07354
G01 X36.42959 Y20.73755
G01 X36.51763 Y20.40895
G01 X36.54654 Y20.31997
G01 X36.51763 Y20.23102
G01 X36.42959 Y19.90242
G01 X36.37636 Y19.56643
G01 X36.35779 Y19.38970
G01 X36.33998 Y19.04997
G01 X36.35779 Y18.71027
G01 X36.37636 Y18.53354
G01 X36.42959 Y18.19755
G01 X36.51763 Y17.86895
G01 X36.54654 Y17.77997
G01 X36.51763 Y17.69102
G01 X36.42959 Y17.36242
G01 X36.37636 Y17.02643
G01 X36.35779 Y16.84970
G01 X36.33998 Y16.50997
G01 X36.35779 Y16.17028
G01 X36.37636 Y15.99354
G01 X36.42959 Y15.65755
G01 X36.51763 Y15.32895
G01 X36.54654 Y15.23997
G01 X36.51763 Y15.15102
G01 X36.42959 Y14.82242
G01 X36.37636 Y14.48643
G01 X36.35779 Y14.30970
G01 X36.33998 Y13.96997
G01 X36.35779 Y13.63027
G01 X36.37636 Y13.45354
G01 X36.42959 Y13.11755
G01 X36.51763 Y12.78895
G01 X36.54654 Y12.69997
G01 X36.51763 Y12.61102
G01 X36.42959 Y12.28242
G01 X36.37636 Y11.94643
G01 X36.35779 Y11.76970
G01 X36.33998 Y11.43000
G01 X36.35779 Y11.09027
G01 X36.37636 Y10.91354
G01 X36.42959 Y10.57755
G01 X36.51763 Y10.24895
G01 X36.54654 Y10.15997
G01 X36.51763 Y10.07102
G01 X36.42959 Y9.74242
G01 X36.37636 Y9.40643
G01 X36.35779 Y9.22970
G01 X36.33998 Y8.89000
G01 X36.35779 Y8.55027
G01 X36.37636 Y8.37354
G01 X36.42959 Y8.03755
G01 X36.51763 Y7.70895
G01 X36.54654 Y7.61997
G01 X36.51763 Y7.53102
G01 X36.42959 Y7.20242
G01 X36.37636 Y6.86643
G01 X36.35779 Y6.68970
G01 X36.33998 Y6.34997
G01 X36.35779 Y6.01028
G01 X36.37636 Y5.83354
G01 X36.42959 Y5.49755
G01 X36.51763 Y5.16895
G01 X36.54654 Y5.07997
G01 X36.51763 Y4.99102
G01 X36.42959 Y4.66242
G01 X36.37636 Y4.32643
G01 X36.35779 Y4.14970
G01 X36.33998 Y3.80997
G01 X36.35779 Y3.47027
G01 X36.37636 Y3.29354
G01 X36.42959 Y2.95755
G01 X36.51763 Y2.62895
G01 X36.57255 Y2.45996
G01 X36.69444 Y2.14236
G01 X36.84890 Y1.83926
G01 X36.93775 Y1.68537
G01 X37.12301 Y1.40007
G01 X37.33711 Y1.13568
G01 X37.45601 Y1.00363
G01 X37.69655 Y0.76309
G01 X37.96093 Y0.54902
G01 X38.10467 Y0.44455
G01 X38.38999 Y0.25928
G01 X38.50637 Y0.19997
G01 X39.11595 Y0.19997
G01 X38.95712 Y0.26096
G01 X38.79477 Y0.33322
G01 X38.51499 Y0.47579
G01 X38.25164 Y0.64681
G01 X38.10787 Y0.75126
G01 X37.86383 Y0.94887
G01 X37.64178 Y1.17091
G01 X37.52289 Y1.30297
G01 X37.32527 Y1.54701
G01 X37.15426 Y1.81036
G01 X37.06541 Y1.96426
G01 X36.92284 Y2.24404
G01 X36.81031 Y2.53721
G01 X36.75540 Y2.70622
G01 X36.67412 Y3.00952
G01 X36.62500 Y3.31968
G01 X36.60643 Y3.49641
G01 X36.59000 Y3.80997
G01 X36.60643 Y4.12356
G01 X36.62500 Y4.30030
G01 X36.67412 Y4.61046
G01 X36.75540 Y4.91376
G01 X36.80940 Y5.07997
G01 X36.75540 Y5.24622
G01 X36.67412 Y5.54952
G01 X36.62500 Y5.85968
G01 X36.60643 Y6.03641
G01 X36.59000 Y6.35000
G01 X36.60643 Y6.66356
G01 X36.62500 Y6.84030
G01 X36.67412 Y7.15046
G01 X36.75540 Y7.45376
G01 X36.80940 Y7.61997
G01 X36.75540 Y7.78622
G01 X36.67412 Y8.08952
G01 X36.62500 Y8.39968
G01 X36.60643 Y8.57641
G01 X36.59000 Y8.89000
G01 X36.60643 Y9.20356
G01 X36.62500 Y9.38030
G01 X36.67412 Y9.69046
G01 X36.75540 Y9.99376
G01 X36.80940 Y10.15997
G01 X36.75540 Y10.32622
G01 X36.67412 Y10.62952
G01 X36.62500 Y10.93968
G01 X36.60643 Y11.11641
G01 X36.59000 Y11.43000
G01 X36.60643 Y11.74356
G01 X36.62500 Y11.92030
G01 X36.67412 Y12.23046
G01 X36.75540 Y12.53376
G01 X36.80940 Y12.69995
G01 X36.75540 Y12.86622
G01 X36.67412 Y13.16952
G01 X36.62500 Y13.47968
G01 X36.60643 Y13.65641
G01 X36.59000 Y13.96997
G01 X36.60643 Y14.28356
G01 X36.62500 Y14.46030
G01 X36.67412 Y14.77046
G01 X36.75540 Y15.07376
G01 X36.80940 Y15.23997
G01 X36.75540 Y15.40622
G01 X36.67412 Y15.70952
G01 X36.62500 Y16.01968
G01 X36.60643 Y16.19641
G01 X36.59000 Y16.50997
G01 X36.60643 Y16.82356
G01 X36.62500 Y17.00030
G01 X36.67412 Y17.31046
G01 X36.75540 Y17.61376
G01 X36.80940 Y17.77997
G01 X36.75540 Y17.94622
G01 X36.67412 Y18.24952
G01 X36.62500 Y18.55968
G01 X36.60643 Y18.73641
G01 X36.59000 Y19.04997
G01 X36.60643 Y19.36356
G01 X36.62500 Y19.54030
G01 X36.67412 Y19.85046
G01 X36.75540 Y20.15376
G01 X36.80940 Y20.31997
G01 X36.75540 Y20.48622
G01 X36.67412 Y20.78952
G01 X36.62500 Y21.09968
G01 X36.60643 Y21.27641
G01 X36.59000 Y21.58997
G01 X36.60643 Y21.90356
G01 X36.62500 Y22.08030
G01 X36.67412 Y22.39046
G01 X36.75540 Y22.69376
G01 X36.80940 Y22.85997
G01 X36.75540 Y23.02622
G01 X36.67412 Y23.32952
G01 X36.62500 Y23.63968
G01 X36.60643 Y23.81641
G01 X36.59000 Y24.12997
G01 X36.60643 Y24.44356
G01 X36.62500 Y24.62030
G01 X36.67412 Y24.93046
G01 X36.75540 Y25.23376
G01 X36.80940 Y25.39997
G01 X36.75540 Y25.56622
G01 X36.67412 Y25.86952
G01 X36.62500 Y26.17968
G01 X36.60643 Y26.35641
G01 X36.59000 Y26.67000
G01 X36.60643 Y26.98356
G01 X36.62500 Y27.16030
G01 X36.67412 Y27.47046
G01 X36.75540 Y27.77376
G01 X36.80940 Y27.93997
G01 X36.75540 Y28.10622
G01 X36.67412 Y28.40952
G01 X36.62500 Y28.71968
G01 X36.60643 Y28.89641
G01 X36.59000 Y29.21000
G01 X36.60643 Y29.52356
G01 X36.62500 Y29.70030
G01 X36.67412 Y30.01046
G01 X36.75540 Y30.31376
G01 X36.80940 Y30.47997
G01 X36.75540 Y30.64622
G01 X36.67412 Y30.94952
G01 X36.62500 Y31.25968
G01 X36.60643 Y31.43641
G01 X36.59000 Y31.75000
G01 X36.60643 Y32.06356
G01 X36.62500 Y32.24030
G01 X36.67412 Y32.55046
G01 X36.75540 Y32.85376
G01 X36.80940 Y33.01997
G01 X36.75540 Y33.18622
G01 X36.67412 Y33.48952
G01 X36.62500 Y33.79968
G01 X36.60643 Y33.97641
G01 X36.59000 Y34.29000
G01 X36.60643 Y34.60356
G01 X36.62500 Y34.78030
G01 X36.67412 Y35.09046
G01 X36.75540 Y35.39376
G01 X36.80940 Y35.55997
G01 X36.75540 Y35.72622
G01 X36.67412 Y36.02952
G01 X36.62500 Y36.33968
G01 X36.60643 Y36.51641
G01 X36.59000 Y36.83000
G01 X36.60643 Y37.14356
G01 X36.62500 Y37.32030
G01 X36.67412 Y37.63046
G01 X36.75540 Y37.93376
G01 X36.80940 Y38.09997
G01 X36.75540 Y38.26622
G01 X36.67412 Y38.56952
G01 X36.62500 Y38.87968
G01 X36.60643 Y39.05641
G01 X36.59000 Y39.37000
G01 X36.60643 Y39.68356
G01 X36.62500 Y39.86030
G01 X36.67412 Y40.17046
G01 X36.75540 Y40.47376
G01 X36.80940 Y40.63997
G01 X36.75540 Y40.80622
G01 X36.67412 Y41.10952
G01 X36.62500 Y41.41968
G01 X36.60643 Y41.59641
G01 X36.59000 Y41.91000
G01 X36.60643 Y42.22356
G01 X36.62500 Y42.40030
G01 X36.67412 Y42.71046
G01 X36.75540 Y43.01376
G01 X36.80940 Y43.17997
G01 X36.75540 Y43.34622
G01 X36.67412 Y43.64952
G01 X36.62500 Y43.95968
G01 X36.60643 Y44.13641
G01 X36.59000 Y44.45000
G01 X36.60643 Y44.76356
G01 X36.62500 Y44.94030
G01 X36.67412 Y45.25046
G01 X36.75540 Y45.55376
G01 X36.80940 Y45.71997
G01 X36.75540 Y45.88622
G01 X36.67412 Y46.18952
G01 X36.62500 Y46.49968
G01 X36.60643 Y46.67641
G01 X36.59000 Y46.99000
G01 X36.60643 Y47.30356
G01 X36.62500 Y47.48030
G01 X36.67412 Y47.79046
G01 X36.75540 Y48.09376
G01 X36.80940 Y48.25997
G01 X36.75540 Y48.42622
G01 X36.67412 Y48.72952
G01 X36.62500 Y49.03968
G01 X36.60643 Y49.21641
G01 X36.59000 Y49.53000
G01 X36.60643 Y49.84356
G01 X36.62500 Y50.02030
G01 X36.67412 Y50.33046
G01 X36.70021 Y50.42774
G01 X36.45134 Y50.42471
G01 X36.40244 Y50.58595
G01 X36.33998 Y51.21999
G01 X36.33998 Y52.91999
G01 X36.40244 Y53.55402
G01 X36.58738 Y54.16370
G01 X36.88771 Y54.72560
G01 X37.29190 Y55.21808
G01 X37.78438 Y55.62227
G01 X38.34628 Y55.92260
G01 X38.95595 Y56.10753
G01 X39.58999 Y56.16999
G01 X41.28999 Y56.16999
G01 X41.92402 Y56.10753
G01 X42.53370 Y55.92260
G01 X43.09560 Y55.62227
G01 X43.58808 Y55.21808
G01 X43.99227 Y54.72560
G01 X44.29260 Y54.16370
G01 X44.47753 Y53.55402
G01 X44.53999 Y52.91999
G01 X44.53999 Y51.21999
G01 X44.47753 Y50.58595
G01 X44.42866 Y50.42471
G01 X45.20570 Y50.41519
G01 X45.21312 Y50.43962
G01 X45.28998 Y51.21999
G01 X45.28998 Y52.91999
G01 X45.21312 Y53.70035
G01 X44.98551 Y54.45072
G01 X44.61586 Y55.14226
G01 X44.11840 Y55.74840
G01 X43.51226 Y56.24586
G01 X42.82072 Y56.61551
G01 X42.07035 Y56.84312
G01 X41.28999 Y56.91998
G01 X39.58999 Y56.91998
G01 X38.80963 Y56.84312
G01 X38.05926 Y56.61551
G01 X37.36772 Y56.24586
G01 X36.76157 Y55.74840
G01 X36.26411 Y55.14226
G01 X35.89447 Y54.45072
G01 X35.66686 Y53.70035
G01 X35.59000 Y52.91999
G01 X35.59000 Y51.21999
G01 X35.66686 Y50.43962
G01 X35.67427 Y50.41519
G01 X36.18299 Y50.42141
G01 X35.92972 Y50.41831
G01 X35.87910 Y50.09871
G01 X35.86053 Y49.92197
G01 X35.83998 Y49.53000
G01 X35.86053 Y49.13800
G01 X35.87910 Y48.96127
G01 X35.94052 Y48.57359
G01 X36.02454 Y48.25997
G01 X35.94052 Y47.94639
G01 X35.87910 Y47.55871
G01 X35.86053 Y47.38197
G01 X35.83998 Y46.99000
G01 X35.86053 Y46.59800
G01 X35.87910 Y46.42127
G01 X35.94052 Y46.03359
G01 X36.02454 Y45.71997
G01 X35.94052 Y45.40639
G01 X35.87910 Y45.01871
G01 X35.86053 Y44.84197
G01 X35.83998 Y44.45000
G01 X35.86053 Y44.05800
G01 X35.87910 Y43.88127
G01 X35.94052 Y43.49359
G01 X36.02454 Y43.17997
G01 X35.94052 Y42.86639
G01 X35.87910 Y42.47871
G01 X35.86053 Y42.30197
G01 X35.83998 Y41.91000
G01 X35.86053 Y41.51800
G01 X35.87910 Y41.34127
G01 X35.94052 Y40.95359
G01 X36.02454 Y40.63997
G01 X35.94052 Y40.32639
G01 X35.87910 Y39.93871
G01 X35.86053 Y39.76197
G01 X35.83998 Y39.37000
G01 X35.86053 Y38.97800
G01 X35.87910 Y38.80127
G01 X35.94052 Y38.41359
G01 X36.02454 Y38.09997
G01 X35.94052 Y37.78639
G01 X35.87910 Y37.39871
G01 X35.86053 Y37.22197
G01 X35.83998 Y36.83000
G01 X35.86053 Y36.43800
G01 X35.87910 Y36.26127
G01 X35.94052 Y35.87359
G01 X36.02454 Y35.55997
G01 X35.94052 Y35.24639
G01 X35.87910 Y34.85871
G01 X35.86053 Y34.68197
G01 X35.83998 Y34.29000
G01 X35.86053 Y33.89800
G01 X35.87910 Y33.72127
G01 X35.94052 Y33.33359
G01 X36.02454 Y33.01997
G01 X35.94052 Y32.70639
G01 X35.87910 Y32.31871
G01 X35.86053 Y32.14197
G01 X35.83998 Y31.75000
G01 X35.86053 Y31.35800
G01 X35.87910 Y31.18127
G01 X35.94052 Y30.79359
G01 X36.02454 Y30.47997
G01 X35.94052 Y30.16639
G01 X35.87910 Y29.77871
G01 X35.86053 Y29.60197
G01 X35.83998 Y29.21000
G01 X35.86053 Y28.81800
G01 X35.87910 Y28.64127
G01 X35.94052 Y28.25359
G01 X36.02454 Y27.93997
G01 X35.94052 Y27.62639
G01 X35.87910 Y27.23871
G01 X35.86053 Y27.06197
G01 X35.83998 Y26.67000
G01 X35.86053 Y26.27800
G01 X35.87910 Y26.10127
G01 X35.94052 Y25.71359
G01 X36.02454 Y25.39997
G01 X35.94052 Y25.08639
G01 X35.87910 Y24.69871
G01 X35.86053 Y24.52197
G01 X35.83998 Y24.12997
G01 X35.86053 Y23.73800
G01 X35.87910 Y23.56127
G01 X35.94052 Y23.17359
G01 X36.02454 Y22.85997
G01 X35.94052 Y22.54639
G01 X35.87910 Y22.15871
G01 X35.86053 Y21.98197
G01 X35.83998 Y21.58997
G01 X35.86053 Y21.19800
G01 X35.87910 Y21.02127
G01 X35.94052 Y20.63359
G01 X36.02454 Y20.31997
G01 X35.94052 Y20.00639
G01 X35.87910 Y19.61871
G01 X35.86053 Y19.44197
G01 X35.83998 Y19.04997
G01 X35.86053 Y18.65800
G01 X35.87910 Y18.48127
G01 X35.94052 Y18.09359
G01 X36.02454 Y17.77997
G01 X35.94052 Y17.46639
G01 X35.87910 Y17.07871
G01 X35.86053 Y16.90197
G01 X35.83998 Y16.50997
G01 X35.86053 Y16.11800
G01 X35.87910 Y15.94127
G01 X35.94052 Y15.55359
G01 X36.02454 Y15.23997
G01 X35.94052 Y14.92639
G01 X35.87910 Y14.53871
G01 X35.86053 Y14.36197
G01 X35.83998 Y13.96997
G01 X35.86053 Y13.57800
G01 X35.87910 Y13.40127
G01 X35.94052 Y13.01356
G01 X36.02454 Y12.69997
G01 X35.94052 Y12.38639
G01 X35.87910 Y11.99871
G01 X35.86053 Y11.82197
G01 X35.83998 Y11.43000
G01 X35.86053 Y11.03800
G01 X35.87910 Y10.86127
G01 X35.94052 Y10.47359
G01 X36.02454 Y10.15997
G01 X35.94052 Y9.84639
G01 X35.87910 Y9.45871
G01 X35.86053 Y9.28197
G01 X35.83998 Y8.89000
G01 X35.86053 Y8.49800
G01 X35.87910 Y8.32127
G01 X35.94052 Y7.93359
G01 X36.02454 Y7.61997
G01 X35.94052 Y7.30639
G01 X35.87910 Y6.91871
G01 X35.86053 Y6.74197
G01 X35.83998 Y6.35000
G01 X35.86053 Y5.95800
G01 X35.87910 Y5.78127
G01 X35.94052 Y5.39359
G01 X36.02454 Y5.07997
G01 X35.94052 Y4.76639
G01 X35.87910 Y4.37871
G01 X35.86053 Y4.20197
G01 X35.83998 Y3.80997
G01 X35.86053 Y3.41800
G01 X35.87910 Y3.24127
G01 X35.94052 Y2.85359
G01 X36.04209 Y2.47444
G01 X36.09701 Y2.30546
G01 X36.23767 Y1.93901
G01 X36.41588 Y1.58925
G01 X36.50473 Y1.43538
G01 X36.71852 Y1.10617
G01 X36.96553 Y0.80114
G01 X37.08443 Y0.66909
G01 X37.36198 Y0.39152
G01 X37.59848 Y0.20000
G01 X38.02291 Y0.20000
G01 X37.95773 Y0.24232
G01 X37.81397 Y0.34676
G01 X37.52926 Y0.57732
G01 X37.27021 Y0.83635
G01 X37.15131 Y0.96840
G01 X36.92075 Y1.25311
G01 X36.72124 Y1.56037
G01 X36.63239 Y1.71427
G01 X36.46607 Y2.04069
G01 X36.33478 Y2.38270
G01 X36.27986 Y2.55171
G01 X36.18504 Y2.90558
G01 X36.12774 Y3.26741
G01 X36.10915 Y3.44414
G01 X36.09000 Y3.80997
G01 X36.10915 Y4.17584
G01 X36.12774 Y4.35257
G01 X36.18504 Y4.71439
G01 X36.28367 Y5.07997
G01 X36.18504 Y5.44558
G01 X36.12774 Y5.80741
G01 X36.10915 Y5.98414
G01 X36.09000 Y6.35000
G01 X36.10915 Y6.71584
G01 X36.12774 Y6.89257
G01 X36.18504 Y7.25439
G01 X36.28367 Y7.61997
G01 X36.18504 Y7.98558
G01 X36.12774 Y8.34741
G01 X36.10915 Y8.52414
G01 X36.09000 Y8.89000
G01 X36.10915 Y9.25584
G01 X36.12774 Y9.43257
G01 X36.18504 Y9.79439
G01 X36.28367 Y10.15997
G01 X36.18504 Y10.52558
G01 X36.12774 Y10.88741
G01 X36.10915 Y11.06414
G01 X36.09000 Y11.43000
G01 X36.10915 Y11.79584
G01 X36.12774 Y11.97257
G01 X36.18504 Y12.33439
G01 X36.28367 Y12.69995
G01 X36.18504 Y13.06558
G01 X36.12774 Y13.42741
G01 X36.10915 Y13.60414
G01 X36.09000 Y13.96997
G01 X36.10915 Y14.33584
G01 X36.12774 Y14.51257
G01 X36.18504 Y14.87439
G01 X36.28367 Y15.23997
G01 X36.18504 Y15.60558
G01 X36.12774 Y15.96741
G01 X36.10915 Y16.14414
G01 X36.09000 Y16.50997
G01 X36.10915 Y16.87584
G01 X36.12774 Y17.05257
G01 X36.18504 Y17.41439
G01 X36.28367 Y17.77997
G01 X36.18504 Y18.14558
G01 X36.12774 Y18.50741
G01 X36.10915 Y18.68414
G01 X36.09000 Y19.04997
G01 X36.10915 Y19.41584
G01 X36.12774 Y19.59257
G01 X36.18504 Y19.95439
G01 X36.28367 Y20.31997
G01 X36.18504 Y20.68558
G01 X36.12774 Y21.04741
G01 X36.10915 Y21.22414
G01 X36.09000 Y21.58997
G01 X36.10915 Y21.95584
G01 X36.12774 Y22.13257
G01 X36.18504 Y22.49439
G01 X36.28367 Y22.85997
G01 X36.18504 Y23.22558
G01 X36.12774 Y23.58741
G01 X36.10915 Y23.76414
G01 X36.09000 Y24.12997
G01 X36.10915 Y24.49584
G01 X36.12774 Y24.67257
G01 X36.18504 Y25.03439
G01 X36.28367 Y25.39997
G01 X36.18504 Y25.76558
G01 X36.12774 Y26.12738
G01 X36.10915 Y26.30414
G01 X36.09000 Y26.67000
G01 X36.10915 Y27.03584
G01 X36.12774 Y27.21257
G01 X36.18504 Y27.57439
G01 X36.28367 Y27.93997
G01 X36.18504 Y28.30558
G01 X36.12774 Y28.66741
G01 X36.10915 Y28.84414
G01 X36.09000 Y29.21000
G01 X36.10915 Y29.57584
G01 X36.12774 Y29.75257
G01 X36.18504 Y30.11439
G01 X36.28367 Y30.47997
G01 X36.18504 Y30.84558
G01 X36.12774 Y31.20741
G01 X36.10915 Y31.38414
G01 X36.09000 Y31.75000
G01 X36.10915 Y32.11584
G01 X36.12774 Y32.29257
G01 X36.18504 Y32.65439
G01 X36.28367 Y33.01997
G01 X36.18504 Y33.38558
G01 X36.12774 Y33.74741
G01 X36.10915 Y33.92414
G01 X36.09000 Y34.29000
G01 X36.10915 Y34.65584
G01 X36.12774 Y34.83257
G01 X36.18504 Y35.19439
G01 X36.28367 Y35.55997
G01 X36.18504 Y35.92558
G01 X36.12774 Y36.28741
G01 X36.10915 Y36.46414
G01 X36.09000 Y36.83000
G01 X36.10915 Y37.19584
G01 X36.12774 Y37.37257
G01 X36.18504 Y37.73439
G01 X36.28367 Y38.09997
G01 X36.18504 Y38.46558
G01 X36.12774 Y38.82741
G01 X36.10915 Y39.00414
G01 X36.09000 Y39.37000
G01 X36.10915 Y39.73584
G01 X36.12774 Y39.91257
G01 X36.18504 Y40.27439
G01 X36.28367 Y40.63997
G01 X36.18504 Y41.00558
G01 X36.12774 Y41.36741
G01 X36.10915 Y41.54414
G01 X36.09000 Y41.91000
G01 X36.10915 Y42.27584
G01 X36.12774 Y42.45257
G01 X36.18504 Y42.81439
G01 X36.28367 Y43.17997
G01 X36.18504 Y43.54558
G01 X36.12774 Y43.90741
G01 X36.10915 Y44.08414
G01 X36.09000 Y44.45000
G01 X36.10915 Y44.81584
G01 X36.12774 Y44.99257
G01 X36.18504 Y45.35439
G01 X36.28367 Y45.71997
G01 X36.18504 Y46.08558
G01 X36.12774 Y46.44741
G01 X36.10915 Y46.62414
G01 X36.09000 Y46.99000
G01 X36.10915 Y47.35584
G01 X36.12774 Y47.53257
G01 X36.18504 Y47.89439
G01 X36.28367 Y48.25997
G01 X36.18504 Y48.62558
G01 X36.12774 Y48.98741
G01 X36.10915 Y49.16414
G01 X36.09000 Y49.53000
G01 X36.10915 Y49.89584
G01 X36.12774 Y50.07257
G01 X36.18299 Y50.42141
G01 X35.93328 Y50.41836
G01 X35.91204 Y50.48839
G01 X35.83998 Y51.21999
G01 X35.83998 Y52.91999
G01 X35.91204 Y53.65158
G01 X36.12543 Y54.35506
G01 X36.47199 Y55.00337
G01 X36.93833 Y55.57164
G01 X37.50661 Y56.03799
G01 X38.15491 Y56.38455
G01 X38.85839 Y56.59793
G01 X39.58999 Y56.66999
G01 X41.28999 Y56.66999
G01 X42.02158 Y56.59793
G01 X42.72506 Y56.38455
G01 X43.37337 Y56.03799
G01 X43.94164 Y55.57164
G01 X44.40799 Y55.00337
G01 X44.75455 Y54.35506
G01 X44.96793 Y53.65158
G01 X45.03999 Y52.91999
G01 X45.03999 Y51.21999
G01 X44.96793 Y50.48839
G01 X44.94672 Y50.41836
G01 X44.95028 Y50.41829
G01 X45.00088 Y50.09871
G01 X45.01944 Y49.92197
G01 X45.03999 Y49.53000
G01 X45.03796 Y49.49081
G01 X44.97413 Y49.38728
G01 X44.78998 Y49.53000
G01 X41.78999 Y49.53000
G01 X41.78724 Y49.47773
G01 X41.76050 Y49.24930
G01 X41.69202 Y49.02975
G01 X41.67327 Y48.98090
G01 X41.64952 Y48.93427
G01 X41.53215 Y48.73648
G01 X41.38031 Y48.56376
G01 X41.34333 Y48.52675
G01 X41.30264 Y48.49381
G01 X41.11498 Y48.36086
G01 X40.89347 Y48.25997
G01 X41.11498 Y48.15911
G01 X41.30264 Y48.02617
G01 X41.34333 Y47.99322
G01 X41.38031 Y47.95622
G01 X41.53215 Y47.78350
G01 X41.64952 Y47.58571
G01 X41.67327 Y47.53907
G01 X41.69202 Y47.49023
G01 X41.76050 Y47.27067
G01 X41.76867 Y47.21898
G01 X41.78999 Y46.99000
G01 X41.54000 Y46.99000
G01 X41.52003 Y46.78713
G01 X41.50919 Y46.73600
G01 X41.44488 Y46.54258
G01 X41.34416 Y46.36536
G01 X41.31343 Y46.32310
G01 X41.17604 Y46.17253
G01 X40.98999 Y46.03735
G01 X40.77990 Y45.94382
G01 X40.58082 Y45.90011
G01 X40.52882 Y45.89465
G01 X40.32501 Y45.89602
G01 X40.12535 Y45.93704
G01 X40.07564 Y45.95320
G01 X39.91331 Y46.02549
G01 X39.86804 Y46.05162
G01 X39.72428 Y46.15607
G01 X39.68544 Y46.19104
G01 X39.55006 Y46.34342
G01 X39.43507 Y46.54258
G01 X39.36403 Y46.76127
G01 X39.34135 Y46.96386
G01 X39.34135 Y47.01611
G01 X39.36403 Y47.21870
G01 X39.43507 Y47.43740
G01 X39.53581 Y47.61461
G01 X39.56655 Y47.65688
G01 X39.70393 Y47.80745
G01 X39.86804 Y47.92835
G01 X39.91331 Y47.95449
G01 X40.10007 Y48.03615
G01 X40.29916 Y48.07986
G01 X40.35113 Y48.08532
G01 X40.55496 Y48.08395
G01 X40.77990 Y48.03615
G01 X40.98999 Y47.94263
G01 X41.17604 Y47.80745
G01 X41.32991 Y47.63656
G01 X41.44488 Y47.43740
G01 X41.51594 Y47.21870
G01 X41.54000 Y46.99000
G01 X43.78998 Y46.99000
G01 X43.77751 Y46.75190
G01 X43.76844 Y46.72955
G01 X43.77654 Y46.74916
G01 X44.86867 Y47.84131
G01 X45.05046 Y48.00608
G01 X45.12622 Y48.06826
G01 X45.53372 Y48.34052
G01 X45.62015 Y48.38672
G01 X45.84195 Y48.49162
G01 X46.07293 Y48.57427
G01 X46.16674 Y48.60272
G01 X46.40471 Y48.66234
G01 X46.64740 Y48.69835
G01 X46.74494 Y48.70795
G01 X46.99000 Y48.71999
G01 X55.88000 Y48.71999
G01 X56.12503 Y48.70795
G01 X56.22257 Y48.69835
G01 X56.46527 Y48.66234
G01 X56.70324 Y48.60272
G01 X56.79704 Y48.57427
G01 X57.02803 Y48.49162
G01 X57.24982 Y48.38672
G01 X57.33626 Y48.34052
G01 X57.74375 Y48.06826
G01 X57.81952 Y48.00608
G01 X58.00131 Y47.84131
G01 X61.81131 Y44.03131
G01 X61.97608 Y43.84952
G01 X62.03826 Y43.77375
G01 X62.18441 Y43.57670
G01 X62.31052 Y43.36626
G01 X62.35672 Y43.27982
G01 X62.54427 Y42.82704
G01 X62.57272 Y42.73324
G01 X62.66835 Y42.25257
G01 X62.67795 Y42.15503
G01 X62.68999 Y41.91000
G01 X62.68999 Y19.05000
G01 X62.67613 Y18.77563
G01 X62.61476 Y18.38815
G01 X62.59645 Y18.31188
G01 X62.47521 Y17.93878
G01 X62.44519 Y17.86628
G01 X62.26708 Y17.51675
G01 X62.22609 Y17.44985
G01 X61.99551 Y17.13248
G01 X61.81131 Y16.92867
G01 X54.19128 Y9.30867
G01 X54.00949 Y9.14390
G01 X53.93372 Y9.08172
G01 X53.52623 Y8.80946
G01 X53.43980 Y8.76325
G01 X52.98702 Y8.57570
G01 X52.89319 Y8.54725
G01 X52.41254 Y8.45162
G01 X52.31498 Y8.44202
G01 X52.06997 Y8.42998
G01 X43.75422 Y8.42988
G01 X43.96654 Y8.17999
G01 X52.06997 Y8.17999
G01 X52.33952 Y8.19323
G01 X52.43706 Y8.20283
G01 X52.96578 Y8.30801
G01 X53.05958 Y8.33646
G01 X53.55765 Y8.54276
G01 X53.64409 Y8.58896
G01 X54.09232 Y8.88848
G01 X54.16809 Y8.95066
G01 X54.36806 Y9.13188
G01 X61.98809 Y16.75188
G01 X62.18560 Y16.97012
G01 X62.43925 Y17.31922
G01 X62.48024 Y17.38612
G01 X62.67615 Y17.77060
G01 X62.70617 Y17.84309
G01 X62.83952 Y18.25351
G01 X62.85784 Y18.32978
G01 X62.92535 Y18.75599
G01 X62.93998 Y19.05000
G01 X62.93998 Y41.91000
G01 X62.92675 Y42.17954
G01 X62.91715 Y42.27708
G01 X62.81196 Y42.80581
G01 X62.78352 Y42.89961
G01 X62.57722 Y43.39768
G01 X62.53102 Y43.48411
G01 X62.39226 Y43.71558
G01 X62.23150 Y43.93235
G01 X62.16932 Y44.00812
G01 X61.98809 Y44.20809
G01 X58.17809 Y48.01809
G01 X57.97812 Y48.19932
G01 X57.90235 Y48.26150
G01 X57.45411 Y48.56102
G01 X57.36768 Y48.60722
G01 X57.12371 Y48.72258
G01 X56.86961 Y48.81352
G01 X56.77581 Y48.84196
G01 X56.24708 Y48.94715
G01 X56.14954 Y48.95675
G01 X55.88000 Y48.96998
G01 X46.99000 Y48.96998
G01 X46.72043 Y48.95675
G01 X46.62289 Y48.94715
G01 X46.35594 Y48.90755
G01 X46.09417 Y48.84196
G01 X46.00037 Y48.81352
G01 X45.74626 Y48.72258
G01 X45.50230 Y48.60722
G01 X45.41586 Y48.56102
G01 X44.96763 Y48.26150
G01 X44.89186 Y48.19932
G01 X44.69188 Y48.01809
G01 X44.01792 Y47.34413
G01 X44.05879 Y47.45957
G01 X44.25843 Y48.13724
G01 X44.28790 Y48.25997
G01 X42.70360 Y48.25997
G01 X42.81521 Y48.04750
G01 X42.88084 Y47.87649
G01 X42.93575 Y47.70750
G01 X42.98318 Y47.53056
G01 X43.01183 Y47.34964
G01 X43.03039 Y47.17291
G01 X43.04000 Y46.99000
G01 X43.03039 Y46.80707
G01 X43.01183 Y46.63034
G01 X42.98318 Y46.44941
G01 X42.93575 Y46.27248
G01 X42.88084 Y46.10349
G01 X42.81521 Y45.93247
G01 X42.70360 Y45.71997
G01 X42.81521 Y45.50750
G01 X42.88084 Y45.33649
G01 X42.93575 Y45.16750
G01 X42.98318 Y44.99056
G01 X43.01183 Y44.80964
G01 X43.03039 Y44.63291
G01 X43.04000 Y44.45000
G01 X43.03039 Y44.26707
G01 X43.01183 Y44.09034
G01 X42.98318 Y43.90941
G01 X42.93575 Y43.73248
G01 X42.88084 Y43.56349
G01 X42.81521 Y43.39247
G01 X42.70360 Y43.17997
G01 X42.81521 Y42.96750
G01 X42.88084 Y42.79649
G01 X42.93575 Y42.62750
G01 X42.98318 Y42.45056
G01 X43.01183 Y42.26964
G01 X43.03039 Y42.09291
G01 X43.04000 Y41.91000
G01 X43.03039 Y41.72707
G01 X43.01183 Y41.55034
G01 X42.98318 Y41.36941
G01 X42.93575 Y41.19248
G01 X42.88084 Y41.02349
G01 X42.81521 Y40.85247
G01 X42.70360 Y40.63997
G01 X42.81521 Y40.42750
G01 X42.88084 Y40.25649
G01 X42.93575 Y40.08750
G01 X42.98318 Y39.91056
G01 X43.01183 Y39.72964
G01 X43.03039 Y39.55291
G01 X43.04000 Y39.37000
G01 X43.03039 Y39.18707
G01 X43.01183 Y39.01034
G01 X42.98318 Y38.82941
G01 X42.93575 Y38.65248
G01 X42.88084 Y38.48349
G01 X42.81521 Y38.31247
G01 X42.70360 Y38.09997
G01 X42.81521 Y37.88750
G01 X42.88084 Y37.71649
G01 X42.93575 Y37.54750
G01 X42.98318 Y37.37056
G01 X43.01183 Y37.18964
G01 X43.03039 Y37.01291
G01 X43.04000 Y36.83000
G01 X43.03039 Y36.64707
G01 X43.01183 Y36.47034
G01 X42.98318 Y36.28941
G01 X42.93575 Y36.11248
G01 X42.88084 Y35.94349
G01 X42.81521 Y35.77247
G01 X42.70360 Y35.55997
G01 X42.81521 Y35.34750
G01 X42.85521 Y35.24326
G01 X42.79890 Y35.14987
G01 X42.85551 Y35.24374
G01 X43.00845 Y35.26155
G01 X43.18000 Y35.26998
G01 X45.68083 Y35.26998
G01 X45.66958 Y35.37707
G01 X45.65998 Y35.56000
G01 X45.66958 Y35.74291
G01 X45.68815 Y35.91964
G01 X45.71680 Y36.10056
G01 X45.76422 Y36.27750
G01 X45.81914 Y36.44649
G01 X45.88477 Y36.61750
G01 X45.99638 Y36.82997
G01 X45.88477 Y37.04247
G01 X45.81914 Y37.21349
G01 X45.76422 Y37.38248
G01 X45.71680 Y37.55941
G01 X45.68815 Y37.74034
G01 X45.66958 Y37.91707
G01 X45.65998 Y38.10000
G01 X45.66958 Y38.28291
G01 X45.68815 Y38.45964
G01 X45.71680 Y38.64056
G01 X45.75010 Y38.76485
G01 X45.75754 Y38.76756
G01 X45.60202 Y38.87147
G01 X45.52625 Y38.93365
G01 X45.39899 Y39.04899
G01 X44.12899 Y40.31899
G01 X44.01365 Y40.44625
G01 X43.95147 Y40.52202
G01 X43.76090 Y40.80726
G01 X43.71470 Y40.89370
G01 X43.64126 Y41.04894
G01 X43.58340 Y41.21064
G01 X43.55495 Y41.30444
G01 X43.51322 Y41.47104
G01 X43.48803 Y41.64091
G01 X43.47842 Y41.73845
G01 X43.46999 Y41.91000
G01 X43.46999 Y44.45000
G01 X43.47842 Y44.62153
G01 X43.48803 Y44.71906
G01 X43.51322 Y44.88894
G01 X43.55495 Y45.05554
G01 X43.58340 Y45.14934
G01 X43.64126 Y45.31103
G01 X43.71470 Y45.46628
G01 X43.76090 Y45.55272
G01 X43.95147 Y45.83796
G01 X44.01365 Y45.91373
G01 X44.12899 Y46.04098
G01 X45.39899 Y47.31098
G01 X45.52625 Y47.42632
G01 X45.60202 Y47.48850
G01 X45.88726 Y47.67908
G01 X45.97370 Y47.72528
G01 X46.12894 Y47.79871
G01 X46.29064 Y47.85657
G01 X46.38444 Y47.88502
G01 X46.55104 Y47.92675
G01 X46.72091 Y47.95195
G01 X46.81845 Y47.96155
G01 X46.99000 Y47.96998
G01 X55.88000 Y47.96998
G01 X56.05153 Y47.96155
G01 X56.14906 Y47.95195
G01 X56.48554 Y47.88502
G01 X56.57934 Y47.85657
G01 X56.74103 Y47.79871
G01 X56.89628 Y47.72528
G01 X56.98272 Y47.67908
G01 X57.26796 Y47.48850
G01 X57.34373 Y47.42632
G01 X57.47098 Y47.31098
G01 X61.28098 Y43.50098
G01 X61.39632 Y43.37373
G01 X61.45850 Y43.29796
G01 X61.56079 Y43.16001
G01 X61.64908 Y43.01272
G01 X61.69528 Y42.92628
G01 X61.82657 Y42.60934
G01 X61.85502 Y42.51554
G01 X61.92195 Y42.17906
G01 X61.93155 Y42.08153
G01 X61.93998 Y41.91000
G01 X61.93998 Y19.05000
G01 X61.93460 Y18.91269
G01 X61.92843 Y18.83446
G01 X61.88547 Y18.56323
G01 X61.86716 Y18.48696
G01 X61.78230 Y18.22577
G01 X61.75228 Y18.15330
G01 X61.62761 Y17.90863
G01 X61.58662 Y17.84172
G01 X61.42520 Y17.61955
G01 X61.28098 Y17.45899
G01 X53.66095 Y9.83899
G01 X53.53370 Y9.72365
G01 X53.45793 Y9.66147
G01 X53.17269 Y9.47090
G01 X53.08625 Y9.42470
G01 X52.76931 Y9.29340
G01 X52.67551 Y9.26495
G01 X52.33904 Y9.19803
G01 X52.24150 Y9.18842
G01 X52.06997 Y9.17999
G01 X43.01914 Y9.17994
G01 X42.94939 Y9.24326
G01 X43.01914 Y9.17994
G01 X43.03039 Y9.07291
G01 X43.04000 Y8.89000
G01 X41.54000 Y8.89000
G01 X41.52003 Y8.68713
G01 X41.50919 Y8.63600
G01 X41.44488 Y8.44258
G01 X41.32991 Y8.24342
G01 X41.19453 Y8.09104
G01 X41.15570 Y8.05607
G01 X40.98999 Y7.93735
G01 X40.77990 Y7.84382
G01 X40.58082 Y7.80011
G01 X40.52882 Y7.79465
G01 X40.32501 Y7.79602
G01 X40.10007 Y7.84382
G01 X39.88999 Y7.93735
G01 X39.72428 Y8.05607
G01 X39.68544 Y8.09104
G01 X39.55006 Y8.24342
G01 X39.44696 Y8.41926
G01 X39.42570 Y8.46701
G01 X39.36403 Y8.66127
G01 X39.34135 Y8.86386
G01 X39.34135 Y8.91611
G01 X39.36403 Y9.11870
G01 X39.43507 Y9.33740
G01 X39.55006 Y9.53656
G01 X39.68544 Y9.68893
G01 X39.72428 Y9.72391
G01 X39.88999 Y9.84263
G01 X40.07564 Y9.92678
G01 X40.12535 Y9.94293
G01 X40.32501 Y9.98395
G01 X40.55496 Y9.98395
G01 X40.77990 Y9.93615
G01 X40.98999 Y9.84263
G01 X41.17604 Y9.70745
G01 X41.32991 Y9.53656
G01 X41.44488 Y9.33740
G01 X41.51594 Y9.11870
G01 X41.54000 Y8.89000
G01 X43.04000 Y8.89000
G01 X43.12699 Y9.08317
G01 X43.27901 Y8.92998
G01 X52.06997 Y8.92998
G01 X52.26599 Y8.93961
G01 X52.36355 Y8.94923
G01 X52.74808 Y9.02571
G01 X52.84186 Y9.05416
G01 X53.20408 Y9.20420
G01 X53.29055 Y9.25040
G01 X53.61653 Y9.46823
G01 X53.69230 Y9.53041
G01 X53.83774 Y9.66221
G01 X61.45776 Y17.28221
G01 X61.61529 Y17.45719
G01 X61.79977 Y17.71109
G01 X61.84077 Y17.77799
G01 X61.98324 Y18.05762
G01 X62.01326 Y18.13011
G01 X62.11026 Y18.42859
G01 X62.12858 Y18.50489
G01 X62.17768 Y18.81485
G01 X62.18999 Y19.05000
G01 X62.18999 Y41.91000
G01 X62.18037 Y42.10601
G01 X62.17074 Y42.20357
G01 X62.09426 Y42.58810
G01 X62.06581 Y42.68191
G01 X61.91578 Y43.04411
G01 X61.86957 Y43.13057
G01 X61.76866 Y43.29892
G01 X61.65174 Y43.45656
G01 X61.58956 Y43.53232
G01 X61.45776 Y43.67776
G01 X57.64776 Y47.48776
G01 X57.50232 Y47.61956
G01 X57.42656 Y47.68174
G01 X57.10057 Y47.89957
G01 X57.01411 Y47.94578
G01 X56.83669 Y48.02970
G01 X56.65191 Y48.09581
G01 X56.55810 Y48.12426
G01 X56.17357 Y48.20074
G01 X56.07601 Y48.21037
G01 X55.88000 Y48.21999
G01 X46.99000 Y48.21999
G01 X46.79396 Y48.21037
G01 X46.69640 Y48.20074
G01 X46.50227 Y48.17194
G01 X46.31187 Y48.12426
G01 X46.21807 Y48.09581
G01 X46.03328 Y48.02970
G01 X45.85586 Y47.94578
G01 X45.76940 Y47.89957
G01 X45.44342 Y47.68174
G01 X45.36765 Y47.61956
G01 X45.22221 Y47.48776
G01 X43.95221 Y46.21776
G01 X43.82041 Y46.07232
G01 X43.75823 Y45.99656
G01 X43.54040 Y45.67057
G01 X43.49420 Y45.58411
G01 X43.41028 Y45.40669
G01 X43.34416 Y45.22191
G01 X43.31571 Y45.12810
G01 X43.26804 Y44.93771
G01 X43.25546 Y44.83517
G01 X43.26565 Y45.46150
G01 X43.27492 Y45.70418
G01 X43.31993 Y45.78843
G01 X43.56499 Y46.15515
G01 X43.62717 Y46.23092
G01 X43.77545 Y46.39452
G01 X45.04545 Y47.66452
G01 X45.20905 Y47.81281
G01 X45.28482 Y47.87499
G01 X45.65155 Y48.12005
G01 X45.73801 Y48.16625
G01 X45.93760 Y48.26066
G01 X46.14550 Y48.33503
G01 X46.23930 Y48.36350
G01 X46.45350 Y48.41715
G01 X46.67192 Y48.44953
G01 X46.76945 Y48.45916
G01 X46.99000 Y48.46998
G01 X55.88000 Y48.46998
G01 X56.10052 Y48.45916
G01 X56.19806 Y48.44953
G01 X56.41647 Y48.41715
G01 X56.63067 Y48.36350
G01 X56.72447 Y48.33503
G01 X56.93237 Y48.26066
G01 X57.13197 Y48.16625
G01 X57.21843 Y48.12005
G01 X57.58515 Y47.87499
G01 X57.66092 Y47.81281
G01 X57.82452 Y47.66452
G01 X61.63452 Y43.85452
G01 X61.78281 Y43.69092
G01 X61.84499 Y43.61515
G01 X62.09005 Y43.24843
G01 X62.13625 Y43.16197
G01 X62.30503 Y42.75447
G01 X62.33350 Y42.66067
G01 X62.41953 Y42.22806
G01 X62.42916 Y42.13052
G01 X62.43998 Y41.91000
G01 X62.43998 Y19.05000
G01 X62.43305 Y18.87344
G01 X62.42690 Y18.79524
G01 X62.37166 Y18.44652
G01 X62.35334 Y18.37022
G01 X62.24425 Y18.03443
G01 X62.21423 Y17.96194
G01 X62.05393 Y17.64736
G01 X62.01293 Y17.58046
G01 X61.80541 Y17.29483
G01 X61.75446 Y17.23517
G01 X61.63452 Y17.10545
G01 X54.01450 Y9.48545
G01 X53.85090 Y9.33717
G01 X53.77513 Y9.27499
G01 X53.40838 Y9.02993
G01 X53.32194 Y8.98373
G01 X52.91445 Y8.81494
G01 X52.82065 Y8.78647
G01 X52.38801 Y8.70044
G01 X52.29050 Y8.69081
G01 X52.06997 Y8.67999
G01 X43.52768 Y8.67997
G01 X43.75422 Y8.42988
G01 X43.71678 Y8.19348
G01 X43.64906 Y7.94073
G01 X43.59415 Y7.77171
G01 X43.53590 Y7.61997
G01 X43.59415 Y7.46826
G01 X43.64906 Y7.29925
G01 X43.71678 Y7.04649
G01 X43.75772 Y6.78802
G01 X43.77629 Y6.61132
G01 X43.78998 Y6.35000
G01 X43.77629 Y6.08866
G01 X43.75772 Y5.91195
G01 X43.71678 Y5.65348
G01 X43.64906 Y5.40073
G01 X43.59415 Y5.23171
G01 X43.53590 Y5.07997
G01 X43.59415 Y4.92826
G01 X43.64906 Y4.75925
G01 X43.71678 Y4.50649
G01 X43.75772 Y4.24802
G01 X43.77629 Y4.07132
G01 X43.78998 Y3.81000
G01 X43.77629 Y3.54866
G01 X43.75772 Y3.37195
G01 X43.71678 Y3.11348
G01 X43.64906 Y2.86073
G01 X43.59415 Y2.69171
G01 X43.50037 Y2.44742
G01 X43.38157 Y2.21427
G01 X43.29273 Y2.06037
G01 X43.15021 Y1.84092
G01 X42.98551 Y1.63754
G01 X42.86661 Y1.50548
G01 X42.68158 Y1.32044
G01 X42.47822 Y1.15578
G01 X42.33446 Y1.05133
G01 X42.11498 Y0.90881
G01 X41.88183 Y0.78999
G01 X41.71950 Y0.71773
G01 X41.47520 Y0.62395
G01 X41.22242 Y0.55621
G01 X41.04861 Y0.51928
G01 X40.79016 Y0.47833
G01 X40.52882 Y0.46464
G01 X40.35113 Y0.46464
G01 X40.08981 Y0.47833
G01 X39.83137 Y0.51928
G01 X39.65755 Y0.55621
G01 X39.40477 Y0.62395
G01 X39.16048 Y0.71773
G01 X38.99814 Y0.78999
G01 X38.76500 Y0.90881
G01 X38.54552 Y1.05133
G01 X38.40175 Y1.15578
G01 X38.19840 Y1.32044
G01 X38.01336 Y1.50548
G01 X37.89446 Y1.63754
G01 X37.72977 Y1.84092
G01 X37.58725 Y2.06037
G01 X37.49840 Y2.21427
G01 X37.37961 Y2.44742
G01 X37.28583 Y2.69171
G01 X37.23091 Y2.86073
G01 X37.16320 Y3.11348
G01 X37.12225 Y3.37195
G01 X37.10368 Y3.54866
G01 X37.08999 Y3.80997
G01 X37.10368 Y4.07132
G01 X37.12225 Y4.24802
G01 X37.16320 Y4.50649
G01 X37.23091 Y4.75925
G01 X37.28583 Y4.92826
G01 X37.34407 Y5.07997
G01 X37.28583 Y5.23171
G01 X37.23091 Y5.40073
G01 X37.16320 Y5.65348
G01 X37.12225 Y5.91195
G01 X37.10368 Y6.08866
G01 X37.08999 Y6.35000
G01 X37.10368 Y6.61132
G01 X37.12225 Y6.78802
G01 X37.16320 Y7.04649
G01 X37.23091 Y7.29925
G01 X37.28583 Y7.46826
G01 X37.34407 Y7.61997
G01 X37.28583 Y7.77171
G01 X37.23091 Y7.94073
G01 X37.16320 Y8.19348
G01 X37.12225 Y8.45195
G01 X37.10368 Y8.62866
